P2
481 321
255
39 39 39 39 39 39 39 39 40 40 40 41 41 42 42 42 42 42 42 42 42 42 42 42 42 42 42 42 42 42 42 42 41 41 41 41 41 41 41 41 39 40 40 41 41 40 40 39 40 40 40 40 40 40 40 40 40 40 40 40 40 40 40 40 40 40 40 40 40 40 40 40 40 40 40 40 40 40 40 40 40 40 40 40 40 40 40 40 40 40 40 40 40 40 40 40 40 40 40 40 40 40 40 40 40 40 40 40 40 40 40 40 41 41 41 41 41 41 41 41 41 41 41 41 41 41 41 41 41 41 41 42 42 43 43 43 42 42 42 42 42 42 42 42 43 43 43 43 43 43 43 43 44 44 44 44 44 44 44 44 44 44 44 45 45 46 46 46 46 46 46 46 46 46 46 46 45 45 45 46 46 47 47 47 48 48 48 48 48 48 48 48 48 48 48 49 49 50 50 50 51 51 51 52 52 53 53 53 54 54 54 55 55 56 56 56 56 56 56 57 57 58 58 58 60 60 60 60 60 60 60 60 61 61 61 62 62 63 63 63 62 62 62 62 62 62 62 62 64 64 64 64 64 64 64 64 64 64 64 65 65 66 66 66 66 66 66 67 67 68 68 68 67 67 67 68 68 69 69 69 69 69 69 70 70 71 71 71 70 70 70 71 71 72 72 72 72 72 72 73 73 74 74 75 75 76 76 77 77 78 78 78 77 77 77 78 78 79 79 79 79 79 79 79 79 79 79 79 80 80 80 81 81 82 82 82 82 82 82 83 83 84 84 84 84 84 84 85 85 86 86 86 86 86 86 87 87 88 88 88 87 87 87 88 88 89 89 89 89 89 89 90 90 91 91 91 90 90 90 91 91 92 92 92 92 92 92 92 92 92 92 92 92 92 92 93 93 94 94 94 96 96 96 96 96 96 96 96 97 97 97 97 97 97 97 96 96 95 95 96 96 97 97 97 96 96 96 96 96 96 96 96 98 98 98 98 98 98 98 98 97 97 97 97 97 97 97 97 97 97 96 96 96 95 95 95 95 95 94 94 94 93 93 93 92 92 91 91 91 90 90 90 90 90 89 88 87 85 84 83 81 
39 39 39 39 39 39 39 39 40 40 41 41 41 42 42 42 42 42 42 42 42 42 42 42 42 42 42 42 42 42 42 42 41 41 41 41 41 41 41 41 39 40 40 41 41 40 40 39 40 40 40 40 40 40 40 40 40 40 40 40 40 40 40 40 40 40 40 40 40 40 40 40 40 40 40 40 40 40 40 40 40 40 40 40 40 40 40 40 40 40 40 40 40 40 40 40 40 40 40 40 40 40 40 40 40 40 40 40 40 40 40 40 41 41 41 41 41 41 41 41 41 41 41 41 41 41 41 41 41 41 42 42 42 43 43 43 42 42 42 42 42 42 42 42 43 43 43 43 43 43 43 43 44 44 44 44 44 44 44 44 44 44 45 45 45 46 46 46 46 46 46 46 46 46 46 46 45 45 46 46 46 47 47 47 48 48 48 48 48 48 48 48 48 48 49 49 49 50 50 50 51 51 52 52 52 53 53 53 54 54 55 54 55 56 56 56 56 56 58 59 59 60 58 58 60 60 60 60 60 60 60 60 61 61 62 62 62 63 63 63 62 62 62 62 62 62 62 63 64 64 64 64 64 64 64 64 64 64 65 65 65 66 66 66 66 66 67 67 67 68 68 68 67 67 68 68 68 69 69 69 69 69 70 70 70 71 71 71 70 70 70 70 71 71 72 72 72 72 72 72 73 73 74 75 75 76 77 77 77 78 78 78 77 77 78 78 78 79 79 79 79 79 79 79 79 79 79 79 80 80 81 81 81 82 82 82 82 82 83 83 83 84 84 84 84 84 85 85 85 86 86 86 86 86 87 87 87 88 88 88 87 87 88 88 88 89 89 89 89 89 90 90 90 91 91 91 90 90 91 91 91 92 92 92 92 92 92 92 92 92 92 92 92 92 93 93 93 94 94 94 96 96 96 96 96 96 96 96 97 97 97 97 97 97 97 96 96 95 96 96 96 97 97 97 96 96 96 96 96 96 96 96 98 98 98 98 98 98 98 98 97 97 97 97 97 97 97 97 97 97 97 96 96 96 95 95 95 95 95 94 94 94 93 93 92 92 92 91 91 91 90 90 90 90 90 89 88 86 83 84 82 
40 40 40 40 40 40 40 40 40 41 41 41 42 42 42 42 42 42 42 42 42 42 42 42 42 42 42 42 42 42 42 42 41 41 41 41 41 41 41 41 40 40 41 41 41 41 40 40 40 40 40 40 40 40 40 40 40 40 40 40 40 40 40 40 40 40 40 40 40 40 40 40 40 40 40 40 40 40 40 40 40 40 40 40 40 40 40 40 40 40 40 40 40 40 40 40 40 40 40 40 40 40 40 40 40 40 40 40 40 40 40 40 41 41 41 41 41 41 41 41 41 41 41 41 41 41 41 41 41 42 42 42 43 43 43 43 42 42 42 42 42 42 42 42 43 43 43 43 43 43 43 43 44 44 44 44 44 44 44 44 44 45 45 45 46 46 46 46 46 46 46 46 46 46 46 46 45 46 46 46 47 47 47 47 48 48 48 48 48 48 48 48 48 49 49 49 50 50 50 50 51 52 52 52 53 53 53 53 54 55 55 55 56 56 56 56 58 58 59 59 59 60 60 60 60 60 60 60 60 60 60 60 61 62 62 62 63 63 63 63 64 64 64 64 64 64 64 64 64 64 64 64 64 64 64 64 64 65 65 65 66 66 66 66 66 67 67 67 68 68 68 67 67 68 68 68 69 69 69 69 69 70 70 70 71 71 71 71 70 72 72 72 73 73 73 73 73 74 74 74 75 75 75 74 75 77 77 77 78 78 78 78 77 78 78 78 79 79 79 79 79 79 79 79 79 79 79 79 80 81 81 81 82 82 82 82 82 83 83 83 84 84 84 84 84 85 85 85 86 86 86 86 86 87 87 87 88 88 88 88 87 88 88 88 89 89 89 89 89 90 90 90 91 91 91 91 90 91 91 91 92 92 92 92 92 92 92 92 92 92 92 92 92 93 93 93 94 94 94 94 96 96 96 96 96 96 96 96 97 97 97 97 97 97 97 96 95 96 96 96 97 97 97 97 96 96 96 96 96 96 96 96 98 98 98 98 98 98 98 98 98 98 98 98 98 98 98 98 98 98 97 97 97 96 96 96 96 96 95 95 95 94 94 94 92 92 92 92 92 91 91 91 90 90 90 90 87 88 84 83 83 
41 41 41 41 41 41 41 41 41 41 41 42 42 42 43 42 42 43 43 43 43 43 43 43 43 43 43 43 43 43 43 42 42 42 42 42 42 42 42 41 40 40 41 42 42 41 40 40 40 41 41 41 41 41 41 41 41 41 41 41 41 41 41 40 40 41 41 41 41 41 41 41 41 41 41 41 41 41 41 41 41 41 41 41 41 41 41 41 41 41 41 41 41 41 41 41 41 41 41 41 41 41 41 41 41 41 41 41 41 41 41 41 41 42 42 42 42 42 42 42 42 42 42 42 42 42 42 42 42 42 42 43 43 43 44 43 43 43 43 43 43 43 43 42 43 44 44 44 44 44 44 44 44 45 45 45 45 45 45 45 45 45 45 46 46 46 47 47 47 47 47 47 47 47 47 46 46 46 46 47 47 47 48 48 48 49 49 49 49 49 49 49 49 49 49 50 50 50 51 51 52 52 52 53 53 53 54 53 55 55 55 56 56 56 57 57 58 59 59 58 59 59 59 60 60 61 61 61 61 61 61 61 62 62 62 63 63 63 64 64 63 64 64 64 64 64 64 64 64 65 65 65 65 65 65 64 65 65 65 66 66 66 67 67 67 67 67 68 68 68 69 68 68 68 68 69 69 69 70 70 70 70 70 71 71 71 72 71 72 72 72 73 73 73 74 74 74 74 74 75 75 75 76 75 77 77 77 78 78 78 79 78 78 78 78 79 79 79 80 79 79 80 80 80 80 80 80 80 81 81 81 82 82 82 83 82 83 83 83 84 84 84 85 85 85 85 85 86 86 86 87 86 87 87 87 88 88 88 89 88 88 88 88 89 89 89 90 90 90 90 90 91 91 91 92 91 91 91 91 92 92 92 93 92 93 92 92 92 92 92 92 92 92 92 93 93 93 94 94 96 96 97 97 97 97 97 97 97 97 98 98 98 98 98 98 97 97 96 96 96 96 97 97 98 96 96 96 96 96 96 96 97 98 98 98 98 98 98 98 98 98 98 98 98 98 98 98 98 98 97 97 97 96 96 96 96 96 95 95 95 94 94 94 95 94 92 92 92 91 91 91 91 90 90 90 90 91 86 86 87 85 
41 41 41 41 41 41 41 41 41 41 42 42 42 43 43 43 43 43 43 43 43 43 43 43 43 43 43 43 43 43 43 43 42 42 42 42 42 42 42 42 40 41 42 42 42 42 41 40 41 41 41 41 41 41 41 41 41 41 41 41 41 41 41 41 41 41 41 41 41 41 41 41 41 41 41 41 41 41 41 41 41 41 41 41 41 41 41 41 41 41 41 41 41 41 41 41 41 41 41 41 41 41 41 41 41 41 41 41 41 41 41 41 42 42 42 42 42 42 42 42 42 42 42 42 42 42 42 42 42 42 43 43 43 44 44 44 43 43 43 43 43 43 43 43 44 44 44 44 44 44 44 44 45 45 45 45 45 45 45 45 45 45 46 46 46 47 47 47 47 47 47 47 47 47 47 47 46 46 47 47 47 48 48 48 49 49 49 49 49 49 49 49 49 49 50 50 50 51 51 51 52 52 53 53 53 54 54 54 55 55 56 55 56 57 57 57 57 57 58 58 58 59 59 59 61 61 61 61 61 61 61 61 62 62 63 63 63 64 64 64 64 63 64 64 64 64 64 63 65 65 65 65 65 65 65 65 65 65 66 66 66 67 67 67 67 67 68 68 68 69 69 69 68 68 69 69 69 70 70 70 70 70 71 71 71 72 72 72 71 72 73 73 73 74 74 74 74 74 75 75 75 76 75 76 77 77 78 78 78 79 79 79 78 78 79 79 79 80 80 80 80 80 80 80 80 80 80 80 81 81 82 82 82 83 82 83 83 83 84 84 84 85 85 85 85 85 86 86 86 87 87 87 87 87 88 88 88 89 89 89 88 88 89 89 89 90 90 90 90 90 91 91 91 92 92 92 91 91 92 92 92 93 93 93 94 94 94 94 94 94 94 94 94 94 95 95 95 96 96 96 97 97 97 97 97 97 97 97 98 98 98 98 98 98 98 98 97 97 98 98 98 99 99 99 98 98 98 98 98 98 98 98 99 99 99 99 99 99 99 99 99 99 99 99 99 99 99 99 100 100 100 100 99 99 99 98 98 98 98 98 97 97 97 94 94 94 94 94 93 93 93 92 92 92 92 92 91 90 89 89 87 
42 42 42 42 42 42 42 42 42 42 42 42 43 43 43 43 43 44 44 44 44 44 44 44 44 44 44 44 44 44 44 43 43 43 43 43 43 43 43 42 41 41 42 42 42 42 41 41 41 42 42 42 42 42 42 42 42 42 42 42 42 42 42 41 41 42 42 42 42 42 42 42 42 42 42 42 42 42 42 42 42 42 42 42 42 42 42 42 42 42 42 42 42 42 42 42 42 42 42 42 42 42 42 42 42 42 42 42 42 42 42 42 42 43 43 43 43 43 43 43 43 43 43 43 43 43 43 43 43 43 43 43 44 44 44 44 44 44 44 44 44 44 44 43 44 45 45 45 45 45 45 45 45 46 46 46 46 46 46 46 46 46 46 46 47 47 47 48 48 48 48 48 48 48 48 47 47 47 47 47 48 48 48 49 49 50 50 50 50 50 50 50 50 50 50 50 51 51 51 52 52 53 53 53 54 54 54 54 55 56 56 56 57 57 57 57 57 57 58 58 59 59 59 59 61 62 62 62 62 62 62 62 62 63 63 63 64 64 64 64 63 63 63 63 63 63 63 64 65 66 66 66 66 66 66 65 65 66 66 66 67 67 67 68 68 68 68 68 69 69 69 69 69 69 69 69 70 70 70 71 71 71 71 71 72 72 72 72 72 72 72 73 73 73 74 74 74 74 74 75 75 75 76 77 77 78 78 78 79 79 79 79 79 79 79 79 80 80 80 80 80 80 80 80 80 80 80 80 81 81 81 82 82 82 83 84 84 84 84 84 85 85 85 86 86 86 86 86 87 87 87 87 87 88 88 88 89 89 89 89 89 89 89 89 90 90 90 91 91 91 91 91 92 92 92 92 92 92 92 92 93 93 93 93 94 95 95 95 95 95 95 95 95 95 95 95 96 96 96 96 97 98 98 98 98 98 98 98 98 99 99 99 99 99 99 98 97 98 98 98 99 99 99 99 99 99 99 99 99 99 99 98 99 100 100 100 100 100 100 100 100 100 100 100 100 100 100 100 101 100 100 100 100 99 99 99 99 98 98 98 98 97 97 97 94 94 94 93 93 93 92 92 92 92 92 92 91 90 89 90 89 
43 43 43 43 43 43 43 42 42 42 42 43 43 43 44 43 44 44 44 44 44 44 44 44 44 44 44 44 44 44 44 44 43 43 43 43 43 43 43 43 41 42 42 42 42 42 42 41 42 42 42 42 42 42 42 42 42 42 42 42 42 42 42 42 42 42 42 42 42 42 42 42 42 42 42 42 42 42 42 42 42 42 42 42 42 42 42 42 42 42 42 42 42 42 42 42 42 42 42 42 42 42 42 42 42 42 42 42 42 42 42 42 43 43 43 43 43 43 43 43 43 43 43 43 43 43 43 43 43 43 43 44 44 44 45 44 44 44 44 44 44 44 44 44 45 45 45 45 45 45 45 45 46 46 46 46 46 46 46 46 46 46 46 47 47 47 48 48 48 48 48 48 48 48 48 48 47 47 47 48 48 48 49 49 50 50 50 50 50 50 50 50 50 50 50 51 51 51 52 52 53 53 53 54 54 54 55 54 56 56 56 57 57 57 58 57 59 59 59 58 61 59 61 61 62 62 62 62 62 62 62 62 63 63 63 64 64 64 65 64 65 65 65 65 65 65 65 65 66 66 66 66 66 66 66 66 66 66 66 67 67 67 68 68 68 68 68 69 69 69 70 69 69 69 69 70 70 70 71 71 71 71 71 72 72 72 73 72 73 73 73 73 74 74 75 75 75 75 75 75 76 76 77 77 78 78 78 79 79 79 80 79 79 79 79 80 80 80 81 80 81 82 82 82 82 82 82 82 82 83 83 83 84 84 85 84 84 84 84 85 85 85 86 86 86 86 86 87 87 87 88 87 88 88 88 89 89 89 90 89 89 89 89 90 90 90 91 91 91 91 91 92 92 92 93 92 92 92 92 93 93 93 94 93 95 95 95 95 95 95 95 95 95 95 95 96 96 96 97 96 98 98 98 98 98 98 98 98 99 99 99 99 99 99 99 99 98 98 98 99 99 99 100 99 99 99 99 99 99 99 99 99 100 100 100 100 100 100 100 100 100 101 101 101 101 101 101 101 101 101 100 100 100 99 99 99 99 99 98 98 98 97 97 97 96 96 95 95 95 94 94 93 93 93 93 93 93 93 92 91 90 
43 43 43 43 43 43 43 43 42 42 42 43 43 44 44 44 43 44 44 44 44 44 44 44 44 44 44 44 44 44 44 44 43 43 43 43 43 43 43 43 42 42 42 43 43 42 42 41 42 42 42 42 42 42 42 42 42 42 42 42 42 42 42 42 42 42 42 42 42 42 42 42 42 42 42 42 42 42 42 42 42 42 42 42 42 42 42 42 42 42 42 42 42 42 42 42 42 42 42 42 42 42 42 42 42 42 42 42 42 42 42 42 42 43 43 43 43 43 43 43 43 43 43 43 43 43 43 43 43 43 43 43 44 44 45 44 44 44 44 44 44 44 44 44 45 45 45 45 45 45 45 45 46 46 46 46 46 46 46 46 46 46 46 47 47 48 48 48 48 48 48 48 48 48 48 47 47 47 47 48 48 49 49 49 50 50 50 50 50 50 50 50 50 50 50 50 51 51 51 52 53 53 53 54 54 55 55 55 56 56 56 57 57 58 58 58 59 60 60 60 61 61 62 62 62 62 62 62 62 62 62 62 63 63 63 64 64 65 65 65 65 65 66 66 66 66 66 66 66 66 66 66 66 66 66 66 66 66 66 67 67 68 68 68 68 68 68 69 69 70 70 69 69 68 69 69 70 70 70 71 71 71 71 72 72 73 73 73 73 73 73 73 74 74 74 75 75 75 75 76 76 77 77 77 78 78 78 79 79 80 80 80 79 79 79 80 80 81 81 81 82 82 82 82 82 82 82 82 83 83 83 84 84 84 85 85 84 84 84 84 85 85 85 86 86 86 86 87 87 88 88 88 88 88 88 89 89 90 90 90 89 89 89 89 90 91 91 91 91 91 91 92 92 93 93 93 92 92 92 92 93 94 94 94 95 95 95 95 95 95 95 95 95 95 95 95 96 96 96 97 97 98 98 98 98 98 98 98 99 99 99 99 99 99 99 99 98 98 98 98 99 99 99 99 99 99 99 99 99 99 99 99 100 100 100 100 100 100 100 100 100 101 101 101 101 101 101 101 101 101 101 100 99 99 99 99 99 98 98 98 97 97 97 97 96 95 95 95 94 94 94 93 93 93 93 93 93 92 92 92 91 
44 44 44 44 44 44 44 44 44 44 44 44 44 44 44 44 45 46 45 45 45 44 44 44 44 44 44 44 44 44 44 44 43 43 43 43 43 43 43 43 43 43 43 43 43 43 43 42 42 42 42 42 42 42 42 42 42 42 42 42 42 42 42 42 42 43 43 43 43 43 43 42 42 42 42 42 42 42 42 42 42 42 42 42 42 42 42 42 42 43 43 43 43 43 43 43 43 43 43 43 43 43 43 42 42 42 42 42 42 42 42 42 42 42 42 42 42 42 42 42 43 43 43 43 43 43 43 43 43 43 45 44 43 43 44 44 44 44 44 45 45 45 46 45 45 45 45 45 45 45 45 45 46 46 46 46 46 46 46 46 46 46 46 47 47 48 48 48 48 48 48 49 49 49 50 49 47 48 48 49 49 49 50 50 50 51 51 51 51 51 51 51 51 52 52 53 53 53 54 54 54 54 54 55 55 55 56 55 56 57 57 58 58 58 59 58 60 60 60 61 61 62 62 62 62 62 62 63 63 63 64 63 63 63 63 64 64 65 65 65 65 66 66 66 66 66 66 66 66 67 67 67 67 67 67 66 66 67 67 68 68 68 69 69 69 69 69 70 70 70 71 71 70 71 71 72 72 72 73 72 72 72 72 73 73 73 74 73 74 75 75 76 76 76 77 76 76 76 76 77 77 77 78 77 78 79 79 80 80 80 81 81 81 81 81 81 81 81 81 81 82 83 83 83 83 83 83 83 83 83 83 84 84 84 85 85 85 86 86 87 87 87 88 87 87 87 87 88 88 88 89 88 88 89 89 90 90 90 91 91 91 92 92 92 92 92 92 92 92 92 92 93 93 93 94 94 94 95 95 95 95 95 95 94 95 97 97 98 98 98 99 98 98 98 98 98 98 98 98 97 99 100 100 100 100 100 100 100 100 100 100 100 100 100 100 99 99 99 99 99 99 99 99 99 100 101 101 101 101 101 101 101 101 102 102 102 102 102 102 102 102 103 103 103 103 103 103 102 101 102 102 102 102 102 102 102 102 102 101 101 101 100 100 99 98 98 97 97 97 96 96 95 95 95 94 94 94 93 93 92 91 
44 44 44 44 44 44 44 44 44 44 44 44 44 44 44 44 46 46 46 45 45 45 44 44 44 44 44 44 44 44 44 44 43 43 43 43 43 43 43 43 43 43 43 43 43 43 43 43 42 42 42 42 42 42 42 42 42 42 42 42 42 42 42 42 43 43 43 43 43 43 43 43 42 42 42 42 42 42 42 42 42 42 42 42 42 42 42 42 43 43 43 43 43 43 43 43 43 43 43 43 43 43 43 43 42 42 42 42 42 42 42 42 42 42 42 42 42 42 42 42 43 43 43 43 43 43 43 43 43 43 45 45 43 43 43 44 44 44 45 45 45 46 46 46 45 45 45 45 45 45 45 45 46 46 46 46 46 46 46 46 46 46 47 47 47 48 48 48 48 48 49 49 49 50 50 50 48 48 49 49 49 50 50 50 51 51 51 51 51 51 51 51 52 52 53 53 53 54 54 54 54 54 55 55 55 56 56 56 57 57 58 57 58 59 59 59 60 60 61 61 61 62 62 62 62 62 63 63 63 64 64 64 63 63 64 64 64 65 65 65 65 66 66 66 66 66 66 66 67 67 67 67 67 67 67 67 67 67 68 68 68 69 69 69 69 69 70 70 70 71 71 71 71 71 72 72 72 73 73 73 72 72 73 73 73 74 74 74 75 75 75 75 76 76 77 76 76 76 76 76 77 77 78 78 79 79 80 80 80 81 81 81 81 81 81 81 81 81 81 81 83 83 83 83 83 83 83 83 83 83 83 83 84 84 84 85 86 86 87 87 87 88 88 88 87 87 88 88 88 89 89 89 89 89 90 90 90 91 91 91 92 92 92 92 92 92 92 92 92 92 93 93 93 94 94 94 95 95 95 95 95 95 95 95 97 97 98 98 98 99 99 99 98 98 98 98 98 98 98 98 100 100 100 100 100 100 100 100 100 100 100 100 100 100 100 100 99 99 99 99 99 99 99 99 101 101 101 101 101 101 101 101 101 102 102 102 102 102 102 102 102 103 103 103 103 103 103 103 102 102 102 102 102 102 102 102 102 101 101 101 100 100 99 99 98 98 98 97 97 97 96 96 95 95 95 94 94 94 93 93 92 
44 44 44 44 44 44 44 44 44 44 44 44 44 44 44 44 46 46 46 46 45 45 45 44 44 44 44 44 44 44 44 44 43 43 43 43 43 43 43 43 43 43 43 43 43 43 43 43 42 42 42 42 42 42 42 42 42 42 42 42 42 42 42 42 43 43 43 43 43 43 43 43 42 42 42 42 42 42 42 42 42 42 42 42 42 42 42 42 43 43 43 43 43 43 43 43 43 43 43 43 43 43 43 43 42 42 42 42 42 42 42 42 42 42 42 42 42 42 42 42 43 43 43 43 43 43 43 43 43 45 45 44 43 43 43 45 44 45 45 45 46 46 46 46 45 45 45 45 45 45 45 45 46 46 46 46 46 46 46 46 46 47 47 47 48 48 48 48 48 49 49 49 50 50 50 50 48 49 49 49 50 50 50 50 51 51 51 51 51 51 51 51 52 53 53 53 54 54 54 54 54 55 55 55 56 56 56 56 57 58 58 58 59 59 59 59 60 61 61 61 62 62 62 62 62 63 63 63 64 64 64 64 63 64 64 64 65 65 65 65 65 66 66 66 66 66 66 66 67 67 67 67 67 67 67 67 67 68 68 68 69 69 69 69 69 70 70 70 71 71 71 71 71 72 72 72 73 73 73 73 72 73 73 73 74 74 74 74 76 77 77 77 78 78 78 78 77 78 78 78 79 79 79 79 79 80 80 80 81 81 81 81 81 81 81 81 81 81 81 81 83 83 83 83 83 83 83 83 84 84 84 85 85 85 86 86 86 87 87 87 88 88 88 88 87 88 88 88 89 89 89 89 89 90 90 90 91 91 91 91 92 92 92 92 92 92 92 92 92 93 93 93 94 94 94 94 95 95 95 95 95 95 95 95 97 98 98 98 99 99 99 99 98 98 98 98 98 98 98 98 100 100 100 100 100 100 100 100 100 100 100 100 100 100 100 99 100 100 100 100 100 100 100 100 101 101 101 101 101 101 101 101 102 103 103 103 103 103 103 103 103 103 103 103 103 103 103 103 103 103 103 103 103 103 103 103 103 103 102 102 102 101 101 101 98 98 98 98 98 97 97 97 96 96 95 95 95 94 94 94 94 
45 45 45 45 45 45 45 45 45 45 45 45 45 45 45 44 46 47 46 46 46 45 45 45 45 45 45 45 45 45 45 44 44 44 44 44 44 44 44 44 44 44 44 44 44 44 44 43 43 43 43 43 43 43 43 43 43 43 43 43 43 43 43 42 43 44 44 44 44 44 44 43 43 43 43 43 43 43 43 43 43 43 43 43 43 43 43 43 43 44 44 44 44 44 44 44 44 44 44 44 44 44 44 43 43 43 43 43 43 43 43 43 43 43 43 43 43 43 43 43 43 44 44 44 44 44 44 44 44 46 45 46 43 43 45 45 45 45 45 46 46 46 47 46 45 46 46 46 46 46 46 46 46 47 47 47 47 47 47 47 47 47 47 48 48 48 49 49 49 49 49 50 50 50 51 50 49 49 49 50 50 50 51 51 51 52 52 52 52 52 52 52 53 53 53 54 54 54 55 55 55 55 55 56 56 56 57 56 58 58 58 59 59 59 60 59 61 60 61 62 62 62 63 63 63 63 63 64 64 64 65 64 64 64 64 65 65 65 66 65 66 66 67 67 67 67 67 67 67 68 68 68 68 68 68 67 68 68 68 69 69 69 70 70 70 70 70 71 71 71 72 72 71 72 72 73 73 73 74 73 73 73 73 74 74 74 75 74 77 77 77 78 78 78 79 78 78 78 78 79 79 79 80 80 80 80 80 81 81 81 82 82 82 82 82 82 82 82 82 81 83 84 84 84 84 84 84 84 85 85 85 84 86 86 86 87 87 87 87 88 88 88 89 88 88 88 88 89 89 89 90 89 90 90 90 91 91 91 92 92 92 93 93 93 93 93 93 93 93 93 93 94 94 94 95 95 95 96 96 96 96 96 95 95 97 97 98 98 98 99 99 99 98 98 98 98 98 98 98 98 100 101 101 101 101 101 101 101 101 101 101 101 101 101 101 100 101 101 101 101 101 101 101 101 102 102 102 102 102 102 102 102 103 104 104 104 104 104 104 104 104 104 104 104 104 104 104 104 103 103 103 103 103 103 103 103 103 102 102 102 101 101 101 102 100 98 98 98 97 97 97 98 96 95 95 95 94 94 94 94 94 
45 45 45 45 45 45 45 45 45 45 45 45 45 45 45 45 47 47 47 46 46 46 45 45 45 45 45 45 45 45 45 45 44 44 44 44 44 44 44 44 44 44 44 44 44 44 44 44 43 43 43 43 43 43 43 43 43 43 43 43 43 43 43 43 44 44 44 44 44 44 44 44 43 43 43 43 43 43 43 43 43 43 43 43 43 43 43 43 44 44 44 44 44 44 44 44 44 44 44 44 44 44 44 44 43 43 43 43 43 43 43 43 43 43 43 43 43 43 43 43 44 44 44 44 44 44 44 44 44 44 46 46 43 44 45 45 45 45 46 46 46 47 47 47 46 46 46 46 46 46 46 46 47 47 47 47 47 47 47 47 47 47 48 48 48 49 49 49 49 49 50 50 50 51 51 51 49 49 50 50 50 51 51 51 52 52 52 52 52 52 52 52 53 53 54 54 54 55 55 55 55 55 56 56 56 57 57 57 58 58 59 58 59 60 60 60 61 61 62 62 62 63 63 63 63 63 64 64 64 65 65 65 64 64 65 65 65 66 66 66 66 67 67 67 67 67 67 67 68 68 68 68 68 68 68 68 68 68 69 69 69 70 70 70 70 70 71 71 71 72 72 72 72 72 73 73 73 74 74 74 73 73 74 74 74 75 74 75 77 77 78 78 78 79 79 79 78 78 79 79 79 80 80 80 80 80 81 81 81 82 82 82 82 82 82 82 82 82 82 82 84 84 84 84 84 84 84 84 85 86 86 86 87 87 87 87 87 87 88 88 88 89 89 89 88 88 89 89 89 90 90 90 90 90 91 91 91 92 92 92 93 93 93 93 93 93 93 93 93 93 94 94 94 95 95 95 96 96 96 96 96 96 96 96 97 98 99 99 98 100 100 99 98 98 98 98 98 98 98 98 101 101 101 101 101 101 101 101 101 101 101 101 101 101 101 101 101 101 101 101 101 101 101 101 103 102 102 102 102 102 102 103 104 104 104 104 104 104 104 104 104 104 104 104 104 104 104 104 104 104 104 104 104 104 104 104 104 104 104 104 103 103 103 102 100 101 101 101 100 100 100 99 98 98 98 98 97 97 97 96 94 
46 46 46 46 46 46 46 46 46 46 46 46 46 46 46 45 47 47 47 47 46 46 46 46 46 46 46 46 46 46 46 45 45 45 45 45 45 45 45 45 45 45 45 45 45 45 45 44 44 44 44 44 44 44 44 44 44 44 44 44 44 44 44 43 44 45 45 45 45 45 45 44 44 44 44 44 44 44 44 44 44 44 44 44 44 44 44 44 44 45 45 45 45 45 45 45 45 45 45 45 45 45 45 44 44 44 44 44 44 44 44 44 44 44 44 44 44 44 44 44 44 45 45 45 45 45 45 45 44 46 46 45 44 44 44 46 46 46 46 46 47 47 47 47 46 47 47 47 47 47 47 47 47 48 48 48 48 48 48 48 48 48 48 48 49 49 49 50 50 50 50 50 51 51 51 51 49 50 50 50 51 51 51 52 52 53 53 53 53 53 53 53 53 54 54 54 55 55 55 56 56 56 56 56 57 57 57 57 58 59 59 59 60 60 60 60 61 62 62 62 63 63 63 64 64 64 64 64 65 65 65 65 65 65 65 65 66 66 66 66 67 67 68 68 68 68 68 68 68 69 69 69 69 69 69 68 68 69 69 69 70 70 70 71 71 71 71 71 72 72 72 73 72 73 73 73 74 74 74 74 74 74 74 74 75 75 75 77 77 78 77 78 79 78 79 79 78 79 78 79 80 79 80 81 81 81 81 81 82 82 82 83 83 83 83 83 83 83 83 82 84 84 84 84 84 84 84 84 86 85 86 86 86 87 87 87 87 88 88 88 89 89 89 89 89 89 89 89 90 90 90 90 90 91 91 91 92 92 92 93 93 94 94 94 94 94 94 94 94 94 94 94 95 95 95 96 96 97 97 97 97 97 96 96 98 99 99 99 100 100 100 100 100 100 100 100 100 100 100 99 101 102 102 102 102 102 102 102 102 102 102 102 102 102 102 101 103 103 103 103 103 103 103 103 104 104 104 104 104 104 104 103 105 105 105 105 105 105 105 105 105 105 105 105 105 105 105 104 105 105 105 105 105 105 105 105 105 105 105 104 104 104 103 103 102 102 102 101 101 101 100 100 99 99 99 98 98 98 97 97 94 
46 46 46 46 46 46 46 46 46 46 46 46 46 46 46 46 47 48 47 47 47 46 46 46 46 46 46 46 46 46 46 46 45 45 45 45 45 45 45 45 45 45 45 45 45 45 45 45 44 44 44 44 44 44 44 44 44 44 44 44 44 44 44 44 45 45 45 45 45 45 45 45 44 44 44 44 44 44 44 44 44 44 44 44 44 44 44 44 45 45 45 45 45 45 45 45 45 45 45 45 45 45 45 45 44 44 44 44 44 44 44 44 44 44 44 44 44 44 44 44 45 45 45 45 45 45 45 45 44 46 46 47 44 44 46 46 46 46 46 47 47 47 48 47 47 47 47 47 47 47 47 47 48 48 48 48 48 48 48 48 48 48 48 49 49 49 50 50 50 50 50 51 51 51 52 51 50 50 50 51 51 51 52 52 53 53 53 53 53 53 53 53 54 54 54 55 55 55 56 56 56 56 56 57 57 57 58 57 59 59 59 60 60 60 61 60 62 62 62 63 63 63 64 64 64 64 64 65 65 65 66 65 65 65 65 66 66 66 67 66 67 68 68 68 68 68 68 68 68 69 69 69 69 69 69 69 69 69 69 70 70 70 71 71 71 71 71 72 72 72 73 72 73 73 73 74 74 74 75 74 74 74 74 75 75 75 75 76 78 78 78 79 79 79 80 79 79 79 79 80 80 80 81 81 81 81 81 82 82 82 83 83 83 83 83 83 83 83 83 83 85 85 85 85 85 85 85 85 87 87 87 88 88 88 89 89 88 88 88 89 89 89 90 89 89 89 89 90 90 90 90 90 91 91 91 91 92 92 92 93 94 94 94 94 94 94 94 94 94 94 94 94 94 95 95 96 96 97 97 97 97 97 97 97 98 99 99 100 100 100 101 100 100 100 100 100 100 100 100 100 101 102 102 102 102 102 102 102 102 102 102 102 102 102 102 101 103 104 104 104 104 104 104 104 104 104 104 104 104 104 104 104 105 106 106 106 106 106 106 105 105 105 105 105 105 105 105 105 105 105 106 106 106 106 106 106 106 106 105 105 105 104 104 103 102 103 102 102 102 101 101 100 100 100 99 99 99 98 98 97 96 
46 46 46 46 46 46 46 46 46 46 46 46 46 46 46 46 47 47 47 47 46 46 46 46 46 46 46 46 46 46 46 45 45 45 45 45 45 45 45 45 45 45 45 45 45 45 45 45 44 44 44 44 44 44 44 44 44 44 44 44 44 44 44 44 45 45 45 45 45 45 45 45 44 44 44 44 44 44 44 44 44 44 44 44 44 44 44 44 44 45 45 45 45 45 45 45 45 45 45 45 45 45 45 44 44 44 44 44 44 44 44 44 44 44 44 44 44 44 44 44 44 45 45 45 45 45 45 45 45 45 46 46 45 45 46 46 46 46 46 47 47 47 47 47 47 47 47 47 47 47 47 47 48 48 48 48 48 48 48 48 48 48 48 49 49 50 50 50 50 50 50 51 51 52 52 52 50 50 50 51 51 52 52 52 53 53 53 53 53 53 53 53 53 54 54 54 55 55 55 56 56 56 56 56 57 57 57 58 59 59 59 60 60 60 60 61 62 62 62 63 63 64 64 64 64 64 64 65 65 65 65 65 65 65 65 66 66 66 66 66 67 67 67 68 67 68 67 68 68 69 68 69 68 69 68 69 69 69 69 69 70 70 70 71 71 71 71 71 72 72 72 73 73 72 73 73 74 74 74 74 74 74 74 74 75 75 75 76 78 78 78 79 79 79 79 79 79 79 79 80 80 81 81 81 81 81 81 81 82 82 82 83 83 83 83 83 83 83 83 83 85 85 85 85 85 85 85 85 87 87 87 87 88 88 88 89 88 88 88 88 89 89 89 89 89 89 89 89 90 90 90 91 91 91 91 91 92 92 93 93 94 94 94 94 94 94 94 94 94 94 94 95 95 97 95 96 96 97 97 97 97 97 97 97 98 98 99 99 100 100 100 100 100 100 100 100 100 100 100 100 101 101 101 101 101 101 101 101 101 101 101 101 101 101 101 102 103 104 104 104 104 104 104 104 104 104 104 104 104 104 104 104 106 106 106 106 106 106 106 105 105 105 105 105 105 105 105 105 105 105 106 106 106 106 106 106 106 105 105 105 104 104 104 103 103 102 102 102 101 101 101 100 100 99 99 99 98 98 97 97 97 
48 48 48 48 48 48 48 48 48 48 48 48 48 48 48 47 47 47 47 47 47 47 47 47 47 47 47 47 47 47 47 46 45 46 46 46 46 46 46 45 45 45 45 45 45 45 45 45 45 46 45 45 45 44 44 44 44 44 44 44 44 44 44 44 45 45 45 45 45 45 45 45 45 45 45 45 45 45 45 44 44 44 44 44 44 44 44 44 44 44 44 44 44 44 44 44 44 44 43 43 43 43 44 44 45 45 45 45 45 45 45 44 45 45 45 45 45 45 45 45 45 46 46 46 46 46 46 45 45 45 45 46 46 46 47 47 47 47 47 47 47 47 47 47 47 48 48 48 48 48 48 48 48 49 49 49 49 49 49 48 49 50 50 50 50 50 50 50 50 50 50 51 51 52 52 52 51 51 51 52 52 52 53 53 53 54 54 54 54 54 54 53 54 55 55 56 56 56 57 57 57 57 57 58 58 58 59 58 59 60 60 60 61 61 62 62 62 62 63 63 63 63 64 64 64 65 65 65 65 65 65 65 65 66 66 66 66 66 66 66 67 67 67 67 67 68 69 68 68 68 68 68 68 69 70 70 70 70 70 71 71 72 72 72 71 71 71 72 72 73 73 73 73 74 74 75 75 75 76 75 75 75 75 76 76 76 77 77 78 79 79 79 79 79 79 79 80 81 81 81 81 81 81 81 81 82 82 83 83 83 84 83 83 83 83 84 84 84 85 85 85 85 85 86 86 86 87 87 87 87 87 88 88 88 89 88 88 88 88 89 89 89 90 90 90 91 91 91 91 91 91 91 92 92 93 93 94 94 95 94 95 95 95 95 96 96 97 96 95 96 96 96 97 97 97 97 97 98 97 98 99 99 99 99 98 99 99 100 100 100 101 101 101 102 102 102 102 102 102 102 102 102 102 102 102 102 102 101 103 104 104 104 104 104 104 103 103 103 103 104 104 104 105 105 105 105 105 105 105 105 105 104 106 106 106 106 106 106 106 106 107 107 107 107 107 107 107 107 107 108 108 108 108 108 108 108 108 108 108 108 108 108 107 106 104 104 103 103 103 102 102 101 101 101 100 100 100 99 99 98 98 
48 48 48 48 48 48 48 48 48 48 48 48 48 48 48 48 47 47 47 47 47 47 47 47 47 47 47 47 47 47 47 47 46 46 46 46 46 46 46 46 45 45 45 45 45 45 45 45 46 46 46 45 45 45 44 44 44 44 44 44 44 44 44 44 45 45 45 45 45 45 45 45 45 45 45 45 45 45 45 45 44 44 44 44 44 44 44 44 44 44 44 44 44 44 44 44 44 44 44 43 43 44 44 45 45 45 45 45 45 45 45 45 45 45 45 45 45 45 45 45 46 46 46 46 46 46 46 45 45 45 46 46 46 47 47 47 47 47 47 47 47 47 47 47 48 48 48 48 48 48 48 48 49 49 49 49 49 49 49 49 50 50 50 50 50 50 50 50 50 50 51 51 51 52 52 52 51 51 52 52 52 53 53 53 54 54 54 54 54 54 54 54 55 55 56 56 56 57 57 57 57 57 58 58 58 59 59 59 60 59 61 60 61 62 62 62 62 62 63 63 63 64 64 64 65 65 65 65 65 65 65 65 66 66 66 66 66 66 66 66 67 67 68 68 68 69 69 68 68 68 69 69 69 70 70 69 70 70 71 71 71 72 72 72 71 71 72 72 72 73 73 73 74 74 75 75 75 76 76 76 75 75 76 76 76 77 77 77 79 79 79 79 79 79 79 79 81 81 81 81 81 81 81 81 82 82 83 83 83 84 84 84 83 83 84 84 84 85 85 85 85 85 86 86 86 87 87 87 87 87 88 88 88 89 89 89 88 88 89 89 89 90 90 90 91 91 91 91 91 91 91 91 93 93 94 94 94 95 95 95 95 95 96 96 96 97 97 95 96 95 97 97 96 98 98 98 97 97 99 99 98 100 100 99 99 99 100 100 100 101 101 101 102 102 102 102 102 102 102 102 102 102 102 102 102 102 102 102 104 104 104 104 104 104 104 104 103 103 104 104 104 105 105 105 105 105 105 105 105 105 105 105 106 106 106 106 106 106 106 106 107 107 107 107 107 107 107 107 108 108 108 108 108 108 108 108 108 108 108 108 108 108 108 107 104 103 104 103 103 103 102 102 101 101 101 100 100 100 99 99 98 
48 48 48 48 48 48 48 48 48 48 48 48 48 48 48 48 47 47 47 47 47 47 47 47 47 47 47 47 47 47 47 47 46 46 46 46 46 46 46 46 45 45 45 45 45 45 45 45 46 46 46 46 45 45 45 44 44 44 44 44 44 44 44 44 45 45 45 45 45 45 45 45 45 45 45 45 45 45 45 45 44 44 44 44 44 44 44 44 46 46 46 46 46 46 46 46 45 45 44 44 44 44 45 45 45 45 45 45 45 45 45 45 45 45 45 45 45 45 45 45 46 46 46 46 46 46 46 46 45 46 46 46 47 47 47 47 47 47 47 47 47 47 47 47 48 48 48 48 48 48 48 48 49 49 49 49 49 49 49 49 50 50 50 50 50 50 50 50 50 51 51 51 52 52 52 52 51 52 52 52 53 53 53 53 54 54 54 54 54 54 54 54 55 56 56 56 57 57 57 57 57 58 58 58 59 59 59 59 60 61 61 61 62 62 62 62 62 63 63 63 64 64 64 64 65 65 65 65 65 65 65 65 66 66 66 66 66 66 66 66 67 68 68 68 69 69 69 69 68 69 69 69 70 70 70 70 70 71 71 71 72 72 72 72 71 72 72 72 73 73 73 73 74 75 75 75 76 76 76 76 75 76 76 76 77 77 77 77 79 79 79 79 79 79 79 79 81 81 81 81 81 81 81 81 82 83 83 83 84 84 84 84 83 84 84 84 85 85 85 85 85 86 86 86 87 87 87 87 87 88 88 88 89 89 89 89 88 89 89 89 90 90 90 90 91 91 91 91 91 91 91 91 93 94 94 94 95 95 95 95 95 96 96 96 97 97 97 96 96 97 97 97 98 98 98 98 98 99 99 99 100 100 100 100 99 100 100 100 101 101 101 101 102 102 102 102 102 102 102 102 102 102 102 102 102 102 102 102 104 104 104 104 104 104 104 104 103 104 104 104 105 105 105 105 105 105 105 105 105 105 105 105 106 106 106 106 106 106 106 106 107 107 107 107 107 107 107 107 108 108 108 108 108 108 108 108 108 108 108 108 108 108 108 107 105 105 104 104 104 103 103 103 102 102 101 101 101 100 100 100 99 
49 49 49 49 49 49 49 49 49 49 49 49 49 49 49 48 48 48 48 48 48 48 48 48 48 48 48 48 48 48 48 47 46 47 47 47 47 47 47 46 46 46 46 46 46 46 46 46 46 47 46 46 46 45 45 45 45 45 45 45 45 45 45 44 45 46 46 46 46 46 46 46 46 46 46 46 46 46 46 45 45 45 45 45 45 45 45 45 45 46 46 46 46 46 46 46 46 45 44 44 44 44 45 46 46 46 46 46 46 46 46 46 46 45 46 46 46 46 46 46 46 47 47 47 47 47 47 46 46 46 46 47 47 47 48 48 48 48 48 48 48 48 48 47 48 49 49 49 49 49 49 49 49 50 50 50 50 50 50 49 50 51 51 51 51 51 51 51 51 51 51 52 52 52 53 52 52 52 52 53 53 53 54 54 54 55 55 55 55 55 55 54 56 56 56 57 57 57 58 58 58 58 58 59 59 59 60 59 61 61 61 61 62 62 63 63 63 62 63 64 64 64 65 65 65 66 66 66 66 66 66 66 66 67 67 67 67 67 66 66 67 68 68 69 69 69 70 69 69 69 69 70 70 70 71 70 71 71 71 72 72 72 73 72 72 72 72 73 73 73 74 74 75 75 75 76 76 76 77 76 76 76 76 77 77 77 78 77 79 80 80 80 80 80 80 79 81 82 82 82 82 82 82 81 83 83 83 84 84 84 85 84 84 84 84 85 85 85 86 85 86 86 86 87 87 87 88 88 88 88 88 89 89 89 90 89 89 89 89 90 90 90 91 91 91 92 92 92 92 92 92 91 94 94 94 95 95 95 96 96 96 96 96 97 97 97 97 97 96 97 97 98 98 98 99 99 99 99 99 100 100 100 101 100 100 100 100 101 101 101 102 102 102 103 103 103 103 103 103 103 103 103 103 103 103 103 103 102 104 105 105 105 105 105 105 104 104 104 104 105 105 105 106 106 106 106 106 106 106 106 105 105 107 107 107 107 107 107 107 107 107 108 108 108 108 108 108 108 108 108 108 108 108 108 108 108 108 108 108 108 108 108 108 108 105 105 104 104 103 103 103 104 102 101 101 101 100 100 100 101 100 
49 49 49 49 49 49 49 49 49 49 49 49 49 49 49 49 48 48 48 48 48 48 48 48 48 48 48 48 48 48 48 48 47 47 47 47 47 47 47 47 46 46 46 46 46 46 46 46 47 47 47 46 46 46 45 45 45 45 45 45 45 45 45 45 46 46 46 46 46 46 46 46 46 46 46 46 46 46 46 46 45 45 45 45 45 45 45 45 45 46 46 46 46 46 46 46 45 46 45 44 44 45 46 46 46 46 46 46 46 46 46 46 46 46 46 46 46 46 46 46 47 47 47 47 47 47 47 47 46 46 47 47 47 48 48 48 48 48 48 48 48 48 48 48 49 49 49 49 49 49 49 49 50 50 50 50 50 50 50 50 51 51 51 51 51 51 51 51 51 51 52 52 52 53 53 53 52 52 53 53 53 54 54 54 55 55 55 55 55 55 55 55 56 56 57 57 57 58 58 58 58 58 59 59 59 60 60 60 61 61 62 61 62 63 63 63 63 63 64 64 64 65 64 65 66 66 66 66 66 66 66 66 67 67 67 67 67 67 67 67 67 68 69 69 69 70 70 70 69 69 70 70 70 71 71 71 71 71 72 72 72 73 73 73 72 72 73 73 73 74 74 74 75 75 76 76 76 77 77 77 76 76 77 77 77 78 78 78 80 80 80 80 80 80 80 80 82 82 82 82 82 82 82 82 83 83 84 84 84 85 85 85 84 84 85 85 85 86 86 86 86 86 87 87 87 88 88 88 88 88 89 89 89 90 90 90 89 89 90 90 90 91 91 91 92 92 92 92 92 92 92 92 94 94 95 95 95 96 96 96 96 96 97 97 97 98 97 97 97 96 98 98 98 99 99 99 99 99 100 100 100 101 101 101 100 100 101 101 101 102 102 102 103 103 103 103 103 103 103 103 103 103 103 103 103 103 103 103 105 105 105 105 105 105 105 105 104 104 105 105 105 106 106 106 106 106 106 106 106 106 106 106 107 107 107 107 107 107 107 107 108 108 108 108 108 108 108 108 108 108 108 108 108 108 108 108 108 108 108 108 108 108 108 108 106 106 106 106 105 105 105 104 103 103 103 103 102 102 102 101 100 
50 50 50 50 50 50 50 50 50 50 50 50 50 50 50 49 49 49 49 49 49 49 49 49 49 49 49 49 49 49 49 48 47 48 48 48 48 48 48 47 47 47 47 47 47 47 47 47 47 47 47 47 46 46 46 46 46 46 46 46 46 46 46 45 46 47 47 47 47 47 47 47 47 47 47 47 47 47 47 46 46 46 46 46 46 46 46 46 45 45 45 45 45 45 45 45 46 46 45 45 45 45 46 46 47 47 47 47 47 47 47 47 47 46 47 47 47 47 47 47 47 48 48 48 48 48 48 47 47 47 47 47 48 48 48 49 49 49 49 49 49 49 49 48 49 50 50 50 50 50 50 50 50 51 51 51 51 51 51 50 51 52 52 52 52 52 52 52 52 52 52 52 53 53 53 53 53 53 53 53 54 54 54 55 55 56 56 56 56 56 56 55 56 57 57 57 58 58 58 59 59 59 59 59 60 60 60 60 61 62 62 62 63 63 63 64 64 64 64 64 65 65 65 66 66 67 67 67 67 67 67 67 67 68 68 68 68 68 67 67 68 69 69 69 70 70 70 70 70 70 70 70 71 71 71 71 71 72 72 72 73 73 73 73 73 73 73 73 74 74 74 75 75 76 76 76 77 77 77 77 77 77 77 77 78 78 78 78 80 81 81 81 81 81 81 80 82 83 83 83 83 83 83 82 83 84 84 84 85 85 85 85 85 85 85 85 86 86 86 86 86 87 87 87 88 88 88 89 89 89 89 89 90 90 90 90 90 90 90 90 91 91 91 92 92 93 93 93 93 93 93 92 94 95 95 95 96 96 96 97 97 97 97 97 98 98 98 98 98 98 98 98 99 99 99 100 100 100 100 100 101 101 101 101 101 101 101 101 102 102 102 103 103 104 104 104 104 104 104 104 104 104 104 104 104 104 104 103 105 106 106 106 106 106 106 105 105 105 105 105 106 106 106 107 107 107 107 107 107 107 106 106 108 108 108 108 108 108 108 108 108 109 109 109 109 109 109 109 109 109 109 109 109 109 109 109 109 109 109 109 109 109 108 108 108 107 107 106 106 106 105 105 104 104 104 103 103 103 102 102 101 
50 50 50 50 50 50 50 50 50 50 50 50 50 50 50 50 49 49 49 49 49 49 49 49 49 49 49 49 49 49 49 49 48 48 48 48 48 48 48 48 47 47 47 47 47 47 47 47 47 48 47 47 47 46 46 46 46 46 46 46 46 46 46 46 47 47 47 47 47 47 47 47 47 47 47 47 47 47 47 47 46 46 46 46 46 46 46 46 47 47 47 47 47 47 47 47 47 46 46 45 45 46 46 47 47 47 47 47 47 47 47 47 47 47 47 47 47 47 47 47 48 48 48 48 48 48 48 48 47 47 47 48 48 48 49 49 49 49 49 49 49 49 49 49 50 50 50 50 50 50 50 50 51 51 51 51 51 51 51 51 52 52 52 52 52 52 52 52 52 52 52 53 53 53 54 53 53 53 53 54 54 54 55 55 56 56 56 56 56 56 56 56 57 57 57 58 58 58 59 59 59 59 59 60 60 60 61 60 62 62 62 62 63 63 64 64 64 64 64 65 65 65 66 66 67 67 67 67 67 67 67 67 68 68 68 68 68 68 68 68 68 69 69 70 70 70 71 70 70 70 70 71 71 71 72 71 72 72 72 73 73 73 74 73 73 73 73 74 74 74 75 75 76 76 76 77 77 77 78 77 77 77 77 78 78 78 79 78 81 81 81 81 81 81 81 81 83 83 83 83 83 83 83 83 84 84 84 85 85 85 86 85 85 85 85 86 86 86 87 86 87 87 87 88 88 88 89 89 89 89 89 90 90 90 91 90 90 90 90 91 91 91 92 92 93 93 93 93 93 93 93 93 95 95 95 96 96 96 97 97 97 97 97 98 98 98 98 98 97 98 98 99 99 99 100 100 100 100 100 101 101 101 102 101 101 101 101 102 102 102 103 103 104 104 104 104 104 104 104 104 104 104 104 104 104 104 104 104 106 106 106 106 106 106 106 106 105 105 105 106 106 106 107 107 107 107 107 107 107 107 107 107 108 108 108 108 108 108 108 108 109 109 109 109 109 109 109 109 109 109 109 109 109 109 109 109 109 109 109 109 109 109 109 108 109 107 107 107 107 106 106 105 105 105 104 104 104 103 103 102 102 
50 50 50 50 50 50 50 50 50 50 50 50 50 50 50 50 49 49 49 49 49 49 49 49 49 49 49 49 49 49 49 49 48 48 48 48 48 48 48 47 47 47 47 47 47 47 47 47 47 47 47 47 46 46 46 46 46 46 46 46 46 46 46 46 47 47 47 47 47 47 47 47 47 47 47 47 47 47 47 46 46 46 46 46 46 46 46 46 47 47 47 47 47 47 47 47 46 46 45 45 45 45 46 47 47 47 47 47 47 47 47 47 47 47 47 47 47 47 47 47 47 48 48 48 48 48 48 47 47 47 47 48 48 48 48 49 49 49 49 49 49 49 49 49 49 50 50 50 50 50 50 50 51 51 51 51 51 51 51 51 51 52 52 52 52 52 52 52 52 52 52 53 53 53 53 53 53 53 53 54 54 55 55 55 56 56 56 56 56 56 56 56 57 57 57 58 58 59 59 59 59 59 59 60 60 61 61 61 62 62 62 62 63 64 64 64 64 64 64 65 65 66 66 66 67 67 67 67 67 67 67 67 68 68 68 68 68 68 68 68 68 69 69 70 70 70 70 70 70 70 70 71 71 72 72 72 72 72 72 73 73 74 74 74 73 73 73 74 74 75 75 75 76 76 76 77 77 78 78 78 77 77 77 78 78 79 79 79 81 81 81 81 81 81 81 81 82 83 83 83 83 83 83 83 84 84 84 85 85 86 86 86 85 85 85 85 86 86 86 87 87 87 87 88 88 89 89 89 89 89 89 90 90 91 91 91 90 90 90 91 91 92 92 92 93 93 93 93 93 93 93 93 95 95 95 96 96 97 97 97 97 97 97 98 98 98 98 98 98 97 98 99 99 100 100 100 100 100 100 101 101 102 102 102 101 101 101 102 102 103 103 103 103 104 104 104 104 104 104 104 104 104 104 104 104 104 104 104 105 106 106 106 106 106 106 106 105 105 105 105 106 106 106 107 107 107 107 107 107 107 107 107 108 108 108 108 108 108 108 108 109 109 109 109 109 109 109 109 109 109 109 109 109 109 109 109 109 109 109 109 109 109 109 109 108 107 107 107 106 106 106 105 105 104 104 104 103 103 103 102 103 
49 49 51 52 52 51 49 50 50 50 50 50 50 50 50 50 49 49 49 49 49 49 49 49 49 49 49 49 49 49 49 49 48 49 48 48 48 47 47 47 47 47 47 47 47 47 47 47 46 46 46 46 46 46 46 46 46 46 46 46 46 46 46 46 47 47 47 47 47 47 47 47 46 46 46 46 46 46 46 46 46 46 46 46 46 46 46 46 46 47 47 47 47 47 47 47 47 48 48 48 48 48 48 48 47 47 47 46 46 47 47 47 47 47 47 47 47 47 47 47 47 47 47 47 47 47 47 47 47 48 48 48 48 48 48 48 49 49 49 49 49 49 49 49 49 49 49 50 50 50 51 51 51 51 51 51 51 51 51 51 51 51 51 52 52 52 53 53 53 53 53 53 53 53 53 53 54 55 55 55 55 55 55 55 56 56 56 57 57 57 58 57 57 57 57 58 58 59 59 59 59 59 59 60 60 61 61 61 62 63 63 63 64 64 65 65 65 64 65 66 66 66 67 67 67 67 67 68 68 68 69 69 69 69 69 69 69 69 68 68 69 69 70 70 70 70 70 70 70 70 70 71 71 72 72 72 72 72 72 73 73 74 74 74 74 74 74 75 75 75 76 76 76 76 76 77 77 78 78 78 78 78 78 79 79 79 80 79 81 81 81 82 82 82 83 82 82 82 82 83 83 83 84 83 84 84 84 85 85 86 86 86 86 87 87 88 88 88 89 89 89 89 89 89 89 89 89 89 89 90 90 91 91 91 92 91 91 91 91 92 92 92 93 93 93 93 93 94 94 94 95 94 95 96 96 97 97 97 98 98 98 98 98 98 98 98 98 98 98 99 99 100 100 100 101 101 101 101 101 102 102 102 103 102 103 103 103 103 103 103 103 103 103 103 103 104 104 104 105 105 105 105 105 105 105 105 105 105 105 105 105 106 106 106 107 107 107 107 107 108 108 108 109 108 108 108 108 108 108 108 107 107 108 108 108 108 108 108 108 108 109 110 110 110 110 110 110 110 110 110 110 110 110 110 110 110 110 110 110 110 110 110 110 110 110 110 109 109 109 108 108 107 107 107 106 106 106 105 105 104 103 
50 51 51 51 51 51 51 49 50 50 50 50 50 50 50 50 49 49 49 49 49 49 49 49 49 49 49 49 49 49 49 49 49 49 49 48 48 48 47 47 47 47 47 47 47 47 47 47 46 46 46 46 46 46 46 46 46 46 46 46 46 46 46 46 47 47 47 47 47 47 47 47 46 46 46 46 46 46 46 46 46 46 46 46 46 46 46 46 47 47 47 47 47 47 47 47 48 48 48 48 48 48 48 48 48 47 47 46 46 47 47 47 47 47 47 47 47 47 47 47 47 47 47 47 47 47 47 47 48 48 48 48 48 48 48 48 49 49 49 49 49 49 49 49 49 49 50 50 50 51 51 51 51 51 51 51 51 51 51 51 51 51 52 52 52 53 53 53 53 53 53 53 53 53 53 53 55 55 55 55 55 55 55 55 56 56 57 57 57 58 58 58 57 57 58 58 58 59 59 59 59 59 60 60 60 61 61 61 63 63 64 63 64 65 65 65 65 65 66 66 66 67 67 67 67 67 68 68 68 69 69 69 69 69 69 69 69 69 69 69 69 70 70 70 70 70 70 70 70 70 71 71 71 72 72 72 72 72 73 73 73 74 74 74 74 74 75 75 75 76 76 76 76 76 77 77 77 78 78 78 78 78 79 79 79 80 80 80 81 81 82 82 82 83 83 83 82 82 83 83 83 84 84 84 84 84 85 85 85 86 86 86 87 87 88 88 88 89 89 89 89 89 89 89 89 89 89 89 90 90 91 91 91 92 92 92 91 91 92 92 92 93 93 93 93 93 94 94 94 95 95 95 96 96 97 97 97 98 98 98 98 98 98 98 98 98 98 98 99 98 100 100 100 101 101 101 101 101 102 102 102 103 103 103 103 103 103 103 103 103 103 103 103 103 104 104 104 105 105 105 105 105 105 105 105 105 105 105 105 105 106 106 106 107 107 107 107 107 108 108 108 109 109 109 108 108 108 108 108 108 108 108 109 109 109 109 109 109 109 109 110 110 110 110 110 110 110 110 110 110 110 110 110 110 110 110 110 110 110 110 110 110 110 110 110 110 109 109 108 108 108 107 107 106 106 106 105 105 104 105 104 
52 52 51 50 50 51 52 52 50 50 50 50 50 50 50 50 49 49 49 49 49 49 49 49 49 49 49 49 49 49 49 49 49 49 49 49 48 48 48 47 47 47 47 47 47 47 47 47 46 46 46 46 46 46 46 46 46 46 46 46 46 46 46 46 47 47 47 47 47 47 47 47 46 46 46 46 46 46 46 46 46 46 46 46 46 46 46 46 47 47 47 47 47 47 47 47 48 48 48 48 48 48 48 48 48 48 47 47 47 47 47 48 47 47 47 47 47 47 47 47 47 47 47 47 47 47 47 47 48 48 48 48 48 48 48 48 49 49 49 49 49 49 49 49 49 50 50 50 51 51 51 51 51 51 51 51 51 51 51 51 51 52 52 52 53 53 53 53 53 53 53 53 53 53 53 53 55 55 55 55 55 55 55 55 56 57 57 57 58 58 58 57 57 58 58 58 59 59 59 59 59 60 60 60 61 61 61 61 63 64 64 64 65 65 65 65 65 66 66 66 67 67 67 67 67 68 68 68 69 69 69 69 69 69 69 69 69 69 69 69 69 70 70 70 70 70 70 70 70 71 71 71 72 72 72 72 72 73 73 73 74 74 74 74 74 75 75 75 76 76 76 76 76 77 77 77 78 78 78 78 78 79 79 79 80 80 80 80 81 82 82 82 83 83 83 83 82 83 83 83 84 84 84 84 84 85 85 85 86 86 86 86 87 88 88 88 89 89 89 89 89 89 89 89 89 89 89 89 90 91 91 91 92 92 92 92 91 92 92 92 93 93 93 93 93 94 94 94 95 95 95 95 96 97 97 97 98 98 98 98 98 98 98 98 98 98 98 98 99 100 100 100 101 101 101 101 101 102 102 102 103 103 103 103 103 103 103 103 103 103 103 103 103 104 104 104 105 105 105 105 105 105 105 105 105 105 105 105 105 106 106 106 107 107 107 107 107 108 108 108 109 109 109 109 108 108 108 108 108 108 108 108 110 110 110 110 110 110 110 110 110 110 110 110 110 110 110 110 110 110 110 110 110 110 110 110 110 110 110 110 110 110 110 110 110 110 110 110 109 109 109 108 108 108 107 107 107 106 106 106 105 
53 51 50 50 50 51 52 52 50 51 51 51 51 51 51 50 50 50 50 50 50 50 50 50 50 50 50 50 50 50 50 49 49 50 49 49 49 48 48 48 48 48 48 48 48 48 48 47 47 47 47 47 47 47 47 47 47 47 47 47 47 47 47 46 47 48 48 48 48 48 48 47 47 47 47 47 47 47 47 47 47 47 47 47 47 47 47 47 47 48 48 48 48 48 48 48 48 48 48 48 48 48 48 48 48 48 47 47 47 47 47 48 48 47 48 48 48 48 48 48 48 48 48 48 48 48 48 48 48 49 49 49 49 49 49 49 49 50 50 50 50 50 50 50 50 50 50 51 51 51 52 52 52 52 52 52 52 52 52 52 52 52 52 53 53 53 54 54 54 54 54 54 54 54 54 53 55 56 56 56 56 56 56 56 57 57 57 58 58 58 59 58 58 58 58 59 59 59 60 60 60 60 60 61 61 61 62 61 64 64 64 64 65 65 66 66 66 65 66 67 67 67 68 68 68 67 68 69 69 69 70 70 70 70 70 70 70 70 69 69 70 70 71 71 71 71 71 71 71 71 71 72 72 72 73 72 73 73 73 74 74 74 75 75 75 75 75 76 76 76 77 77 77 77 77 78 78 78 79 79 79 79 79 80 80 80 81 80 82 82 82 83 83 83 84 83 83 83 83 84 84 84 85 84 85 85 85 86 86 86 87 87 88 88 88 89 89 89 90 89 89 90 90 90 90 90 90 90 91 91 91 92 92 92 93 92 92 92 92 93 93 93 94 94 94 94 94 95 95 95 96 95 97 97 97 98 98 98 99 99 99 99 99 99 99 99 98 99 99 100 100 101 101 101 102 102 102 102 102 103 103 103 104 103 103 104 104 104 104 104 104 104 104 104 104 105 105 105 106 106 106 106 106 106 106 106 106 106 106 106 106 107 107 107 108 108 108 108 108 109 109 109 110 109 109 109 109 109 109 109 108 108 111 111 111 111 111 111 111 111 111 111 111 111 111 111 111 110 110 110 110 110 110 110 110 110 110 110 110 110 110 110 110 110 110 110 110 110 109 109 109 108 108 108 108 108 106 107 107 107 106 
54 52 52 51 51 52 53 52 51 51 51 51 51 51 51 51 50 50 50 50 50 50 50 50 50 50 50 50 50 50 50 50 50 50 50 49 49 49 48 48 48 48 48 48 48 48 48 48 47 47 47 47 47 47 47 47 47 47 47 47 47 47 47 47 48 48 48 48 48 48 48 48 47 47 47 47 47 47 47 47 47 47 47 47 47 47 47 47 48 48 48 48 48 48 48 48 48 48 48 48 48 48 48 48 48 49 48 47 47 48 49 49 48 48 48 48 48 48 48 48 48 48 48 48 48 48 48 48 49 49 49 49 49 49 49 49 50 50 50 50 50 50 50 50 50 50 51 51 51 52 52 52 52 52 52 52 52 52 52 52 52 52 53 53 53 54 54 54 54 54 54 54 54 54 54 54 56 56 56 56 56 56 56 56 57 57 58 58 58 59 59 59 58 58 59 59 59 60 60 60 60 60 61 61 61 62 62 62 64 64 65 64 65 66 66 66 66 66 67 67 67 68 67 68 68 68 69 69 69 70 70 70 70 70 70 70 70 70 70 70 70 71 71 71 71 71 71 71 71 71 72 72 72 73 73 73 73 73 74 74 74 75 75 75 75 75 76 76 76 77 77 77 77 77 78 78 78 79 79 79 79 79 80 80 80 81 81 81 82 82 83 83 83 84 84 84 83 83 84 84 84 85 85 85 85 85 86 86 86 87 87 87 88 88 89 89 89 90 90 90 90 90 90 90 90 90 90 90 91 91 92 92 92 93 93 93 92 92 93 93 93 94 94 94 94 94 95 95 95 96 96 96 97 97 98 98 98 99 99 99 99 99 99 99 99 99 99 99 100 99 101 101 101 102 102 102 102 102 103 103 103 104 104 104 104 104 104 104 104 104 104 104 104 104 105 105 105 106 106 106 106 106 106 106 106 106 106 106 106 106 107 107 107 108 108 108 108 108 109 109 109 110 110 110 109 109 109 109 109 109 109 109 111 111 111 111 111 111 111 111 111 111 111 111 111 111 111 111 111 111 111 111 111 111 111 111 111 111 111 111 111 111 111 111 111 111 111 110 110 110 109 109 109 109 109 109 108 108 108 107 106 
53 52 52 52 52 52 52 52 52 52 52 52 52 52 52 51 51 51 51 51 51 51 51 51 51 51 51 51 51 51 51 50 50 50 50 50 49 49 49 49 49 49 49 49 49 49 49 48 48 48 48 48 48 48 48 48 48 48 48 48 48 48 48 47 48 49 49 49 49 49 49 48 48 48 48 48 48 48 48 48 48 48 48 48 48 48 48 48 48 49 49 49 49 49 49 48 48 48 48 48 48 48 48 48 49 49 48 48 48 48 48 49 49 48 49 49 49 49 49 49 49 49 49 49 49 49 49 49 49 50 50 50 50 50 50 50 50 51 51 51 51 51 51 51 51 51 51 51 52 52 52 53 53 53 53 53 53 53 53 53 53 53 53 53 54 54 54 55 55 55 55 55 55 55 55 54 56 57 57 57 57 57 57 57 57 58 58 58 59 59 59 59 59 59 59 59 60 60 60 61 61 61 61 61 62 62 62 62 64 65 65 65 66 66 66 67 67 67 67 67 68 68 68 69 69 69 69 69 70 70 70 71 71 71 71 71 71 71 70 70 71 71 72 72 72 72 72 72 72 72 72 72 73 73 73 73 73 74 74 74 75 75 75 76 76 76 76 76 77 77 77 78 78 78 78 78 79 79 79 80 80 80 80 80 81 81 81 81 82 83 83 83 84 84 84 84 84 84 84 84 85 85 85 85 85 86 86 86 87 87 87 88 88 89 89 89 90 90 90 90 90 91 91 91 91 91 91 91 91 92 92 92 93 93 93 93 93 93 93 93 94 94 94 95 95 95 95 95 96 96 96 96 97 98 98 98 99 99 99 100 100 100 100 100 100 100 99 100 100 101 101 101 102 102 102 103 103 103 103 103 104 104 104 104 104 105 105 105 105 105 105 105 105 105 105 105 106 106 106 107 107 107 107 107 107 107 107 107 107 107 107 107 108 108 108 109 109 109 109 109 110 110 110 110 110 110 110 110 110 110 109 110 111 111 111 111 111 111 111 111 111 112 112 112 112 112 112 111 111 112 112 112 112 112 112 112 112 112 112 112 112 112 112 112 112 111 111 111 110 110 110 110 110 110 110 109 109 109 108 108 107 
52 52 53 54 54 53 52 51 52 52 52 52 52 52 52 52 51 51 51 51 51 51 51 51 51 51 51 51 51 51 51 51 50 50 50 50 50 49 49 49 49 49 49 49 49 49 49 49 48 48 48 48 48 48 48 48 48 48 48 48 48 48 48 48 49 49 49 49 49 49 49 49 48 48 48 48 48 48 48 48 48 48 48 48 48 48 48 48 49 49 49 49 49 49 49 49 48 48 48 48 48 48 48 48 49 49 49 48 48 49 49 49 49 49 49 49 49 49 49 49 49 49 49 49 49 49 49 49 50 50 50 50 50 50 50 50 51 51 51 51 51 51 51 51 51 51 51 52 51 52 53 53 53 53 53 53 53 53 53 53 53 53 53 54 54 54 55 55 55 55 55 55 55 55 55 55 57 57 57 57 57 57 57 57 58 58 58 59 58 59 60 59 59 59 59 59 60 60 60 60 61 61 61 61 62 62 62 63 65 65 65 65 66 66 67 67 67 67 67 68 68 68 69 69 69 69 69 70 70 70 71 71 71 71 71 71 71 71 71 71 72 71 72 72 72 72 72 72 72 72 72 73 73 73 74 73 74 74 74 75 75 75 76 76 76 76 76 77 77 77 78 78 78 78 78 79 79 79 80 80 80 80 80 81 81 81 82 81 83 83 83 84 84 84 85 84 84 84 84 85 85 85 85 85 86 86 86 87 87 87 88 88 89 89 89 90 90 90 90 90 91 91 91 91 91 91 91 91 92 92 92 92 93 93 93 93 93 93 93 93 94 94 94 94 95 95 95 95 96 96 96 96 98 98 98 99 99 99 100 100 100 100 100 100 100 100 100 100 100 101 101 102 102 102 103 103 103 103 103 104 104 104 105 104 105 105 105 105 105 105 105 105 105 105 105 106 106 106 107 107 107 107 107 107 107 107 107 107 107 107 107 107 107 108 108 108 109 109 109 109 109 110 110 110 110 110 110 110 110 110 110 110 110 110 110 110 110 110 110 110 112 112 112 112 112 112 112 112 112 112 112 112 112 112 112 112 112 112 112 112 112 112 112 112 112 112 111 111 111 110 110 110 110 111 110 110 110 109 109 108 108 
51 52 53 54 54 53 52 51 52 52 52 52 52 52 52 51 51 51 51 51 51 51 51 51 51 51 51 51 51 51 51 51 50 50 50 50 49 49 49 49 49 49 49 49 49 49 49 48 48 48 48 48 48 48 48 48 48 48 48 48 48 48 48 48 48 48 49 48 49 48 49 47 48 47 48 47 48 47 48 48 48 48 48 48 48 48 48 48 48 49 49 49 49 49 49 48 48 48 48 48 48 48 48 48 49 49 48 48 48 48 49 49 49 49 49 49 49 49 49 49 49 49 49 49 49 49 49 49 50 50 50 50 50 50 50 50 50 51 51 51 51 51 51 51 51 51 51 52 52 52 52 53 53 53 53 53 53 53 53 53 53 53 53 53 54 54 54 55 55 55 55 55 55 55 55 55 57 57 57 57 57 57 57 57 57 58 58 59 59 60 59 59 59 59 59 60 60 61 62 61 62 61 61 62 62 63 64 64 64 65 65 66 66 67 67 67 67 67 67 67 68 68 69 69 69 69 69 70 70 71 71 71 71 71 71 71 71 71 71 71 72 72 71 71 72 71 72 72 72 72 72 72 73 73 73 73 74 74 74 74 75 75 75 76 76 76 76 76 77 77 77 78 78 78 78 78 79 79 79 80 80 80 80 80 81 81 81 82 82 83 82 83 84 84 84 84 84 84 84 84 85 85 85 85 85 86 86 86 87 87 87 88 88 89 89 89 90 90 90 91 91 91 91 91 91 91 91 91 92 92 92 92 93 93 94 93 93 93 93 93 94 94 95 95 95 95 95 95 96 96 97 97 98 98 98 98 99 99 99 100 100 100 100 100 100 100 100 100 100 100 101 101 102 102 102 103 103 103 103 103 104 104 104 104 105 105 105 105 105 105 105 105 105 105 105 105 106 106 106 107 107 107 107 107 107 107 107 107 107 107 107 107 108 109 108 109 109 109 109 109 110 110 111 110 110 110 110 110 110 110 110 110 110 110 110 110 110 110 110 110 112 112 112 112 112 112 112 112 112 112 112 112 112 112 112 112 112 112 112 112 112 112 112 112 112 111 111 111 110 110 110 110 110 110 110 110 109 109 109 108 108 
53 53 52 52 52 51 51 51 51 51 51 51 51 51 51 51 50 51 51 51 51 51 51 50 50 50 50 50 50 50 50 49 50 49 49 48 48 49 49 49 49 49 49 49 49 49 49 49 49 49 49 49 49 49 49 48 48 48 48 48 48 48 48 48 48 48 48 48 48 48 48 48 47 48 47 48 47 48 48 48 48 49 49 49 49 49 49 49 49 50 50 50 50 50 50 49 48 49 49 49 49 49 49 48 48 48 48 48 48 48 48 48 49 49 49 49 49 49 49 49 49 49 49 49 49 49 49 49 50 50 50 50 50 50 50 50 50 50 50 50 50 50 50 50 51 52 52 52 52 52 52 52 52 52 52 53 53 54 54 54 54 54 54 55 55 55 56 55 55 55 55 56 56 56 57 57 57 57 57 57 58 58 58 59 59 59 59 59 59 59 59 60 60 61 61 62 62 62 62 63 62 62 63 64 64 64 65 64 65 65 65 66 66 67 67 67 67 68 68 69 69 69 70 69 69 69 69 70 70 71 71 71 71 72 72 72 72 72 72 71 73 73 73 73 73 73 72 73 73 74 74 74 74 74 75 75 75 75 75 76 76 76 77 77 77 77 77 78 78 78 79 79 78 79 79 80 80 80 81 81 81 81 81 82 82 82 83 82 82 83 83 84 84 84 85 85 85 85 85 86 86 86 87 86 87 88 88 88 88 88 88 88 88 89 89 90 90 90 91 91 91 92 92 92 92 92 92 92 92 93 93 93 94 94 95 94 95 94 95 95 96 96 97 96 96 96 96 96 97 97 98 98 98 99 99 99 99 99 99 99 99 100 100 101 101 101 102 101 102 102 102 103 103 103 104 104 104 104 104 104 104 104 104 104 104 105 105 106 106 106 107 107 107 108 108 108 108 108 107 107 108 108 108 108 108 108 108 108 108 109 109 109 109 109 109 109 109 109 109 109 110 110 111 110 111 110 111 110 111 110 111 111 111 112 112 112 112 112 112 112 112 113 113 113 113 113 113 113 113 113 113 113 113 113 113 113 113 113 113 113 113 113 113 112 112 112 112 112 112 112 112 112 112 112 111 111 111 110 110 110 108 
53 53 53 52 52 52 51 51 51 51 51 51 51 51 51 51 51 51 51 51 51 51 51 51 50 50 50 50 50 50 50 50 50 50 48 49 49 48 50 50 49 49 49 49 49 49 49 49 49 49 49 49 49 49 49 49 48 48 48 48 48 48 48 48 48 48 48 48 48 48 48 48 48 48 48 48 48 48 48 48 49 49 49 49 49 49 49 49 50 50 50 50 50 50 50 50 49 49 49 49 49 49 49 49 48 48 48 48 48 48 48 48 49 49 49 49 49 49 49 49 49 49 49 49 49 49 49 49 50 50 50 50 50 50 50 50 50 50 50 50 50 50 50 50 52 52 52 52 52 52 52 52 52 52 53 53 53 54 54 54 54 54 55 55 55 56 56 56 55 55 56 56 56 57 57 57 57 56 58 58 57 59 59 58 59 60 60 60 60 60 60 59 61 60 62 62 61 63 63 63 62 62 64 64 63 65 65 65 65 65 66 66 66 67 67 67 68 68 69 69 69 70 70 70 69 69 70 70 70 71 71 71 72 72 72 72 72 72 72 72 73 73 73 73 72 73 73 73 74 74 75 74 74 75 75 75 75 75 76 76 76 77 77 77 77 77 78 78 78 79 79 79 79 79 80 80 80 81 81 81 81 81 82 82 82 83 83 83 83 83 84 84 84 85 85 85 85 85 86 86 86 87 87 87 88 88 88 88 88 88 88 88 89 89 90 90 90 91 91 91 92 92 92 92 92 92 92 92 93 93 94 94 94 95 95 95 95 95 96 96 96 97 97 97 96 96 97 97 97 98 98 98 99 99 99 99 99 99 99 99 100 100 101 101 101 102 102 102 102 102 103 103 103 104 104 104 104 104 104 104 104 104 104 104 105 105 106 106 106 107 107 107 108 108 108 108 108 108 108 107 108 108 108 108 108 108 108 108 109 109 109 109 109 109 109 109 109 109 110 110 110 111 111 111 111 111 111 111 111 111 111 111 112 112 112 112 112 112 112 112 113 113 113 113 113 113 113 113 113 113 113 113 113 113 113 113 113 113 113 113 113 113 113 113 112 112 112 112 112 112 112 112 112 112 112 111 111 111 110 110 108 
53 53 53 53 52 52 52 51 51 51 51 51 51 51 51 51 51 51 51 51 51 51 51 51 50 50 50 50 50 50 50 50 51 52 51 50 50 51 52 51 49 49 49 49 49 49 49 49 49 49 49 49 49 49 49 49 48 48 48 48 48 48 48 48 48 48 48 48 48 48 48 48 48 48 48 48 48 48 48 48 49 49 49 49 49 49 49 49 50 50 50 50 50 50 50 50 49 49 49 49 49 49 49 49 48 48 48 48 48 48 48 48 49 49 49 49 49 49 49 49 49 49 49 49 49 49 49 49 50 50 50 50 50 50 50 50 52 52 52 52 52 52 52 52 52 52 52 52 52 52 52 52 52 53 53 53 54 54 54 54 54 55 55 55 56 56 56 56 55 56 56 56 57 57 57 57 57 58 58 58 59 59 59 59 60 60 60 60 60 60 60 60 61 62 62 62 63 63 63 63 63 64 64 64 65 65 65 65 65 66 66 66 67 67 67 67 68 69 69 69 70 70 70 70 69 70 70 70 71 71 71 71 72 72 72 72 72 72 72 72 73 73 73 73 73 73 73 73 74 75 75 75 75 75 75 75 75 76 76 76 77 77 77 77 77 78 78 78 79 79 79 79 79 80 80 80 81 81 81 81 81 82 82 82 83 83 83 83 83 84 84 84 85 85 85 85 85 86 86 86 87 87 87 87 88 88 88 88 88 88 88 88 89 90 90 90 91 91 91 91 92 92 92 92 92 92 92 92 93 94 94 94 95 95 95 95 95 96 96 96 97 97 97 97 96 97 97 97 98 98 98 98 99 99 99 99 99 99 99 99 100 101 101 101 102 102 102 102 102 103 103 103 104 104 104 104 104 104 104 104 104 104 104 104 105 106 106 106 107 107 107 107 108 108 108 108 108 108 108 108 108 108 108 108 108 108 108 108 109 109 109 109 109 109 109 109 109 110 110 110 111 111 111 111 111 111 111 111 111 111 111 111 112 112 112 112 112 112 112 112 113 113 113 113 113 113 113 113 113 113 113 113 113 113 113 113 114 114 114 114 114 114 114 114 113 113 113 113 113 113 113 113 112 112 112 112 111 111 111 110 109 
54 53 53 52 52 52 51 51 51 51 51 51 51 51 51 52 51 52 52 52 52 52 52 51 51 51 51 51 51 51 51 50 52 52 52 51 51 52 52 52 49 50 50 50 50 50 50 50 50 50 50 50 50 50 50 49 49 49 49 49 49 49 49 49 48 48 48 48 48 48 48 48 48 48 48 48 48 48 48 48 49 50 50 50 50 50 50 50 50 50 50 50 50 50 50 50 49 50 50 50 50 50 50 49 49 49 49 49 49 49 49 48 49 50 50 50 50 50 50 50 50 50 50 50 50 50 50 50 50 51 51 51 51 51 51 50 52 52 52 52 52 52 52 52 53 53 53 53 53 53 53 53 53 53 53 54 54 54 55 55 55 55 55 56 56 56 57 56 56 56 56 57 57 57 58 57 58 58 58 59 59 59 60 60 60 61 61 61 61 61 61 61 62 62 62 63 63 63 64 64 64 64 64 65 65 65 66 65 66 66 66 67 67 67 68 68 69 69 69 70 70 70 71 70 70 70 70 71 71 71 72 72 72 73 73 73 73 73 73 72 73 74 74 73 73 74 74 73 75 75 75 75 75 75 76 76 76 76 76 77 77 77 78 78 78 78 78 79 79 79 80 79 80 80 80 81 81 81 82 82 82 82 82 83 83 83 84 83 84 84 84 85 85 85 86 86 86 86 86 87 87 87 88 87 88 89 89 89 89 89 89 89 90 90 90 91 91 91 92 91 92 93 93 93 93 93 93 93 94 94 94 95 95 95 96 96 96 96 96 97 97 97 98 97 97 97 97 98 98 98 99 98 99 100 100 100 100 100 100 100 101 101 101 102 102 102 103 102 103 103 103 104 104 104 105 105 105 105 105 105 105 105 105 104 106 106 106 107 107 107 108 108 108 109 109 109 109 109 108 108 109 109 109 109 109 109 109 109 109 110 110 110 110 110 110 109 110 110 110 111 111 111 112 112 112 112 112 112 112 112 112 112 112 113 113 113 113 113 113 113 113 114 114 114 114 114 114 114 114 114 114 114 114 114 114 114 114 115 115 115 115 115 115 114 114 114 114 114 114 114 114 113 113 113 112 112 112 111 111 111 110 
55 55 55 54 54 54 53 53 53 53 53 53 53 53 53 53 52 52 52 52 52 52 52 52 51 51 51 51 51 51 51 51 52 52 52 51 51 52 52 52 50 50 50 50 50 50 50 50 50 50 50 50 50 50 50 50 49 49 49 49 49 49 49 49 49 49 49 49 49 49 49 49 49 49 49 49 49 49 49 49 50 50 50 50 50 50 50 50 50 50 50 50 50 50 50 50 50 50 50 50 50 50 50 50 49 49 49 49 49 49 49 49 50 50 50 50 50 50 50 50 50 50 50 50 50 50 50 50 51 51 51 51 51 51 51 51 51 52 52 52 52 52 52 51 53 53 53 53 53 53 53 53 53 53 54 54 54 55 54 55 55 55 56 56 56 57 57 57 56 56 57 57 57 58 58 58 58 58 59 59 59 60 60 60 61 61 61 61 61 61 61 61 62 62 63 63 63 64 64 64 64 64 65 65 65 66 66 66 66 66 67 67 67 68 68 68 69 69 70 70 70 71 71 71 70 70 71 71 71 72 72 72 73 73 73 73 73 73 73 73 74 74 74 74 74 74 74 74 75 75 76 75 75 76 76 76 76 76 77 77 77 78 78 78 78 78 79 79 79 80 80 80 80 80 81 81 81 82 82 82 82 82 83 83 83 84 84 84 84 84 85 85 85 86 86 86 86 86 87 87 87 88 88 88 89 89 89 89 89 89 89 89 90 90 91 91 91 92 92 92 93 93 93 93 93 93 93 93 94 94 95 95 95 96 96 96 96 96 97 97 97 98 98 98 97 97 98 98 98 99 99 99 100 100 100 100 100 100 100 100 101 101 102 102 102 103 103 103 103 103 104 104 104 105 105 105 105 105 105 105 105 105 105 105 106 106 107 107 107 108 108 108 109 109 109 109 109 109 109 109 109 109 109 109 109 109 109 109 110 110 110 110 110 110 110 110 110 110 111 111 111 112 112 112 112 112 112 112 112 112 112 112 113 113 113 113 113 113 113 113 114 114 114 114 114 114 114 114 114 114 114 114 114 114 114 114 115 115 115 115 115 115 115 115 114 114 114 114 114 114 114 114 113 113 113 112 112 112 111 111 110 
56 55 55 55 54 54 54 54 54 54 54 54 54 54 54 53 52 53 53 53 53 53 53 52 52 52 52 52 52 52 52 51 52 51 51 51 51 51 51 52 51 51 51 51 51 51 51 51 51 51 51 51 51 51 51 50 50 50 50 50 50 50 50 50 50 50 50 50 50 50 50 50 50 50 50 50 50 50 50 49 50 51 51 51 51 51 51 50 50 50 50 50 50 50 50 50 50 51 51 51 51 51 51 50 50 50 50 50 50 50 50 49 50 51 51 51 51 51 51 51 51 51 51 51 51 51 51 51 51 51 52 52 52 52 52 52 51 51 51 51 51 51 51 52 53 54 54 54 54 54 54 54 54 54 54 54 55 55 55 56 56 56 56 56 57 57 57 57 57 57 57 57 58 58 58 58 58 59 59 59 60 60 60 61 61 62 62 62 62 62 62 62 62 63 63 63 64 64 64 65 65 65 65 65 66 66 66 66 66 67 67 67 68 68 68 69 69 70 70 70 71 71 71 71 71 71 71 71 72 72 72 73 73 74 74 74 74 74 74 73 74 75 75 74 74 75 75 74 75 76 76 76 76 76 76 77 77 77 77 77 78 78 78 79 79 79 79 79 80 80 80 80 80 81 81 81 82 82 82 83 83 83 83 83 84 84 84 84 84 85 85 85 86 86 86 87 87 87 87 87 88 88 88 88 89 90 90 90 90 90 90 90 90 91 91 91 92 92 92 92 93 94 94 94 94 94 94 94 94 95 95 95 96 96 96 97 97 97 97 97 98 98 98 98 98 98 98 98 99 99 99 99 100 101 101 101 101 101 101 101 101 102 102 102 103 103 103 103 103 104 104 104 105 105 105 106 106 106 106 106 106 106 106 105 106 107 107 107 108 108 108 109 109 110 110 110 110 110 109 109 110 110 110 110 110 110 110 110 110 111 111 111 111 111 111 110 110 111 111 111 112 112 112 113 113 113 113 113 113 113 113 113 113 114 114 114 114 114 114 114 114 115 115 115 115 115 115 115 115 115 115 115 115 115 115 114 116 116 116 116 116 116 116 116 115 115 115 115 115 115 115 115 113 113 113 113 112 112 112 112 111 
56 56 55 55 55 54 54 54 54 54 54 54 54 54 54 54 53 53 53 53 53 53 53 53 52 52 52 52 52 52 52 52 51 51 50 50 50 50 51 51 51 51 51 51 51 51 51 51 51 51 51 51 51 51 51 51 50 50 50 50 50 50 50 50 50 50 50 50 50 50 50 50 50 50 50 50 50 50 50 50 51 51 51 51 51 51 51 51 50 50 50 50 50 50 50 50 51 51 51 51 51 51 51 51 50 50 50 50 50 50 50 50 51 51 51 51 51 51 51 51 51 51 51 51 51 51 51 51 51 52 52 52 52 52 52 52 53 53 53 53 53 53 53 53 54 54 54 54 54 54 54 54 54 54 54 55 55 55 56 56 56 56 56 57 57 57 58 57 57 57 57 58 58 58 59 58 59 59 59 60 60 60 61 61 62 62 62 62 62 62 62 62 63 63 63 64 64 64 65 65 65 65 65 66 66 66 67 66 67 67 67 68 68 68 69 69 70 70 70 71 71 71 72 71 71 71 71 72 72 72 73 73 74 74 74 74 74 74 74 74 75 75 75 75 75 75 75 75 76 76 76 76 76 76 77 77 77 77 77 78 78 78 79 79 79 79 79 80 80 80 81 80 81 81 81 82 82 82 83 83 83 83 83 84 84 84 85 84 85 85 85 86 86 86 87 87 87 87 87 88 88 88 89 88 90 90 90 90 90 90 90 90 91 91 91 92 92 92 93 92 94 94 94 94 94 94 94 94 95 95 95 96 96 96 97 97 97 97 97 98 98 98 99 98 98 98 98 99 99 99 100 99 101 101 101 101 101 101 101 101 102 102 102 103 103 103 104 103 104 104 104 105 105 105 106 106 106 106 106 106 106 106 106 106 107 107 107 108 108 108 109 109 110 110 110 110 110 110 110 109 110 110 110 110 110 110 110 110 111 111 111 111 111 111 111 111 111 111 111 112 112 112 113 113 113 113 113 113 113 113 113 113 114 114 114 114 114 114 114 114 115 115 115 115 115 115 115 115 115 115 115 115 115 115 115 115 116 117 117 117 117 117 117 116 116 116 116 116 116 116 116 115 113 114 113 113 113 112 112 112 112 
56 55 55 55 54 54 54 54 54 54 54 54 54 54 54 53 53 53 53 53 53 53 53 53 52 52 52 52 52 52 52 52 51 51 51 50 50 51 51 51 51 51 51 51 51 51 51 51 51 51 51 51 51 51 51 51 50 50 50 50 50 50 50 50 50 50 50 50 50 50 50 50 50 50 50 50 50 50 50 50 51 51 51 51 51 51 51 50 50 50 50 50 50 50 50 50 51 51 51 51 51 51 51 51 50 50 50 50 50 50 50 50 50 51 51 51 51 51 51 51 51 51 51 51 51 51 51 51 52 52 52 52 52 52 52 52 53 53 53 53 53 53 53 54 54 54 54 54 54 54 54 54 54 54 54 55 55 56 56 56 56 56 56 57 57 58 58 58 57 57 57 58 58 58 58 58 59 59 59 60 60 61 61 61 61 62 62 62 62 62 62 62 62 63 62 63 64 64 64 65 65 65 65 66 66 67 67 67 67 67 67 68 68 69 69 69 69 70 69 70 71 71 71 71 71 71 71 72 72 73 73 73 74 74 74 74 74 74 74 74 75 75 75 75 75 75 75 75 76 76 76 76 76 77 77 77 77 77 77 78 78 79 79 79 79 79 79 80 80 81 81 81 80 81 81 82 82 83 83 83 83 83 83 84 84 84 85 85 85 85 85 86 86 87 87 87 87 87 87 88 88 89 89 89 90 90 90 90 90 90 90 90 91 91 91 92 92 93 93 93 94 94 94 94 94 94 94 94 95 95 95 96 96 96 97 97 97 97 97 98 98 99 99 99 98 98 98 98 99 99 99 100 101 101 101 101 101 101 101 101 102 102 102 103 103 104 104 104 104 104 104 105 105 106 106 106 106 106 106 106 106 106 106 106 107 107 107 108 108 109 109 109 110 110 110 110 110 110 109 109 110 110 110 110 110 110 110 110 111 111 111 111 111 111 111 111 111 111 111 112 112 113 113 113 113 113 113 113 113 113 113 113 114 114 114 114 114 114 114 114 115 115 115 115 115 115 115 115 115 115 115 115 115 115 115 115 116 117 117 117 117 117 117 116 116 116 116 116 116 116 116 116 114 113 114 113 112 112 112 112 112 
55 55 55 55 55 55 55 55 55 55 54 53 54 53 53 53 53 53 53 53 53 53 53 53 52 52 52 52 52 52 52 52 51 52 52 52 52 52 52 51 51 51 51 51 51 51 51 51 51 51 51 51 51 51 51 51 51 51 51 51 51 51 51 51 51 51 51 51 51 51 51 51 51 51 51 51 51 51 51 51 51 51 51 51 51 51 51 51 51 52 52 52 52 52 52 51 51 51 51 51 51 51 51 51 51 51 51 51 51 51 51 50 50 50 50 51 51 51 52 51 51 51 51 52 52 52 53 53 52 52 52 52 52 52 52 52 52 53 53 53 53 53 53 53 54 54 54 54 54 54 54 54 55 56 56 56 56 56 56 56 56 56 56 57 57 58 58 58 58 58 58 58 58 58 58 58 59 59 59 60 60 61 61 61 61 61 61 62 62 62 63 62 62 62 62 63 63 63 64 64 65 65 65 66 66 67 67 67 67 67 67 68 68 69 69 69 69 69 69 70 70 70 71 71 72 73 73 73 73 73 73 73 74 74 74 74 74 74 74 74 75 75 75 75 76 76 77 76 76 77 77 77 77 77 78 77 77 77 77 78 78 79 79 79 79 79 79 80 80 81 81 81 82 83 83 83 83 83 83 83 83 83 83 84 84 84 85 85 85 86 86 87 87 87 88 88 88 88 88 89 89 89 90 89 90 91 91 91 91 91 91 91 91 91 91 92 92 93 93 93 94 94 94 95 95 95 96 95 95 95 95 96 96 96 97 97 97 98 98 99 99 99 100 100 100 100 100 101 101 101 102 101 101 101 101 102 102 102 103 103 103 103 103 104 104 104 105 104 104 105 105 106 106 106 107 106 106 106 106 107 107 107 108 108 107 108 108 109 109 109 110 110 110 110 110 111 111 111 111 110 110 110 110 111 111 111 112 111 111 111 111 112 112 112 113 113 113 113 113 113 113 113 113 113 113 114 114 114 114 114 114 114 114 115 115 115 115 115 115 115 115 116 116 116 116 116 116 115 115 115 115 115 115 115 115 115 115 116 116 116 116 116 116 116 116 116 116 116 116 116 116 116 116 116 115 115 115 114 114 114 113 
55 55 55 55 55 55 55 55 55 55 55 54 53 54 53 53 53 53 53 53 53 53 53 53 52 52 52 52 52 52 52 52 52 52 52 52 52 52 52 52 51 51 51 51 51 51 51 51 51 51 51 51 51 51 51 51 51 51 51 51 51 51 51 51 51 51 51 51 51 51 51 51 51 51 51 51 51 51 51 51 51 51 51 51 51 51 51 51 52 52 52 52 52 52 52 52 51 51 51 51 51 51 51 51 51 51 51 51 51 51 51 51 50 50 51 51 51 52 52 52 51 51 52 52 52 53 53 53 52 52 52 52 52 52 52 52 53 53 53 53 53 53 53 53 54 54 54 54 54 54 54 54 56 56 56 56 56 56 56 56 56 56 57 57 57 58 58 58 58 58 58 58 58 58 58 58 59 59 60 60 60 61 61 61 61 61 62 62 62 63 63 63 62 62 63 63 63 64 64 64 65 65 66 66 66 67 67 67 67 67 68 68 68 69 69 69 69 69 70 70 70 71 71 71 73 73 73 73 73 73 73 73 74 74 74 74 74 74 74 74 75 75 76 76 76 77 77 77 76 77 78 77 77 78 78 78 77 77 78 78 78 79 79 79 79 79 80 80 80 81 81 81 83 83 83 83 83 83 83 83 83 83 84 84 84 85 85 85 86 86 87 87 87 88 88 88 88 88 89 89 89 90 90 90 91 91 91 91 91 91 91 91 91 91 92 92 92 93 93 93 94 94 95 95 95 96 96 96 95 95 96 96 96 97 97 97 98 98 99 99 99 100 100 100 100 100 101 101 101 102 102 102 101 101 102 102 102 103 103 103 103 103 104 104 104 105 105 105 105 105 106 106 106 107 107 107 106 106 107 107 107 108 108 108 108 108 109 109 109 110 110 110 110 110 111 111 111 112 112 110 110 110 111 111 111 112 112 112 111 111 112 112 112 113 113 113 113 113 113 113 113 113 113 113 114 114 114 114 114 114 114 114 115 115 115 115 115 115 115 115 116 116 116 116 116 116 116 116 115 115 115 115 115 115 115 115 116 116 116 116 116 116 116 116 116 116 116 116 116 116 116 116 116 116 116 115 115 115 114 114 114 
55 55 55 55 55 55 55 55 55 55 55 55 54 54 54 53 53 53 53 53 53 53 53 53 52 52 52 52 52 52 52 52 52 52 52 52 52 52 52 52 51 51 51 51 51 51 51 51 51 51 51 51 51 51 51 51 51 51 51 51 51 51 51 51 51 51 51 51 51 51 51 51 51 51 51 51 51 51 51 51 51 51 51 51 51 51 51 51 52 52 52 52 52 52 52 52 51 51 51 51 51 51 51 51 51 51 51 51 51 51 51 51 50 51 51 51 52 52 52 52 51 52 52 52 53 53 53 53 52 52 52 52 52 52 52 52 53 53 53 53 53 53 53 53 54 54 54 54 54 54 54 54 56 56 56 56 56 56 56 56 56 57 57 57 58 58 58 58 58 58 58 58 58 58 58 58 59 60 60 60 61 61 61 61 61 62 62 62 63 63 63 63 62 63 63 63 64 64 64 64 65 66 66 66 67 67 67 67 67 68 68 68 69 69 69 69 69 70 70 70 71 71 71 71 73 73 73 73 73 73 73 73 74 74 74 74 74 74 74 74 75 76 76 76 77 77 77 76 76 78 78 78 78 78 78 78 77 78 78 78 79 79 79 79 79 80 80 80 81 81 81 81 83 83 83 83 83 83 83 83 84 84 84 85 85 85 86 86 86 87 87 87 88 88 88 88 88 89 89 89 90 90 90 90 91 91 91 91 91 91 91 91 91 92 92 92 93 93 93 93 94 95 95 95 96 96 96 96 96 96 96 97 97 97 98 98 98 99 99 99 100 100 100 100 100 101 101 101 102 102 102 102 101 102 102 102 103 103 103 103 103 104 104 104 105 105 105 105 105 106 106 106 107 107 107 107 106 107 107 107 108 108 108 108 108 109 109 109 110 110 110 110 110 111 111 111 112 112 112 110 110 111 111 111 112 112 112 112 111 112 112 112 113 113 113 113 113 113 113 113 113 113 113 113 114 114 114 114 114 114 114 114 115 115 115 115 115 115 115 115 116 116 116 116 116 116 116 116 116 116 116 116 116 116 116 116 117 117 117 117 117 117 117 117 117 117 117 117 117 117 117 117 117 117 116 116 116 115 115 115 116 
56 56 56 56 56 56 56 56 56 56 55 55 55 54 54 54 54 54 54 54 54 54 54 53 53 53 53 53 53 53 53 52 52 53 53 53 53 53 53 52 52 52 52 52 52 52 52 52 52 52 52 52 52 52 52 52 52 52 52 52 52 52 52 51 51 52 52 52 52 52 52 52 52 52 52 52 52 52 52 51 51 52 52 52 52 52 52 52 52 53 53 53 53 53 53 52 51 52 52 52 52 52 52 52 52 52 52 52 52 52 52 51 51 51 51 52 52 52 53 52 52 52 52 53 53 53 54 53 53 53 53 53 53 53 53 53 54 54 54 54 54 54 54 54 54 55 55 55 55 55 55 54 56 57 57 57 57 57 57 57 57 57 57 58 58 58 59 59 59 59 59 59 59 59 59 58 60 60 60 61 61 61 62 62 62 62 62 63 63 63 64 63 63 63 63 64 64 64 65 65 66 66 66 67 67 67 68 67 68 68 68 69 69 69 70 70 70 70 70 71 71 71 72 71 73 74 74 74 74 74 74 74 74 75 75 75 75 75 75 74 76 76 76 76 77 77 78 77 78 78 78 78 78 78 79 78 78 78 78 79 79 79 80 80 80 80 80 81 81 81 82 81 83 84 84 84 84 84 84 84 85 85 85 84 86 86 86 86 87 87 87 88 88 88 89 89 89 89 89 90 90 90 91 90 91 92 92 92 92 92 92 92 92 92 92 93 93 93 94 93 95 95 95 96 96 96 97 97 97 97 97 96 98 98 98 99 99 99 99 100 100 100 101 101 101 101 101 102 102 102 103 102 102 102 102 103 103 103 104 104 104 104 104 105 105 105 106 105 106 106 106 107 107 107 108 107 107 107 107 108 108 108 109 108 109 109 109 110 110 110 111 111 111 111 111 112 112 112 112 112 111 111 111 112 112 112 113 112 112 112 112 113 113 113 114 113 113 114 114 114 114 114 114 114 114 115 115 115 115 115 115 115 115 116 116 116 116 116 116 116 116 117 117 117 117 117 117 117 117 117 117 117 117 117 117 117 117 118 118 118 118 118 118 118 118 118 118 118 118 118 118 118 118 117 117 117 115 116 116 116 115 
56 56 56 56 56 56 56 56 56 56 56 55 55 55 54 54 54 54 54 54 54 54 54 54 53 53 53 53 53 53 53 53 53 53 53 53 53 53 53 53 52 52 52 52 52 52 52 52 52 52 52 52 52 52 52 52 52 52 52 52 52 52 52 52 52 52 52 52 52 52 52 52 52 52 52 52 52 52 52 52 52 52 52 52 52 52 52 52 53 53 53 53 53 53 53 53 52 52 52 52 52 52 52 52 52 52 52 52 52 52 52 52 51 51 52 52 52 53 53 53 52 52 53 53 53 54 54 54 53 53 53 53 53 53 53 53 54 54 54 54 54 54 54 54 55 55 55 55 55 55 55 55 57 57 57 57 57 57 57 57 57 57 58 58 58 59 59 59 59 59 59 59 59 59 59 59 60 60 61 61 61 62 62 62 62 62 63 63 63 64 64 64 63 63 64 64 64 65 65 65 66 66 67 67 67 68 68 68 68 68 69 69 69 70 70 70 70 70 71 71 71 72 72 72 74 74 74 74 74 74 74 74 75 75 75 75 75 75 75 75 76 76 77 77 77 78 78 78 77 78 79 78 78 79 79 79 78 78 79 79 79 80 80 80 80 80 81 81 81 82 82 82 84 84 84 84 84 84 84 84 85 86 86 86 87 87 87 87 87 87 88 88 88 89 89 89 89 89 90 90 90 91 91 91 92 92 92 92 92 92 92 92 92 92 93 93 93 94 94 94 95 95 96 96 96 97 97 97 97 98 98 98 99 99 99 99 99 99 100 100 100 101 101 101 101 101 102 102 102 103 103 103 102 102 103 103 103 104 104 104 104 104 105 105 105 106 106 106 106 106 107 107 107 108 108 108 107 107 108 108 108 109 109 109 109 109 110 110 110 111 111 111 111 111 112 112 112 113 112 111 111 111 112 112 112 113 113 113 112 112 113 113 113 114 114 114 114 114 114 114 114 114 114 114 115 115 115 115 115 115 115 115 116 116 116 116 116 116 116 116 117 117 117 117 117 117 117 117 117 117 117 117 117 117 117 117 118 118 118 118 118 118 118 118 118 118 118 118 118 118 118 118 118 118 118 118 117 117 117 116 115 
57 57 57 57 57 57 57 57 57 56 56 56 55 55 55 55 55 55 55 55 55 55 55 54 54 54 54 54 54 54 54 53 53 54 54 54 54 54 54 53 53 53 53 53 53 53 53 53 53 53 53 53 53 53 53 53 53 53 53 53 53 53 53 52 52 53 53 53 53 53 53 53 53 53 53 53 53 53 53 52 52 53 53 53 53 53 53 53 53 54 54 54 54 54 54 53 52 53 53 53 53 53 53 53 53 53 53 53 53 53 53 52 51 52 52 52 53 53 53 53 53 53 53 53 54 54 54 54 54 54 54 54 54 54 54 54 54 55 55 55 55 55 55 55 55 56 56 56 56 56 56 55 57 58 58 58 58 58 58 58 58 58 58 58 59 59 59 60 60 60 60 60 60 60 60 59 60 61 61 61 62 62 62 63 63 63 63 63 64 64 64 64 64 64 64 64 65 65 65 66 66 67 67 67 68 68 68 68 68 69 69 69 70 70 70 71 71 71 71 71 72 72 72 72 74 75 75 75 75 75 75 75 75 76 76 76 76 76 76 75 76 77 77 77 78 78 78 78 78 79 79 79 79 79 79 79 79 79 79 79 80 80 80 81 81 81 81 81 82 82 82 82 84 85 85 85 85 85 85 84 86 86 87 87 87 88 88 88 87 88 88 88 89 89 89 90 90 90 90 90 91 91 91 91 92 93 93 93 93 93 93 93 93 93 93 93 94 94 94 94 95 96 96 96 97 97 97 98 98 98 99 99 99 100 100 100 100 100 100 100 101 101 101 102 102 102 102 102 103 103 103 103 102 103 103 103 104 104 104 105 105 105 105 105 106 106 106 106 106 107 107 107 108 108 108 108 108 108 108 108 109 109 109 109 109 110 110 110 111 111 111 112 112 112 112 112 113 113 113 113 112 112 112 112 113 113 113 113 113 113 113 113 114 114 114 114 114 115 115 115 115 115 115 115 115 116 116 116 116 116 116 116 116 117 117 117 117 117 117 117 117 118 118 118 118 118 118 117 118 118 118 118 118 118 118 118 119 119 119 119 119 119 119 119 119 119 119 119 119 119 119 119 119 119 119 118 118 118 117 117 114 
57 57 57 57 57 57 57 57 57 57 56 56 56 55 55 55 55 55 55 55 55 55 55 55 54 54 54 54 54 54 54 54 54 54 54 54 54 54 54 54 53 53 53 53 53 53 53 53 53 53 53 53 53 53 53 53 53 53 53 53 53 53 53 53 53 53 53 53 53 53 53 53 53 53 53 53 53 53 53 53 53 53 53 53 53 53 53 53 53 54 54 54 54 54 54 54 53 53 53 53 53 53 53 53 53 53 53 53 53 53 53 53 52 52 52 52 52 53 53 54 53 53 53 53 53 54 54 54 54 54 54 54 54 54 54 54 55 55 55 55 55 55 55 55 56 56 56 56 56 56 56 56 58 58 58 58 58 58 58 58 58 58 58 58 59 59 59 59 60 60 60 60 60 60 60 60 61 61 61 62 62 62 63 63 63 63 63 64 64 64 65 64 64 64 64 65 65 65 66 66 67 67 67 68 68 68 69 68 69 69 69 70 70 70 71 71 71 71 71 72 72 72 73 72 75 75 75 75 75 75 75 75 76 76 76 76 76 76 76 76 77 77 77 77 78 78 79 78 79 79 79 79 79 79 80 79 79 79 79 80 80 80 81 81 81 81 81 82 82 82 83 82 85 85 85 85 85 85 85 85 86 87 87 88 88 88 88 88 88 88 88 89 89 89 90 90 90 90 90 91 91 91 91 91 93 93 93 93 93 93 93 93 93 93 93 93 94 94 94 94 96 96 96 97 97 97 98 98 98 99 99 100 100 100 101 100 100 100 100 100 100 101 101 102 102 102 102 102 102 103 103 103 102 103 103 103 103 104 104 105 105 105 105 105 105 106 106 106 107 107 107 108 108 108 109 108 108 108 108 109 109 109 110 109 109 110 110 110 110 111 111 111 112 112 112 112 112 113 112 112 112 112 112 112 113 113 113 113 113 113 113 113 114 114 114 114 115 115 115 115 115 115 115 115 116 116 116 116 116 116 116 116 117 117 117 117 117 117 117 117 118 118 118 118 118 118 118 118 118 118 118 118 118 118 118 118 119 119 119 119 119 119 119 119 119 119 119 119 119 119 119 119 119 119 119 118 118 117 118 118 116 
57 57 57 57 57 57 57 57 57 56 56 56 56 55 55 55 55 55 55 55 55 55 55 54 54 54 54 54 54 54 54 53 54 54 54 54 54 54 54 54 53 53 53 53 53 53 53 53 53 53 53 53 53 53 53 53 53 53 53 53 53 52 52 52 52 53 53 53 53 53 53 53 53 53 53 53 53 53 53 53 53 53 53 53 53 53 53 53 53 54 54 54 54 54 54 54 53 53 53 53 53 53 53 53 53 53 53 53 53 53 53 53 52 52 52 53 53 53 53 54 53 53 53 54 55 55 55 55 54 54 54 54 54 54 54 54 54 55 55 55 55 55 55 55 55 56 56 56 56 56 56 56 58 58 58 58 58 58 58 58 58 58 59 59 60 60 60 60 60 60 61 60 60 60 60 61 61 61 61 62 62 63 63 63 63 63 63 64 64 65 65 65 64 64 64 64 65 65 65 66 67 67 67 68 68 69 69 69 69 69 69 70 70 71 71 71 71 71 71 72 72 73 73 73 75 75 75 75 75 75 75 75 75 76 76 76 76 76 76 76 77 77 77 78 78 79 79 79 78 79 79 79 79 80 80 80 79 79 79 79 80 80 80 81 81 81 81 81 82 82 82 83 84 85 85 85 85 85 85 85 86 87 87 87 88 88 88 88 88 88 88 88 89 89 89 90 90 90 90 90 91 91 91 92 93 93 93 93 93 93 93 93 93 93 93 93 94 94 94 95 96 96 96 96 97 97 97 98 98 99 99 99 100 100 100 100 100 100 100 100 101 102 101 102 102 102 102 103 103 104 103 103 103 103 103 103 103 104 104 105 104 105 105 105 105 106 106 106 107 107 107 107 108 108 108 108 108 108 108 108 109 109 109 110 109 109 109 110 110 111 111 111 111 111 111 112 112 113 113 113 112 112 112 112 113 113 113 113 113 113 113 113 114 114 114 115 115 115 115 115 115 115 115 115 115 116 116 116 116 116 116 116 117 117 117 117 117 117 117 117 118 118 118 118 118 118 118 118 119 119 119 119 119 119 119 119 120 120 121 120 121 120 121 120 121 120 121 120 121 120 121 120 121 120 120 119 120 119 118 118 118 
58 58 58 58 58 58 58 57 55 55 55 56 56 56 57 56 55 55 56 56 56 56 56 56 56 56 55 55 55 53 53 53 54 55 54 54 54 53 53 53 53 54 54 54 54 54 54 54 55 54 52 51 50 50 50 51 54 55 55 55 54 53 51 51 52 57 57 53 52 56 57 54 54 54 54 53 57 55 53 51 55 52 54 56 53 54 53 56 55 52 49 55 56 53 53 52 51 54 54 53 54 57 57 53 52 52 52 52 53 54 56 55 53 53 53 53 53 54 54 54 54 54 54 54 54 55 55 55 55 56 56 56 56 56 56 56 56 56 56 57 57 57 58 58 58 58 58 58 58 58 58 58 58 58 58 59 59 59 60 58 59 58 58 59 60 60 60 60 60 60 60 62 62 62 63 62 62 62 62 63 63 63 64 64 64 64 64 65 65 65 66 66 66 66 66 67 67 67 68 67 67 67 67 68 68 69 69 69 69 70 70 71 71 71 72 72 72 72 72 73 73 73 74 73 74 75 75 76 76 76 77 77 77 77 77 78 78 78 79 78 79 79 79 79 79 79 79 79 79 80 80 80 80 80 81 80 80 81 81 82 82 82 83 83 83 83 83 84 84 84 85 84 84 85 85 86 86 86 87 87 87 87 87 88 88 88 89 88 89 89 89 90 90 90 91 91 91 91 91 92 92 92 93 92 93 93 94 94 95 95 96 96 96 95 96 96 97 97 98 97 97 97 97 98 98 98 99 99 99 100 100 101 101 101 102 101 102 103 103 103 103 103 103 103 103 103 103 104 104 104 105 105 105 105 105 106 106 106 107 106 106 106 106 107 107 107 108 108 109 110 110 110 110 110 110 110 110 111 111 111 111 111 110 110 111 111 111 112 112 113 113 113 113 113 113 113 113 113 113 113 114 114 114 115 115 116 116 116 115 115 115 115 115 115 115 115 116 117 117 117 117 117 117 116 118 119 119 119 119 119 119 118 118 118 119 118 119 118 119 118 119 118 119 118 119 118 119 119 119 120 120 120 120 120 120 119 121 122 122 122 122 122 122 122 122 122 122 122 122 122 122 121 121 121 121 121 121 121 121 120 119 
58 58 58 58 58 58 58 58 55 55 55 56 56 57 57 57 55 55 56 56 56 56 56 56 56 56 55 54 54 54 53 53 55 55 55 54 54 54 53 53 54 54 54 54 54 54 54 54 54 55 52 50 50 50 50 50 55 55 56 56 53 51 51 51 56 57 57 56 55 56 56 56 56 52 51 58 80 76 54 56 50 56 57 56 53 63 64 63 72 54 54 50 53 54 57 51 51 53 52 52 52 57 58 53 52 52 52 52 53 54 56 56 53 53 53 53 54 54 54 54 54 54 54 54 54 55 55 55 56 56 56 56 56 56 56 56 56 56 57 57 57 58 58 58 58 58 58 58 58 58 58 58 58 58 59 59 59 60 60 60 59 58 60 60 59 61 61 61 60 60 62 62 61 63 63 63 62 62 63 63 63 64 64 64 64 64 65 65 65 66 66 66 66 66 67 67 67 68 68 68 67 67 68 68 68 69 69 69 70 70 71 71 71 72 72 72 72 72 73 73 73 74 74 74 75 75 76 76 76 77 77 77 77 77 78 78 78 79 79 79 79 79 79 79 79 79 79 79 80 80 81 80 80 81 81 81 81 81 82 82 82 83 83 83 83 83 84 84 84 85 85 85 85 85 86 86 86 87 87 87 87 87 88 88 88 89 89 89 89 89 90 90 90 91 91 91 91 91 92 92 92 93 93 93 94 94 95 95 95 96 96 96 96 96 97 97 97 98 98 98 97 97 98 98 98 99 99 99 100 100 101 101 101 102 102 102 103 103 103 103 103 103 103 103 103 103 104 104 104 105 105 105 105 105 106 105 106 107 107 107 106 106 107 106 107 108 108 108 110 110 110 110 110 110 110 110 111 111 111 111 111 111 111 111 111 112 111 112 112 113 113 113 113 113 113 113 113 113 113 113 114 114 115 115 115 116 116 116 115 115 115 115 115 115 115 115 117 117 117 117 117 117 117 117 119 119 119 119 119 119 119 119 118 118 118 118 118 118 118 118 118 118 118 118 118 118 118 119 120 120 120 120 120 120 120 120 122 122 122 122 122 122 122 122 122 122 122 122 122 122 122 122 121 121 121 121 121 121 121 121 119 
58 58 58 58 58 58 58 58 56 56 56 56 57 57 57 57 56 55 55 55 55 55 55 55 55 55 56 56 54 55 55 54 55 55 55 55 54 54 54 53 54 54 54 54 54 54 54 55 55 55 52 51 50 50 50 51 56 56 57 57 56 55 51 51 54 55 57 56 56 55 54 56 56 51 51 65 83 85 56 49 51 52 58 52 53 65 68 74 71 55 54 52 52 57 57 53 55 55 51 52 54 56 56 52 52 52 52 52 55 54 56 56 54 53 53 53 54 54 54 54 54 54 54 54 54 55 55 55 56 56 56 56 56 56 56 56 56 57 57 57 58 58 58 58 58 58 58 58 58 58 58 58 58 59 59 59 60 60 60 60 59 60 60 60 61 61 61 61 61 62 62 62 63 63 63 63 62 63 63 63 64 64 64 64 64 65 65 65 66 66 66 66 66 67 67 67 68 68 68 68 67 68 68 68 69 69 69 69 70 71 71 71 72 72 72 72 72 73 73 73 74 74 74 74 75 76 76 76 77 77 77 77 77 78 78 78 79 79 79 79 79 79 79 79 79 79 79 79 80 81 81 81 81 81 81 81 81 82 82 82 83 83 83 83 83 84 84 84 85 85 85 85 85 86 86 86 87 87 87 87 87 88 88 88 89 89 89 89 89 90 90 90 91 91 91 91 91 92 92 92 93 93 93 93 94 95 95 95 96 96 96 96 96 97 97 97 98 98 98 98 97 98 98 98 99 99 99 99 100 101 101 101 102 102 102 102 103 103 103 103 103 103 103 103 103 104 104 104 105 105 105 105 105 106 106 106 107 107 107 107 106 107 107 107 108 108 108 108 110 110 110 110 110 110 110 110 112 112 112 112 112 112 112 111 112 112 112 112 113 113 113 113 113 113 113 113 113 113 113 113 114 115 115 115 116 116 116 116 116 116 116 116 116 116 116 116 118 118 118 118 118 118 118 118 119 119 119 119 119 119 119 118 120 120 120 120 120 120 120 120 120 120 120 120 120 120 120 120 121 121 121 121 121 121 121 121 122 122 122 122 122 122 122 122 122 122 122 122 122 122 122 122 122 122 122 122 122 122 122 122 120 
59 59 59 59 59 59 59 58 56 57 57 57 57 57 57 57 57 57 57 57 57 57 57 57 57 57 56 56 56 55 55 55 55 56 55 55 55 54 54 54 54 55 55 55 55 55 54 54 55 55 53 52 51 51 52 52 57 58 58 58 57 55 53 54 56 55 55 57 57 54 54 55 55 54 49 80 81 86 65 64 67 50 50 57 57 63 57 79 73 47 49 51 55 57 58 54 55 55 56 56 56 56 55 53 53 53 53 53 55 55 57 57 54 54 55 54 55 54 54 54 54 54 54 55 55 55 55 56 56 57 57 57 57 57 57 57 57 57 57 58 58 58 59 59 59 59 59 59 59 59 59 59 59 59 59 60 60 60 61 60 60 60 60 61 61 61 62 62 62 62 62 63 63 63 64 63 63 63 63 64 64 64 65 65 65 65 65 66 66 66 67 67 67 67 67 68 68 68 69 68 68 68 68 69 69 69 70 69 71 71 71 72 72 72 73 73 73 73 73 74 74 74 75 74 76 76 76 77 77 77 78 78 78 78 78 79 79 79 80 79 79 80 80 79 79 80 80 79 81 81 81 81 81 81 82 81 82 82 82 83 83 83 84 84 84 84 84 85 85 85 86 85 86 86 86 87 87 87 88 88 88 88 88 89 89 89 90 89 90 90 90 91 91 91 92 92 92 92 92 93 93 93 94 93 95 95 95 96 96 96 97 97 97 97 97 98 98 98 99 98 98 98 98 99 99 99 100 100 101 101 101 102 102 102 103 102 103 104 104 104 104 104 104 104 104 104 104 105 105 105 106 106 106 106 106 107 107 107 108 107 107 107 107 108 108 108 109 108 110 110 110 110 110 110 110 110 112 112 112 112 112 112 112 112 112 112 113 113 113 113 113 113 113 114 114 114 114 114 114 113 115 115 115 116 116 116 117 117 117 117 117 117 117 117 117 116 118 119 119 119 119 119 119 119 119 120 120 120 120 120 120 119 120 121 121 121 121 121 121 121 121 121 121 121 121 121 121 120 121 122 122 122 122 122 122 122 122 123 123 123 123 123 123 123 123 123 123 123 123 123 123 123 123 123 123 123 123 123 123 122 121 
59 59 59 59 59 59 59 59 57 57 57 57 57 57 57 57 57 57 57 57 57 57 57 57 57 57 57 56 56 56 55 55 56 56 56 55 55 55 54 54 55 55 55 55 55 55 55 55 55 55 53 53 52 52 53 53 57 58 58 58 57 57 54 55 57 56 55 57 58 57 53 55 52 53 83 82 84 82 53 64 59 57 73 80 73 65 50 43 46 48 47 55 56 58 64 53 54 52 57 56 55 55 55 57 54 54 53 54 55 56 57 58 56 56 56 56 56 56 56 56 55 55 55 56 55 55 55 56 57 57 57 57 57 57 57 57 57 57 58 58 58 59 59 59 59 59 59 59 59 59 59 59 59 59 60 60 60 61 61 61 60 60 61 61 61 62 62 62 62 62 63 63 63 64 64 64 63 63 64 64 64 65 65 65 65 65 66 66 66 67 67 67 67 67 68 68 68 69 69 69 68 68 69 69 69 70 70 70 71 71 72 72 72 73 73 73 73 73 74 74 74 75 75 75 76 76 77 77 77 78 78 78 78 78 79 79 79 80 80 80 80 80 80 80 80 80 80 80 81 81 82 81 81 82 82 82 82 82 83 83 83 84 84 84 84 84 85 85 85 86 86 86 86 86 87 87 87 88 88 88 88 88 89 89 89 90 90 90 90 90 91 91 91 92 92 92 92 92 93 93 93 94 94 94 95 95 96 96 96 97 97 97 97 97 98 98 98 99 99 99 98 98 99 99 99 100 100 100 101 101 102 102 102 103 103 103 104 104 104 104 104 104 104 104 104 104 105 105 105 106 106 106 106 106 107 107 107 108 108 108 107 107 108 108 108 109 109 109 111 110 110 110 110 110 110 111 112 112 112 112 112 112 112 112 114 113 113 113 113 113 113 113 114 114 114 114 114 114 114 114 115 115 116 116 116 117 117 117 117 117 117 117 117 117 117 117 119 119 119 119 119 119 119 119 120 120 120 120 120 120 120 120 121 121 121 121 121 121 121 121 121 121 121 121 121 121 121 121 122 122 122 122 122 122 122 122 123 123 123 123 123 123 123 123 123 123 123 123 123 123 123 123 123 123 123 123 123 123 123 123 121 
60 60 60 60 60 60 60 59 58 58 58 58 57 57 57 57 57 58 58 58 58 58 58 58 58 57 56 57 56 55 56 55 56 56 56 56 55 55 55 55 55 56 56 56 56 56 56 56 55 55 54 54 53 52 54 54 57 58 58 58 58 57 57 56 53 58 57 58 54 53 53 52 51 57 80 83 72 42 49 49 59 75 76 83 67 65 50 47 45 68 67 47 47 85 81 56 52 54 55 55 55 55 55 57 54 54 54 54 56 56 57 57 57 55 56 56 56 57 57 56 56 56 56 56 55 56 56 55 57 57 58 58 58 58 58 58 58 58 58 58 59 59 59 60 60 60 60 60 60 60 60 60 60 60 60 60 61 61 61 61 60 61 61 61 62 62 62 63 63 63 63 63 64 64 64 64 64 64 64 64 65 65 65 66 66 66 66 66 67 67 67 68 68 68 68 68 69 69 69 69 69 69 69 69 70 70 70 70 71 72 72 72 73 73 73 74 74 74 74 74 75 75 75 75 76 77 77 77 78 78 78 79 79 79 79 79 80 80 80 80 80 81 81 80 80 81 81 80 81 82 82 82 82 82 82 82 82 83 83 83 84 84 84 85 85 85 85 85 86 86 86 86 86 87 87 87 88 88 88 89 89 89 89 89 90 90 90 90 90 91 91 91 92 92 92 93 93 93 93 93 94 94 94 94 95 96 96 96 97 97 97 98 98 98 98 98 99 99 99 99 98 99 99 99 100 100 100 101 101 102 102 102 103 103 103 103 104 105 105 105 105 105 105 105 105 105 105 105 106 106 106 107 107 107 107 107 108 108 108 108 108 108 108 108 109 109 109 109 110 111 111 111 111 111 111 110 113 113 113 113 113 113 113 113 114 114 114 114 113 113 113 113 114 115 115 115 115 115 115 114 116 115 115 116 116 116 117 117 117 117 117 117 117 117 117 118 120 120 120 120 120 120 120 120 121 121 121 121 121 121 121 120 122 122 122 122 122 122 122 122 122 122 122 122 122 122 122 122 123 123 123 123 123 123 123 123 124 124 124 124 124 124 124 123 123 123 123 123 123 123 123 123 124 124 124 124 124 124 124 124 122 
60 60 60 60 60 60 60 60 59 59 58 58 58 57 57 57 58 58 58 58 58 58 58 58 58 58 57 57 57 56 56 56 56 57 56 56 56 55 55 55 56 56 56 56 56 56 56 56 55 55 54 54 54 55 54 54 58 57 58 58 58 58 58 57 55 63 76 64 54 52 55 51 51 54 80 77 76 65 42 52 58 56 44 32 42 45 51 55 52 71 67 57 56 84 89 69 63 53 53 53 55 56 57 58 55 55 55 55 55 56 58 58 58 58 57 57 57 57 57 57 56 56 56 56 56 56 56 55 58 58 58 58 58 58 58 58 58 58 58 59 59 59 60 60 60 60 60 60 60 60 60 60 60 60 60 61 61 61 62 61 61 61 61 62 62 62 63 63 63 63 63 64 64 64 65 64 64 64 64 65 65 65 66 66 66 66 66 67 67 67 68 68 68 68 68 69 69 69 70 69 69 69 69 70 70 70 71 70 72 72 72 73 73 73 74 74 74 74 74 75 75 75 76 75 77 77 77 78 78 78 79 79 79 79 79 80 80 80 81 80 81 81 81 81 81 81 81 81 82 82 82 82 82 82 83 82 83 83 83 84 84 84 85 85 85 85 85 86 86 86 87 86 87 87 87 88 88 88 89 89 89 89 89 90 90 90 91 90 91 91 91 92 92 92 93 93 93 93 93 94 94 94 95 94 96 96 96 97 97 97 98 98 98 98 98 99 99 99 100 99 99 99 99 100 100 100 101 101 102 102 102 103 103 103 104 103 105 105 105 105 105 105 105 105 105 105 105 106 106 106 107 107 107 107 107 108 108 108 109 108 108 108 108 109 109 109 110 109 111 111 111 111 111 111 111 111 113 114 114 114 114 114 114 114 115 115 114 114 114 113 113 113 115 115 115 115 115 115 115 115 116 117 117 117 118 118 119 119 119 120 120 120 120 120 120 120 120 121 121 121 121 121 121 121 121 121 121 121 121 121 121 121 122 123 123 123 123 123 123 123 123 123 123 123 123 123 123 122 123 124 124 124 124 124 124 124 124 124 124 124 124 124 124 124 123 123 123 123 123 123 123 123 123 124 124 124 124 124 124 124 122 
60 60 60 60 60 60 60 60 58 59 58 58 58 57 57 57 58 58 58 58 58 58 58 58 58 57 57 57 57 56 56 56 57 57 57 56 56 55 55 55 56 56 56 56 56 56 56 56 55 55 54 54 55 54 55 55 57 58 58 59 58 58 58 57 55 91 86 92 62 60 62 62 72 70 70 75 71 71 65 67 61 54 33 34 60 54 51 67 78 73 69 73 69 80 61 67 68 76 53 53 56 57 56 56 56 55 55 55 55 56 57 58 58 57 57 57 57 57 57 56 56 56 56 56 56 56 56 56 58 58 58 58 58 58 58 58 58 58 58 59 59 60 60 60 60 60 60 60 60 60 60 60 60 60 60 61 61 62 62 62 61 61 61 62 62 63 63 63 63 63 63 64 64 64 64 64 64 64 64 65 65 66 66 66 66 66 66 67 67 67 67 68 68 68 68 69 69 70 70 70 69 69 69 70 70 71 71 71 72 72 72 73 73 74 74 74 74 74 74 75 75 76 76 76 76 77 77 77 78 78 78 79 79 79 79 80 80 81 81 81 81 81 81 81 81 81 81 81 82 82 82 82 82 83 83 83 83 83 83 84 84 85 85 85 85 85 85 86 86 87 87 87 87 87 87 88 88 89 89 89 89 89 89 90 90 91 91 91 91 91 91 92 92 93 93 93 93 93 93 94 94 95 95 95 96 96 96 97 97 98 98 98 98 98 98 99 99 100 100 100 99 99 99 100 100 101 101 101 102 102 102 103 103 104 104 104 104 105 105 105 105 105 105 105 105 105 105 106 106 107 107 107 107 107 107 108 108 109 109 109 108 108 108 108 109 109 109 110 111 111 111 111 111 111 111 111 114 114 114 114 114 114 114 114 114 114 114 114 114 113 113 113 115 115 115 115 115 115 115 115 117 117 117 118 118 118 118 118 119 120 120 120 120 120 120 119 120 121 121 121 121 121 121 121 121 121 121 121 121 121 121 121 123 123 123 123 123 123 123 123 123 123 123 123 123 123 123 123 124 124 124 124 124 124 124 124 124 124 124 124 124 124 124 124 123 123 123 123 123 123 123 123 124 124 124 124 124 124 124 124 122 
60 60 60 60 60 60 60 60 58 58 58 58 58 58 58 58 58 58 58 58 58 58 58 58 57 57 57 57 57 57 57 57 57 57 57 57 57 57 57 57 57 57 57 57 57 57 57 57 57 56 56 55 56 57 59 59 58 55 56 54 56 57 55 54 55 94 88 94 55 57 65 79 81 69 63 41 39 74 73 67 61 60 37 39 54 56 47 53 78 73 73 81 89 63 70 63 74 36 44 53 56 55 59 56 57 56 56 56 56 57 57 58 58 58 58 58 60 57 56 56 56 57 57 57 56 55 56 56 58 58 59 59 59 59 59 59 59 59 59 60 60 60 61 61 61 61 61 61 61 61 61 61 61 61 61 62 62 62 63 62 62 63 63 63 63 63 63 63 63 64 64 64 64 64 64 64 64 65 65 66 66 66 67 67 67 67 67 67 67 67 67 67 68 69 69 70 70 70 71 70 70 70 70 71 71 71 72 71 72 73 73 74 74 74 75 75 75 75 75 76 76 76 77 76 78 79 79 80 80 80 81 80 80 80 80 81 81 81 82 81 81 82 82 81 81 82 82 81 82 83 83 83 83 83 84 83 83 84 84 85 85 85 86 86 86 86 86 87 87 87 88 87 87 88 88 89 89 89 90 90 90 90 90 91 91 91 92 91 91 92 92 93 93 93 94 94 94 94 94 95 95 95 96 95 96 97 97 98 98 98 99 99 99 99 99 100 100 100 101 100 99 100 100 101 101 101 102 102 102 103 103 104 104 104 105 104 104 104 104 105 105 105 106 106 106 106 106 107 107 107 108 108 108 108 108 109 109 109 110 110 110 110 110 111 111 111 112 112 112 112 112 113 113 113 114 113 113 113 113 114 114 114 115 115 114 114 114 115 115 115 116 116 116 116 116 117 117 117 118 118 118 118 118 118 118 118 118 118 119 119 119 119 119 119 119 119 119 120 120 121 121 121 122 121 121 121 123 122 121 121 122 122 123 123 123 123 123 123 123 123 123 124 124 124 124 124 124 123 124 125 125 125 125 125 125 124 124 124 124 125 125 125 126 125 123 124 124 124 124 124 124 124 124 125 125 125 125 125 125 124 123 
60 60 60 60 60 60 60 60 58 58 58 58 58 58 58 58 58 58 58 58 58 58 58 57 57 57 57 57 57 57 57 57 57 57 57 57 57 57 57 57 57 57 57 57 57 57 57 57 56 57 56 56 58 58 58 59 59 53 52 53 56 54 57 53 54 89 83 82 56 58 55 81 49 55 56 30 31 57 50 68 64 56 42 41 45 50 47 67 63 68 69 84 78 57 52 42 34 38 36 52 53 52 57 57 56 56 56 55 56 56 57 57 59 58 58 58 59 58 58 58 57 57 57 57 56 56 56 56 59 59 59 59 59 59 59 59 59 59 60 60 60 61 61 61 61 61 61 61 61 61 61 61 61 61 62 62 62 63 63 63 63 63 63 63 63 63 63 63 64 64 64 64 64 64 64 64 65 65 66 66 66 67 67 67 67 67 67 67 67 67 67 68 69 69 70 70 70 71 71 71 70 70 71 71 71 72 72 72 73 73 74 74 74 75 75 75 75 75 76 76 76 77 77 77 79 79 80 80 80 81 81 81 80 80 81 81 81 82 82 82 82 82 82 82 82 82 82 82 83 83 84 83 83 84 84 84 84 84 85 85 85 86 86 86 86 86 87 87 87 88 88 88 88 88 89 89 89 90 90 90 90 90 91 91 91 92 92 92 92 92 93 93 93 94 94 94 94 94 95 95 95 96 96 96 97 97 98 98 98 99 99 99 99 99 100 100 100 101 101 101 100 100 101 101 101 102 102 102 103 103 104 104 104 105 105 105 104 104 105 105 105 106 106 106 106 106 107 107 107 108 108 108 108 108 109 109 109 110 110 110 110 110 111 111 111 112 112 112 112 112 113 113 113 114 114 114 113 113 114 114 114 115 115 115 114 114 115 115 115 116 116 116 116 116 117 117 117 118 118 118 118 118 118 118 118 118 118 118 118 119 119 119 119 119 119 119 120 120 121 121 121 122 122 122 121 121 123 123 121 121 121 122 123 123 123 123 123 123 123 123 124 124 124 124 124 124 124 124 125 125 125 125 125 125 125 125 124 124 125 125 125 126 126 126 124 124 124 124 124 124 124 124 125 125 125 125 125 125 125 125 123 
60 60 60 60 60 60 60 60 58 58 58 58 58 58 58 58 58 58 58 58 58 58 58 58 57 57 57 57 57 57 57 57 57 57 57 57 57 57 57 57 57 57 57 57 57 57 57 57 56 56 56 58 59 58 58 57 53 53 70 71 57 55 53 51 55 78 83 72 65 67 63 59 46 42 36 36 33 57 54 54 56 55 43 48 56 73 70 75 63 66 68 56 64 49 50 53 29 35 54 57 54 57 58 55 57 56 56 56 56 56 57 57 56 56 56 55 55 55 57 57 57 57 57 57 58 58 58 57 59 59 59 59 59 59 59 59 59 60 60 60 61 61 61 61 61 61 61 61 61 61 61 61 61 62 62 62 63 63 63 63 63 63 63 63 63 63 63 63 64 64 64 64 64 64 64 64 65 66 66 66 67 67 67 67 69 69 69 69 69 69 69 69 69 70 70 70 71 71 71 71 70 71 71 71 72 72 72 72 73 74 74 74 75 75 75 75 75 76 76 76 77 77 77 77 79 80 80 80 81 81 81 81 80 81 81 81 82 82 82 82 82 82 82 82 82 82 82 82 83 84 84 84 84 84 84 84 84 85 85 85 86 86 86 86 86 87 87 87 88 88 88 88 88 89 89 89 90 90 90 90 90 91 91 91 92 92 92 92 92 93 93 93 94 94 94 94 94 95 95 95 96 96 96 96 97 98 98 98 99 99 99 99 99 100 100 100 101 101 101 101 100 101 101 101 102 102 102 102 103 104 104 104 105 105 105 105 104 105 105 105 106 106 106 106 106 107 107 107 108 108 108 108 108 109 109 109 110 110 110 110 110 111 111 111 112 112 112 112 112 113 113 113 114 114 114 114 113 114 114 114 115 115 115 115 114 115 115 115 116 116 116 116 116 117 117 117 118 118 118 118 120 120 120 120 120 120 120 120 120 120 120 120 120 120 120 120 120 121 121 121 122 122 122 122 121 123 123 122 121 121 121 123 122 123 123 123 123 123 123 123 124 124 124 124 124 124 124 124 125 125 125 125 125 125 125 125 124 125 125 125 126 126 126 126 125 126 125 125 125 125 125 125 125 125 125 125 125 125 125 125 124 
61 61 61 61 61 61 61 60 58 59 59 59 59 59 59 58 58 59 59 59 59 59 59 58 58 58 58 58 58 58 58 57 57 58 58 58 58 58 58 58 58 58 58 58 58 58 58 57 55 55 58 62 62 61 57 57 55 64 74 76 65 61 53 58 76 82 78 54 63 67 70 61 47 37 36 42 73 75 73 50 63 55 46 51 47 75 82 56 62 65 62 50 55 47 48 47 27 29 54 59 59 57 54 55 56 57 55 56 55 56 56 56 56 55 56 55 55 56 56 57 57 57 58 57 58 58 58 58 59 60 60 60 60 60 60 60 60 60 60 61 61 61 62 62 62 62 62 62 62 62 62 62 62 62 62 63 63 63 64 63 63 64 64 64 64 64 64 64 64 65 65 65 65 65 65 65 66 66 66 67 67 67 68 68 68 69 69 69 69 69 69 69 70 70 70 71 71 71 72 71 71 71 71 72 72 72 73 72 74 74 74 75 75 75 76 76 76 76 76 77 77 77 78 77 80 80 80 81 81 81 82 81 81 81 81 82 82 82 83 82 82 83 83 82 82 83 83 82 84 84 84 84 84 84 85 84 85 85 85 86 86 86 87 87 87 87 87 88 88 88 89 88 89 89 89 90 90 90 91 91 91 91 91 92 92 92 93 92 93 93 93 94 94 94 95 95 95 95 95 96 96 96 97 96 98 98 98 99 99 99 100 100 100 100 100 101 101 101 102 101 101 101 101 102 102 102 103 103 104 104 104 105 105 105 106 105 105 105 105 106 106 106 107 107 107 107 107 108 108 108 109 109 109 109 109 110 110 110 111 111 111 111 111 112 112 112 112 112 113 113 113 113 114 114 114 114 113 114 114 114 115 115 115 115 115 115 115 116 116 116 117 117 117 117 117 118 118 118 119 118 120 120 120 120 120 120 120 120 120 121 121 121 121 121 121 121 121 121 121 122 122 122 123 122 122 123 123 124 121 121 123 123 123 124 124 124 124 124 124 124 124 125 125 125 125 125 125 124 125 126 126 126 126 126 126 125 125 125 125 126 126 126 126 125 126 126 126 126 126 126 126 126 126 126 126 126 126 126 126 125 125 
61 61 61 61 61 61 61 61 59 59 59 59 59 59 59 59 59 59 59 59 59 59 59 59 58 58 58 58 58 58 58 58 58 58 58 58 58 58 58 58 58 58 58 58 58 58 58 58 56 55 59 62 61 62 59 57 56 54 71 64 50 41 44 55 80 80 82 50 45 72 73 73 78 60 45 52 74 74 75 65 74 45 40 39 55 76 76 74 58 62 42 49 60 62 47 34 33 32 36 46 60 55 57 59 57 57 56 56 56 56 57 57 56 59 58 57 55 59 59 60 58 58 58 58 59 58 58 58 60 60 60 60 60 60 60 60 60 60 61 61 61 62 62 62 62 62 62 62 62 62 62 62 62 62 63 63 63 64 64 64 64 64 64 64 64 64 64 64 65 65 65 65 65 65 65 65 66 66 67 67 67 68 68 68 68 69 69 69 69 69 69 68 70 70 71 71 71 72 72 72 71 71 72 72 72 73 73 73 74 74 75 75 75 76 76 76 76 76 77 77 77 78 78 78 80 80 81 81 81 82 82 82 81 81 82 82 82 83 83 83 83 83 83 83 83 83 83 83 84 84 85 84 84 85 85 85 85 85 86 86 86 87 87 87 87 87 88 88 88 89 89 89 89 89 90 90 90 91 91 91 91 91 92 92 92 93 93 93 93 93 94 94 94 95 95 95 95 95 96 96 96 97 97 97 98 98 99 99 99 100 100 100 100 100 101 101 101 102 102 102 101 101 102 102 102 103 103 103 104 104 105 105 105 106 106 106 105 105 106 106 106 107 107 107 107 107 108 108 108 109 109 109 109 109 110 110 110 111 111 111 111 111 112 112 112 113 112 113 113 113 114 114 114 115 115 115 114 114 115 115 115 116 116 116 115 115 116 116 116 117 117 117 117 117 118 118 118 119 118 119 119 120 120 120 120 120 120 119 121 121 121 121 121 121 121 121 121 121 122 122 122 123 123 123 122 122 124 124 121 122 123 123 123 124 124 124 124 124 124 124 125 125 125 125 125 125 125 125 126 126 126 126 126 126 126 126 125 125 126 126 126 127 127 126 126 126 126 126 126 126 126 126 126 126 126 126 126 126 126 126 125 
62 62 62 62 62 62 62 61 59 60 60 60 60 60 60 59 59 60 60 60 60 60 60 59 59 59 59 59 59 59 59 58 58 59 59 59 59 59 59 59 59 59 59 59 59 59 59 59 56 56 60 62 62 62 60 57 53 55 66 64 50 47 45 50 49 79 82 48 47 43 58 78 74 79 56 51 68 69 70 73 89 46 35 44 70 75 66 69 73 71 39 50 67 59 54 37 79 64 37 40 57 56 57 59 57 57 56 56 56 57 57 57 55 56 60 53 54 60 59 58 58 58 58 58 60 60 60 59 60 61 61 61 61 61 61 61 61 61 61 61 62 62 62 63 63 63 63 63 63 63 63 63 63 63 63 63 64 64 64 64 64 65 65 65 65 65 65 65 65 66 66 66 66 66 66 66 66 67 67 67 68 68 68 69 68 68 68 68 68 68 68 69 70 71 71 71 72 72 72 72 72 72 72 72 73 73 73 73 74 75 75 75 76 76 76 77 77 77 77 77 78 78 78 78 80 81 81 81 82 82 82 82 82 82 82 82 83 83 83 83 83 84 84 83 83 84 84 83 84 85 85 85 85 85 85 85 85 86 86 86 87 87 87 88 88 88 88 88 89 89 89 89 89 90 90 90 91 91 91 92 92 92 92 92 93 93 93 93 93 94 94 94 95 95 95 96 96 96 96 96 97 97 97 97 98 99 99 99 100 100 100 101 101 101 101 101 102 102 102 102 101 102 102 102 103 103 103 104 104 105 105 105 106 106 106 106 105 106 106 106 107 107 107 108 108 108 108 108 109 109 109 110 110 110 110 110 111 111 111 112 112 112 112 112 113 113 113 114 113 114 114 114 115 115 115 115 115 115 115 115 116 116 116 116 116 116 116 116 117 117 117 118 118 118 118 118 119 119 119 120 119 119 119 119 119 119 119 120 121 121 121 121 121 121 121 122 121 122 122 122 123 123 123 123 123 124 124 123 122 122 122 124 124 125 125 125 125 125 125 125 125 126 126 126 126 126 126 125 126 127 127 127 127 127 127 126 126 126 126 126 127 127 127 126 127 127 126 126 126 126 126 126 126 126 126 126 126 126 126 126 126 
62 62 62 62 62 62 62 62 60 60 60 60 60 60 60 60 60 60 60 60 60 60 60 60 59 59 59 59 59 59 59 59 59 59 59 59 59 59 59 59 59 59 59 59 59 59 59 59 59 59 60 61 61 61 60 59 56 77 86 84 80 75 52 59 56 73 79 63 45 42 50 62 78 72 56 65 68 70 68 71 87 90 43 47 64 64 64 66 75 72 69 50 44 65 70 61 75 75 58 46 53 58 57 55 57 57 56 57 56 57 56 56 54 57 59 54 55 58 58 58 58 58 58 59 60 60 60 60 61 61 61 61 61 61 61 61 61 61 61 62 61 62 63 63 63 63 63 63 63 63 63 63 63 63 63 64 64 64 65 65 65 65 65 65 65 65 65 65 66 66 66 66 66 66 66 66 67 67 67 68 68 68 69 68 70 70 70 70 70 70 70 70 71 71 71 72 72 72 73 72 72 72 72 73 73 73 74 73 75 75 75 75 75 76 76 76 77 77 77 78 77 78 78 79 80 81 81 81 81 82 82 82 82 82 82 82 82 83 83 83 84 84 84 84 84 84 84 84 85 85 85 85 85 85 86 85 86 86 86 87 87 87 88 88 88 88 88 89 89 89 89 89 90 90 90 91 91 91 92 92 92 92 92 93 93 93 93 93 94 94 94 94 95 95 95 95 96 96 96 96 96 97 97 97 99 99 99 100 100 100 101 101 101 101 101 102 102 102 102 102 102 102 102 103 103 103 104 104 105 105 105 106 106 106 106 106 106 106 106 107 107 107 108 108 108 108 108 109 109 109 110 110 110 110 110 110 110 111 111 111 112 112 112 112 112 113 113 114 114 114 114 115 115 115 116 115 115 115 115 116 116 116 117 116 116 116 116 117 117 117 118 118 118 118 118 119 119 119 119 121 121 122 122 122 122 122 122 123 123 124 124 124 124 124 123 122 122 122 122 123 123 123 124 123 123 124 124 125 122 122 124 124 125 125 125 125 125 125 125 125 126 126 126 126 126 126 126 126 127 127 127 127 127 127 127 127 126 126 126 127 127 127 127 127 127 128 128 128 128 128 128 127 127 127 127 127 127 127 127 127 127 
62 62 62 62 62 62 62 61 60 60 60 60 60 60 60 60 60 60 60 60 60 60 60 60 59 59 59 59 59 59 59 59 59 59 58 58 59 59 59 59 59 59 59 59 59 59 59 59 58 59 59 59 60 60 59 56 81 81 85 74 78 75 66 64 79 72 60 50 48 52 74 72 65 45 44 55 69 72 70 62 58 82 78 65 59 63 49 56 71 69 57 50 51 72 69 66 70 75 62 46 46 60 62 56 56 57 56 56 56 56 56 55 64 75 70 57 55 56 57 57 57 58 59 59 60 60 60 60 60 61 61 61 61 61 61 61 61 61 61 62 62 63 63 63 63 63 63 63 63 63 63 63 63 63 63 63 64 65 65 65 65 65 65 65 65 65 65 65 65 66 66 66 66 66 66 66 67 67 67 68 68 69 69 69 70 70 70 70 70 70 71 70 70 71 71 71 72 72 72 72 72 72 72 72 73 73 74 74 75 75 76 76 77 77 77 78 77 77 77 78 78 79 79 79 80 80 81 81 82 82 82 82 81 81 82 82 82 82 83 83 84 84 84 84 84 84 84 84 85 85 85 85 85 85 85 86 85 86 86 86 87 87 87 88 88 88 88 88 89 89 89 89 89 90 90 90 91 91 91 92 92 92 92 92 93 93 93 94 94 94 94 94 95 95 96 96 96 96 96 96 97 97 97 98 99 99 99 99 100 100 100 101 101 101 101 101 102 102 102 103 102 102 102 102 103 103 103 104 104 105 105 105 106 106 106 106 106 106 106 106 107 107 107 108 108 108 108 108 109 109 109 110 110 110 110 110 111 111 111 112 112 112 112 112 113 113 113 114 114 114 114 114 115 115 115 115 115 115 115 115 116 116 116 116 116 116 116 116 117 117 117 118 118 118 118 118 119 119 120 120 122 122 122 122 122 122 122 122 123 124 124 124 124 124 123 122 122 122 122 122 123 123 123 123 123 123 124 124 123 123 124 124 124 125 125 125 125 125 125 125 126 126 126 126 126 126 126 126 126 127 127 127 127 127 127 126 126 126 126 126 127 127 127 128 128 128 128 128 128 128 128 127 127 127 127 127 127 127 127 127 127 
63 63 62 62 62 61 61 61 61 61 61 61 61 61 61 60 60 60 60 60 60 60 60 60 60 60 60 60 60 60 60 60 59 59 58 58 59 59 60 60 59 59 61 61 61 59 59 59 59 62 59 59 62 55 56 71 87 85 80 78 74 51 51 50 80 79 56 54 68 70 73 75 71 45 41 55 55 70 71 63 61 60 76 77 61 55 47 53 51 60 59 66 69 73 72 80 73 70 49 44 42 71 52 55 71 66 53 53 54 55 54 78 70 76 72 82 81 69 60 72 75 70 60 60 61 59 59 62 60 61 60 60 60 61 61 62 63 63 63 64 64 64 63 64 62 62 62 63 63 63 64 64 64 65 65 65 65 65 65 65 65 66 66 66 66 66 66 66 66 67 67 67 67 67 67 67 67 68 68 69 69 69 70 69 69 69 69 70 70 71 71 71 70 71 72 71 73 74 74 74 74 74 74 75 75 75 75 74 74 74 78 79 81 83 83 82 79 79 79 79 80 81 82 82 83 82 82 82 83 83 84 82 83 85 84 80 81 83 83 82 86 85 86 84 83 87 88 84 85 85 85 86 86 86 87 86 86 87 87 88 88 88 89 89 89 89 89 90 90 90 91 91 91 91 91 92 92 92 93 93 93 93 93 94 94 94 95 94 96 97 97 96 97 96 96 97 97 97 98 98 99 99 99 99 99 100 100 101 101 101 102 102 102 102 102 103 103 103 104 103 104 104 104 105 105 105 106 105 105 105 105 106 106 106 107 107 107 108 108 109 109 109 110 110 110 110 110 111 111 111 111 111 111 111 112 112 112 113 113 113 113 114 114 114 114 115 116 115 114 114 114 115 115 115 116 116 116 117 117 117 117 117 117 117 118 119 119 120 120 120 121 120 120 120 120 120 120 120 120 119 122 122 122 122 122 122 122 122 122 123 123 124 124 124 125 124 122 123 123 123 123 123 123 123 123 124 124 125 125 125 126 126 126 127 127 127 127 127 127 126 126 126 126 126 126 126 126 126 127 128 128 128 128 128 128 128 128 128 128 128 128 128 128 128 129 130 130 130 130 130 130 129 129 129 129 129 129 129 129 129 129 
63 63 63 62 62 62 61 61 61 61 61 61 61 61 61 61 60 60 60 60 60 60 60 60 60 60 60 60 60 60 60 60 59 59 59 59 59 59 59 59 61 61 61 61 61 60 59 59 61 63 57 58 61 60 54 56 82 89 86 76 74 61 46 62 77 78 43 50 66 73 55 71 69 54 54 50 59 79 79 72 51 57 69 75 74 82 61 38 35 49 48 61 65 65 69 77 74 73 55 56 85 84 58 61 65 61 59 73 81 80 88 89 51 49 77 87 83 63 69 72 71 73 63 62 63 57 60 61 61 61 60 60 60 60 61 62 63 63 64 64 64 64 64 64 62 62 63 63 63 64 64 64 65 65 65 65 65 65 65 65 66 66 66 66 66 66 66 66 67 67 67 67 67 67 67 67 68 68 69 69 69 70 70 70 69 69 70 70 70 71 71 71 71 71 72 73 74 74 75 75 74 74 75 75 75 76 76 75 74 74 78 78 82 82 82 83 80 79 79 78 79 80 82 82 82 82 82 81 80 85 85 85 83 85 83 81 86 83 83 82 83 88 86 84 85 89 87 88 85 85 85 86 86 87 87 87 87 87 88 88 88 89 89 89 89 89 90 90 90 91 91 91 91 91 92 92 92 93 93 93 93 93 94 94 94 95 95 95 97 97 97 97 97 97 97 97 98 98 98 99 99 99 99 99 99 99 101 101 101 102 102 102 102 102 103 103 103 104 104 104 104 104 105 105 105 106 106 106 105 105 106 106 106 107 107 107 108 107 109 109 109 110 110 110 110 110 111 111 111 112 112 111 111 112 113 113 113 114 114 114 114 114 115 115 115 116 116 115 114 114 115 115 115 116 116 116 117 117 117 117 117 117 117 117 119 119 120 120 120 121 121 121 120 120 120 120 120 120 120 120 122 122 122 122 122 122 122 122 123 123 124 124 124 125 125 125 123 123 123 123 123 123 123 123 124 124 125 125 125 126 126 126 127 127 127 127 127 127 127 127 126 126 126 126 126 126 126 126 128 128 128 128 128 128 128 128 128 128 128 128 128 128 128 128 130 130 130 130 130 130 130 130 129 129 129 129 129 129 129 129 129 
63 63 63 63 62 62 62 61 61 61 61 61 61 61 61 61 60 60 60 60 60 60 60 60 60 60 60 60 60 60 60 60 58 59 60 60 60 60 59 59 60 61 59 60 61 61 60 60 57 62 64 59 56 55 54 63 81 87 83 84 67 57 61 72 71 75 40 38 34 40 46 48 67 62 58 54 60 77 78 44 47 54 43 62 77 79 72 38 33 47 50 52 58 65 73 69 68 52 53 84 77 87 54 62 52 41 77 76 76 75 90 51 45 50 58 54 47 45 65 66 70 70 65 60 63 62 62 62 62 62 61 61 62 61 63 63 63 63 64 64 64 64 64 64 62 63 63 63 64 64 64 64 65 65 65 65 65 65 65 65 66 66 66 66 66 66 66 66 67 67 67 67 67 67 67 67 68 69 69 69 70 70 70 70 69 70 70 70 71 71 71 71 72 72 72 73 74 74 75 75 74 75 75 75 76 76 76 74 74 74 77 76 81 82 82 81 79 79 79 79 81 80 83 82 82 83 83 82 82 81 83 85 86 83 82 85 87 87 83 82 87 85 86 86 86 81 80 86 85 86 86 86 87 87 87 87 87 88 88 88 89 89 89 89 89 90 90 90 91 91 91 91 91 92 92 92 93 93 93 93 93 94 94 94 95 95 95 95 97 97 97 97 97 97 97 97 98 98 99 99 100 100 99 99 100 101 101 101 102 102 102 102 102 103 103 103 104 104 104 104 104 105 105 105 106 106 106 106 105 106 106 106 107 107 107 107 108 109 109 109 110 110 110 110 110 111 111 111 112 112 112 111 112 113 113 113 114 114 114 114 114 115 115 115 116 116 116 116 114 115 115 115 116 116 116 116 117 117 117 117 117 117 117 117 119 120 120 120 121 121 121 121 121 121 121 121 121 121 121 121 122 122 122 122 122 122 122 122 123 124 124 124 125 125 125 125 124 124 124 124 124 124 124 124 125 125 125 126 126 126 127 127 127 127 127 127 127 127 127 127 127 127 127 127 127 127 127 127 128 128 128 128 128 128 128 128 129 129 129 129 129 129 129 129 130 130 130 130 130 130 130 130 130 130 130 130 130 130 130 130 130 
64 64 63 63 63 62 62 62 62 62 62 62 62 62 62 61 61 61 61 61 61 61 61 61 61 61 61 61 61 61 61 60 59 58 61 61 61 61 61 60 60 60 60 60 60 61 60 60 58 61 62 58 54 53 62 73 66 60 43 43 47 60 68 64 76 63 48 36 40 41 41 53 54 64 65 52 49 76 76 51 46 59 41 40 75 77 51 47 50 48 62 53 51 67 73 70 75 65 63 75 82 36 36 47 32 32 79 88 70 76 77 42 48 49 68 62 42 43 57 58 45 67 58 50 60 62 61 62 62 61 61 61 61 61 63 64 64 64 64 64 64 64 64 63 63 62 63 64 64 64 65 65 65 66 66 66 66 66 66 65 66 67 67 67 67 67 67 67 67 68 68 68 68 68 68 67 69 69 69 70 70 70 71 70 70 70 70 71 71 71 72 71 71 73 73 74 74 75 75 75 75 75 75 76 76 76 76 76 73 73 73 76 80 79 79 80 80 79 79 79 81 81 83 83 81 83 83 83 81 81 82 82 87 83 86 86 88 86 85 88 84 85 86 86 85 81 82 86 86 86 86 87 86 87 88 88 87 88 88 89 89 89 90 90 90 90 90 91 91 91 92 91 92 92 92 93 93 93 94 94 94 94 94 95 95 95 96 95 97 98 98 98 98 98 98 98 99 98 99 100 100 100 100 100 101 101 101 102 102 102 103 103 103 103 103 104 104 104 105 104 105 105 105 106 106 106 107 106 106 106 106 107 107 107 108 107 109 109 109 110 110 110 111 111 111 111 111 112 112 112 112 112 112 113 113 114 114 114 115 115 115 115 115 116 116 116 117 116 115 115 115 116 116 116 117 117 117 118 118 118 118 118 118 117 120 120 120 121 121 121 122 122 122 122 122 122 122 122 122 121 122 123 123 123 123 123 123 123 124 124 124 125 125 125 126 125 125 125 125 125 125 125 125 125 126 126 126 125 127 127 127 127 127 128 128 128 128 128 128 128 128 128 128 128 128 128 128 127 128 129 129 129 129 129 129 129 129 130 130 130 130 130 130 129 130 131 131 131 131 131 131 131 131 131 131 131 131 131 131 131 131 
64 64 64 63 63 63 62 62 62 62 62 62 62 62 62 62 61 61 61 61 61 61 61 61 61 61 61 61 61 61 61 61 59 59 60 60 61 60 61 61 59 60 61 60 60 58 58 58 62 63 56 55 56 80 83 71 76 67 45 41 42 74 73 61 56 54 48 69 67 38 46 50 54 72 65 47 46 71 63 62 54 55 49 47 69 67 47 51 71 66 64 61 53 45 60 75 82 81 81 69 53 36 33 30 39 63 89 86 88 61 40 32 41 55 66 63 46 38 49 34 39 50 49 51 54 61 60 60 63 63 63 62 62 63 64 64 64 64 64 64 64 64 64 64 63 63 64 64 64 65 65 65 66 66 66 66 66 66 66 66 67 67 67 67 67 67 67 67 68 68 68 68 68 68 68 68 69 69 70 70 70 71 71 71 70 70 71 71 71 72 72 72 73 74 74 74 74 75 75 75 75 75 76 76 76 77 76 76 73 74 74 75 79 79 79 79 80 80 80 80 82 81 83 83 84 83 82 82 81 84 84 87 81 85 90 92 78 83 86 88 83 83 83 82 84 87 86 85 86 86 87 87 87 87 88 88 87 88 89 89 89 90 90 90 90 90 91 91 91 92 92 92 92 92 93 93 93 94 94 94 94 94 95 95 95 96 96 96 98 98 98 98 98 98 98 98 99 99 100 100 100 100 100 100 101 101 102 102 102 103 103 103 103 103 104 104 104 105 105 105 105 105 106 106 106 107 107 107 106 106 107 107 107 108 108 108 109 109 110 110 110 111 111 111 111 111 112 112 112 113 112 112 113 112 114 114 114 115 115 115 115 115 116 116 116 117 117 117 115 115 116 116 116 117 117 117 118 118 118 118 118 118 118 118 120 120 121 121 121 122 122 122 122 122 122 122 122 122 122 122 123 123 123 123 123 123 123 123 124 124 125 125 125 126 126 126 125 125 125 125 125 125 125 125 126 127 127 127 128 128 128 128 128 128 128 128 128 128 128 128 128 128 128 128 128 128 128 128 129 129 129 129 129 129 129 129 130 130 130 130 130 130 130 130 131 131 131 131 131 131 131 131 131 131 131 131 131 131 131 131 131 
65 64 64 64 63 63 63 63 63 63 63 63 63 63 63 62 62 62 62 62 62 62 62 62 62 62 62 62 62 62 61 61 60 59 59 58 61 60 62 62 61 60 69 64 59 57 58 58 62 59 58 57 57 87 84 76 78 57 46 44 51 77 78 55 54 53 58 71 54 51 50 57 30 29 63 47 54 51 62 63 50 58 51 53 52 62 57 63 79 69 67 49 46 43 62 74 71 86 85 54 42 41 52 32 39 78 70 72 73 48 42 42 36 28 38 36 24 26 31 32 38 48 47 48 62 60 61 61 64 63 62 63 63 63 64 64 64 64 64 64 64 64 64 64 63 64 64 64 65 65 65 66 66 67 67 67 67 67 67 66 67 68 68 68 68 68 68 68 68 69 69 69 69 69 69 68 69 70 70 70 71 71 71 71 71 71 71 71 72 72 72 72 74 74 74 75 75 75 75 75 75 76 76 76 77 77 77 77 74 74 74 76 78 79 79 80 79 80 80 82 82 83 83 84 84 86 84 88 83 81 77 80 86 82 85 81 79 79 85 86 95 101 84 83 87 88 88 85 87 88 87 88 87 87 88 88 88 89 89 89 90 90 90 91 91 91 91 91 92 92 92 92 92 93 93 93 94 94 94 95 95 95 95 95 96 96 96 96 98 99 99 99 99 99 99 99 99 99 100 100 101 101 100 101 101 102 102 102 103 103 103 104 104 104 104 104 105 105 105 105 105 106 106 106 107 107 107 107 107 107 107 107 108 108 108 108 109 110 110 110 111 111 111 112 112 112 112 112 113 113 113 113 113 114 114 114 115 115 115 116 116 116 116 116 117 117 117 117 115 116 116 116 117 117 117 118 118 119 119 119 119 119 119 118 120 121 121 121 122 122 122 123 123 123 123 123 123 123 123 123 123 124 124 124 124 124 124 124 124 125 125 125 126 126 126 126 126 126 126 126 126 126 126 126 127 127 127 128 128 128 129 129 128 128 128 128 128 128 128 128 128 128 128 128 128 128 128 129 130 130 130 130 130 130 130 129 130 130 130 130 130 130 130 131 132 131 131 131 131 131 131 131 132 132 132 132 132 132 132 132 132 
65 65 64 64 64 63 63 63 63 63 63 63 63 63 63 63 62 62 62 62 62 62 62 62 62 62 62 62 62 62 62 62 62 60 59 59 58 60 65 65 63 70 80 79 63 58 58 63 60 58 60 59 55 59 85 85 54 58 68 66 65 75 75 56 53 56 63 37 42 50 52 36 32 33 65 83 51 46 43 41 54 90 83 57 66 82 82 75 68 80 76 62 48 73 74 59 60 65 65 66 58 52 60 46 45 66 73 75 74 81 51 51 39 35 33 34 28 24 28 34 36 45 46 50 59 61 56 59 64 63 64 63 63 64 64 64 65 64 65 65 65 65 65 64 64 64 64 65 65 65 66 66 67 67 67 67 67 67 67 67 68 68 68 68 68 68 68 68 69 69 69 69 69 69 69 69 70 70 70 71 71 71 72 71 71 71 71 72 72 72 73 72 74 75 75 75 75 75 75 75 76 76 76 77 77 77 77 77 76 74 74 77 78 79 80 79 82 81 83 82 83 83 84 84 85 84 89 89 87 78 75 78 81 83 81 78 117 180 171 146 98 95 95 80 72 89 87 86 87 88 87 88 88 88 88 88 88 89 89 90 90 90 91 91 91 91 91 92 92 92 93 92 93 93 93 94 94 94 95 95 95 95 95 96 96 96 97 96 99 99 99 99 99 99 99 99 100 100 100 101 101 101 101 101 102 102 102 103 103 103 104 104 104 104 104 105 105 105 106 105 106 106 106 107 107 107 108 107 107 107 107 108 108 108 109 108 110 110 110 111 111 111 112 112 112 112 112 113 113 113 113 113 113 114 114 115 115 115 116 116 116 116 116 117 117 117 118 117 116 116 116 117 117 117 118 118 119 119 119 119 119 119 119 119 121 121 121 122 122 122 123 123 123 124 124 124 124 124 124 123 124 124 124 124 124 124 124 124 125 125 125 126 126 126 127 126 126 126 126 126 126 126 126 126 126 127 127 128 128 128 129 129 129 129 129 129 129 129 129 129 129 130 130 130 130 130 130 130 130 130 130 130 130 130 130 130 131 132 132 132 132 132 132 131 131 131 131 131 131 131 131 131 131 132 132 132 132 132 132 132 132 
65 64 64 64 63 63 63 63 63 63 63 63 63 63 63 63 62 62 62 62 62 62 62 62 62 62 62 62 62 62 61 62 62 63 59 58 59 62 64 63 65 72 77 80 67 58 57 62 62 59 61 55 53 85 85 87 55 59 65 69 46 57 57 57 59 47 37 44 43 45 49 39 38 38 89 85 90 56 40 33 78 76 70 65 66 86 84 56 78 77 78 68 44 40 68 54 60 62 64 62 59 54 57 61 55 63 71 72 80 78 65 44 43 37 36 41 44 30 28 27 25 26 28 46 55 56 56 53 65 63 63 63 63 64 64 65 64 65 65 65 65 65 64 64 64 64 64 65 65 66 66 66 66 67 67 67 67 67 67 67 68 68 68 68 68 68 68 68 69 69 69 69 69 69 69 69 70 70 70 71 71 72 72 72 71 71 71 72 72 73 73 73 75 75 75 75 75 75 75 75 76 76 76 77 77 78 77 77 76 75 76 76 77 78 79 80 82 82 83 83 83 84 85 84 87 89 92 90 81 75 77 172 152 143 119 110 149 168 182 141 103 95 92 53 48 83 89 89 87 87 88 88 88 88 88 88 89 89 89 90 90 91 91 91 91 91 91 92 92 93 93 93 93 93 93 94 94 95 95 95 95 95 95 96 96 97 97 97 98 99 99 99 99 99 99 99 100 100 100 101 101 102 101 101 102 102 102 103 103 104 104 104 104 104 104 105 105 106 106 106 106 106 106 107 107 108 108 108 107 107 107 108 108 109 109 109 109 110 110 110 111 111 111 112 112 112 112 113 113 114 113 113 113 114 114 115 115 115 116 116 116 116 116 117 117 118 118 118 116 116 116 116 117 117 117 118 119 119 119 119 119 119 119 119 121 121 121 122 122 123 123 123 123 124 124 124 124 124 124 124 123 124 124 124 124 124 124 124 125 125 125 126 126 127 126 127 126 126 126 126 126 126 126 126 127 127 128 128 128 128 128 128 128 129 129 129 129 129 129 129 130 130 130 130 130 130 130 130 130 130 130 130 130 130 130 130 132 132 132 132 132 132 132 131 132 131 131 131 131 131 131 131 132 132 132 132 132 132 132 132 132 
63 63 63 63 63 63 63 63 63 63 63 63 63 63 63 63 62 62 62 62 62 62 62 62 61 61 61 61 61 61 61 61 63 62 64 64 60 62 63 64 66 74 77 63 59 60 61 62 62 60 61 56 61 89 79 80 76 63 65 66 53 48 61 62 54 64 54 42 49 56 39 46 42 44 95 85 67 37 43 63 60 37 40 69 69 53 53 54 63 58 54 46 42 56 62 44 41 62 62 49 39 43 53 52 53 79 86 68 68 85 70 55 67 71 41 41 44 40 36 24 27 27 26 26 54 52 53 64 66 67 62 62 62 62 63 65 65 65 64 64 64 64 64 64 65 65 65 66 66 66 67 66 66 66 66 67 67 67 68 67 68 69 69 69 69 69 69 69 69 69 69 70 70 70 71 70 70 70 70 71 71 72 72 72 72 72 72 73 73 73 74 73 75 75 75 76 76 76 77 76 76 76 76 77 77 78 78 77 80 80 80 81 81 82 82 82 80 82 83 90 87 78 82 90 91 82 81 77 77 189 159 151 150 135 121 98 75 71 72 74 103 93 102 50 50 48 52 90 89 87 90 90 87 87 91 90 89 90 90 91 91 91 92 92 92 92 92 93 93 93 94 93 94 95 95 95 95 95 95 95 95 96 96 97 97 97 98 97 98 98 98 99 99 99 100 100 100 100 101 102 102 102 102 102 102 103 103 104 104 104 105 105 105 105 105 106 106 106 107 106 106 107 107 108 108 108 109 108 108 108 108 109 109 109 110 109 111 112 112 113 113 113 114 114 114 114 114 114 114 114 114 113 113 113 114 115 115 115 116 116 116 117 117 118 118 118 119 118 118 118 118 119 119 119 120 119 119 119 119 120 120 120 121 121 121 122 122 123 123 123 124 123 122 122 122 123 123 123 124 124 125 126 126 126 126 126 126 126 126 126 126 126 126 127 128 128 126 126 126 127 127 127 128 128 128 128 128 128 128 128 128 128 128 128 128 129 129 129 130 130 130 130 130 130 130 130 130 130 130 129 129 130 130 130 131 131 131 131 131 131 131 131 131 131 132 133 133 133 133 133 133 132 132 132 132 132 132 132 132 132 133 
63 63 63 63 63 63 63 63 63 63 63 63 63 63 63 63 62 62 62 62 62 62 62 62 61 61 61 61 61 61 61 61 62 63 61 63 62 62 63 63 63 79 77 70 60 64 63 62 62 61 62 58 52 82 87 80 73 56 63 61 58 63 61 57 62 62 57 38 43 56 51 42 47 47 94 84 79 39 40 46 40 44 44 39 63 54 53 64 63 51 49 42 45 42 48 51 44 47 59 60 54 44 71 71 57 55 82 86 78 55 55 53 74 70 43 47 46 33 33 24 20 25 25 26 31 43 39 66 68 66 65 65 65 64 64 65 64 65 65 64 64 64 64 64 65 65 66 66 66 67 67 67 66 66 67 67 67 68 68 68 69 69 69 69 69 69 69 69 69 69 70 70 70 71 71 71 70 70 71 71 71 72 72 72 72 72 73 73 73 74 74 74 75 75 76 76 76 77 77 77 76 76 77 77 77 78 78 77 81 81 81 82 82 81 82 83 79 74 90 88 83 87 93 76 79 94 159 180 164 156 179 120 132 109 104 102 62 73 72 77 71 105 77 56 53 48 46 49 87 87 91 92 88 88 92 90 90 90 91 91 91 92 92 92 92 92 93 93 93 94 94 94 95 95 95 95 95 95 95 95 96 96 97 97 97 98 98 98 98 98 99 99 99 99 100 100 101 101 102 102 102 102 102 102 103 103 104 104 104 105 105 105 105 105 106 106 106 107 107 107 107 107 108 108 108 109 109 109 108 108 109 109 109 110 110 110 112 112 113 113 113 114 114 114 114 114 114 114 114 114 114 113 114 113 115 115 115 116 116 116 117 117 118 118 118 119 119 119 118 118 119 119 119 120 120 120 119 119 120 120 120 121 121 121 122 122 123 123 123 124 124 124 122 122 123 123 123 124 124 124 126 126 126 126 126 126 126 126 126 127 126 126 127 126 128 128 126 126 127 126 127 128 128 128 128 128 128 128 128 128 128 128 128 128 128 128 129 129 129 130 130 130 130 130 130 130 130 130 129 129 130 130 130 131 131 131 131 131 131 131 131 131 131 131 133 133 133 133 133 133 133 133 132 132 132 132 132 132 132 132 133 
63 63 63 63 63 63 63 63 63 63 63 63 63 63 63 63 62 62 62 62 62 62 62 62 61 61 61 61 61 61 61 61 61 62 62 60 59 62 59 58 60 72 77 59 60 64 64 60 64 63 62 55 62 76 76 46 47 54 54 44 71 67 63 60 60 55 58 58 44 40 43 53 52 55 66 81 82 52 56 44 42 44 42 38 72 73 66 66 65 35 32 47 30 33 39 44 51 49 53 56 51 42 63 67 59 63 71 83 78 48 48 65 70 67 46 48 47 32 29 26 32 25 33 28 26 22 23 27 59 63 65 66 65 65 64 64 64 64 64 64 64 64 64 65 65 66 66 66 67 67 67 67 66 67 67 67 68 68 68 68 69 69 69 69 69 69 69 69 69 70 70 70 71 71 71 71 70 71 71 71 72 72 72 72 72 73 73 73 74 74 74 74 75 76 76 76 77 77 77 77 76 77 77 77 78 78 78 77 83 83 83 82 82 82 84 83 88 82 85 85 86 77 88 73 185 172 170 168 180 119 100 92 126 116 108 125 118 76 75 76 52 45 51 53 54 46 44 45 72 89 90 88 89 90 89 91 90 91 91 91 92 92 92 92 92 93 93 93 94 94 94 94 95 95 95 95 95 95 95 95 96 97 97 97 98 98 98 98 99 99 99 100 100 99 101 101 101 101 102 102 103 103 102 102 103 104 104 104 105 105 105 105 105 106 106 106 107 107 107 107 107 108 108 108 109 109 109 109 108 109 109 109 110 110 110 110 112 113 113 113 114 114 114 114 114 114 114 114 114 114 114 113 115 115 115 116 116 116 117 117 117 118 118 118 119 119 119 119 118 119 119 119 120 120 120 120 119 120 120 120 121 121 121 121 122 123 123 123 124 124 124 124 123 123 123 124 124 124 125 125 126 126 126 126 126 126 126 126 127 127 126 126 127 128 129 128 127 127 127 127 128 128 128 128 128 128 128 128 128 128 128 128 129 129 129 130 130 130 131 131 131 131 131 131 131 131 131 131 130 130 130 131 131 131 132 132 132 132 132 132 132 132 132 131 133 133 133 133 133 133 133 133 133 133 133 133 133 133 133 133 132 
64 64 64 64 64 64 64 64 64 64 64 64 64 64 64 63 63 63 63 63 63 63 63 62 62 62 62 62 62 62 62 61 62 60 62 65 64 62 59 56 65 68 61 60 59 61 61 59 59 64 64 63 64 72 68 49 44 41 40 37 45 65 68 68 62 54 54 52 40 40 47 41 75 69 61 65 43 45 49 44 38 54 41 43 70 82 36 31 30 31 34 34 35 36 39 42 53 47 43 35 30 33 56 59 52 56 43 46 52 44 49 52 27 48 45 49 43 38 33 33 29 31 32 34 24 22 25 24 52 60 63 65 62 56 59 63 64 65 65 65 65 64 65 66 66 66 66 67 67 67 68 67 67 67 67 68 68 68 69 68 69 70 70 70 70 70 70 70 70 70 70 71 71 71 72 71 71 71 71 72 72 72 73 73 73 73 73 74 74 74 75 74 76 76 76 77 77 77 78 77 77 77 77 78 78 78 78 78 83 83 83 82 82 82 83 84 83 89 90 88 88 77 144 197 180 155 167 163 162 147 102 105 101 118 128 121 118 65 60 64 43 43 39 53 46 48 48 47 44 92 89 89 92 91 90 91 91 91 91 92 92 92 93 93 93 93 93 94 94 94 95 94 95 96 96 96 96 96 96 96 97 97 97 98 98 98 99 98 100 100 100 99 101 101 101 102 102 101 102 103 103 103 103 103 104 104 104 105 105 105 106 106 106 106 106 107 107 107 108 107 108 108 108 109 109 109 110 109 109 109 109 110 110 110 111 110 113 113 113 114 114 114 115 115 115 115 115 115 115 115 114 114 115 116 116 115 117 117 117 118 118 118 118 119 119 119 120 119 119 119 119 120 120 120 121 120 120 120 120 121 121 121 122 121 123 123 123 124 124 124 125 124 124 124 124 123 125 125 125 125 126 127 127 127 127 127 127 127 127 127 127 127 127 128 129 129 127 127 127 128 128 128 129 129 129 129 129 129 129 129 129 128 130 130 130 129 131 131 131 132 132 132 132 132 132 132 132 131 131 130 130 130 131 131 131 133 133 133 133 133 133 133 133 133 134 134 134 134 134 134 134 134 134 134 134 134 134 134 134 134 132 
64 64 64 64 64 64 64 64 64 64 64 64 64 64 64 64 63 63 63 63 63 63 63 63 62 62 62 62 62 62 62 62 62 62 64 66 62 64 60 73 73 61 57 62 62 60 60 62 64 64 63 57 58 65 76 87 37 39 40 35 35 70 70 68 60 54 50 47 52 46 46 83 73 75 59 56 41 46 44 45 59 54 48 45 58 42 27 37 31 27 34 50 44 40 42 37 45 50 42 30 30 43 42 55 43 36 40 50 70 50 39 33 26 24 21 24 33 39 34 27 30 23 30 29 27 26 27 23 61 64 62 64 46 42 56 65 64 65 65 65 66 66 66 66 66 66 67 67 67 68 68 68 67 67 68 68 68 69 69 69 70 70 70 70 70 70 70 70 70 70 71 71 71 72 72 72 71 71 72 72 72 73 73 73 73 73 74 74 74 75 75 75 76 76 77 77 77 78 78 78 77 77 78 78 78 79 78 79 84 84 82 82 81 82 83 84 84 87 92 86 84 79 181 184 187 153 154 163 138 146 129 111 97 124 122 77 81 67 57 58 63 40 39 47 45 45 48 47 44 90 88 88 92 92 91 92 91 91 92 92 92 93 93 93 93 93 94 94 94 95 95 95 96 96 96 96 96 96 96 96 97 97 98 98 98 99 99 99 100 101 101 101 102 102 102 102 102 102 103 103 103 103 103 103 104 104 105 105 105 106 106 106 106 106 107 107 107 108 108 108 108 108 109 109 109 110 110 110 109 109 110 110 110 111 111 111 113 113 114 114 114 115 115 115 115 115 115 115 115 115 115 114 116 117 117 117 118 118 118 118 118 118 119 119 119 120 120 120 119 119 120 120 120 121 121 121 120 120 121 121 121 122 122 122 123 123 124 124 124 125 125 125 124 125 125 125 126 126 126 126 127 127 127 127 127 127 127 127 128 128 127 127 128 127 129 129 127 127 128 128 128 129 129 129 129 129 129 129 129 129 129 129 130 131 131 131 132 132 132 132 132 132 132 132 132 132 132 132 132 132 132 132 133 133 133 133 133 133 133 133 133 133 133 133 134 134 134 134 134 134 134 134 134 134 134 134 134 134 134 134 133 
65 65 65 65 65 65 65 65 65 65 65 65 65 65 65 64 64 64 64 64 64 64 64 63 63 63 63 63 63 63 63 63 70 62 64 64 63 67 63 78 81 58 58 63 62 60 60 62 64 63 60 59 59 58 84 81 82 43 45 38 37 74 68 61 58 61 50 49 53 55 62 84 76 70 62 57 50 44 44 46 59 56 51 52 54 37 32 27 52 50 42 49 54 37 31 33 35 34 39 41 37 45 45 36 45 36 30 63 67 68 67 27 29 22 24 24 25 30 25 25 26 25 26 25 27 27 24 23 59 59 64 50 34 38 41 63 65 65 66 66 67 67 67 66 67 67 67 67 68 68 68 68 68 68 68 68 69 69 69 69 70 71 71 71 71 71 71 71 71 71 71 71 72 72 72 72 71 72 72 72 73 73 73 74 74 74 74 74 75 75 75 75 76 77 77 77 78 78 78 78 78 78 78 78 79 79 79 79 84 84 83 81 81 81 81 83 88 85 87 80 78 181 173 158 147 150 153 158 140 135 138 86 93 113 114 57 62 73 53 57 58 49 52 52 46 47 46 45 45 79 84 89 91 91 92 93 91 92 92 92 93 93 93 94 94 94 94 94 95 95 95 95 96 97 97 97 97 97 97 97 97 98 98 98 99 99 99 99 101 101 102 102 102 102 103 103 103 102 103 103 104 104 103 104 104 105 105 105 106 106 106 107 107 107 107 107 108 108 108 108 108 109 109 109 110 110 110 110 110 110 110 110 111 111 111 111 113 114 114 114 115 115 115 116 116 116 116 116 116 116 115 115 117 117 118 118 118 119 119 119 119 119 119 119 120 120 120 120 119 120 120 120 121 121 121 121 121 121 121 121 122 122 122 122 123 124 124 124 125 125 125 125 125 125 126 126 126 127 127 127 127 128 128 128 128 128 128 128 128 128 128 128 128 129 129 129 128 128 127 128 128 128 129 129 129 129 129 129 129 129 129 129 131 131 131 132 132 132 133 133 133 133 133 133 133 133 133 132 132 132 133 133 133 134 134 134 134 134 134 134 134 134 134 134 135 135 135 135 135 135 135 135 135 135 135 135 135 135 135 135 135 
65 65 65 65 65 65 65 65 65 65 65 65 65 65 65 65 64 64 64 64 64 64 64 64 63 63 63 63 63 63 63 63 69 70 68 65 65 89 83 84 59 62 57 63 61 62 63 62 63 63 62 64 62 59 69 74 75 50 44 41 55 70 73 64 61 59 59 61 46 46 46 85 82 82 64 52 48 40 46 62 52 53 68 68 59 45 53 48 57 50 45 43 39 33 30 37 39 36 34 71 79 68 38 33 31 36 48 56 51 73 60 34 28 25 27 25 27 27 26 26 28 27 28 26 29 28 27 23 50 53 33 31 36 35 47 53 65 65 66 67 67 67 67 67 67 67 67 68 67 68 69 68 68 68 68 69 69 69 69 69 71 71 71 71 71 71 71 71 71 71 71 72 71 72 72 72 72 72 72 73 73 73 74 74 74 74 74 75 75 75 76 75 76 77 77 78 78 78 79 78 78 78 78 79 79 79 79 79 84 83 83 81 81 81 82 83 87 90 79 83 173 177 163 163 153 155 153 149 133 134 135 119 89 80 77 57 66 70 52 48 58 54 54 53 48 47 48 47 47 45 82 92 90 90 93 92 92 92 92 93 93 93 94 94 94 94 94 94 94 95 95 95 97 97 97 97 97 97 97 97 98 98 98 98 99 99 99 99 101 102 101 103 102 102 104 103 103 103 103 104 104 104 104 104 105 105 105 106 106 106 107 107 107 107 107 108 108 108 108 108 109 109 109 110 110 110 111 110 110 110 110 110 111 111 111 112 113 114 114 114 114 115 115 116 116 116 116 116 116 116 115 115 117 118 118 119 119 119 120 119 119 119 119 120 120 120 120 120 120 120 120 121 121 121 122 121 121 121 121 122 122 122 123 122 124 124 124 125 125 125 126 126 126 126 126 127 127 127 127 127 128 128 128 128 128 128 128 128 128 128 128 128 128 129 130 130 128 128 128 128 129 129 130 130 130 130 130 130 130 130 130 130 130 131 131 132 132 132 133 133 133 133 133 133 133 133 133 133 133 132 133 133 134 133 134 134 134 134 134 134 134 134 134 135 135 135 135 135 135 135 135 135 135 135 135 135 135 135 135 135 136 
66 65 66 65 65 65 65 65 65 65 65 65 65 65 65 64 64 64 64 64 64 64 64 64 63 63 63 63 63 63 63 63 61 64 68 65 60 89 97 56 60 68 67 66 63 66 65 62 64 65 64 64 66 60 69 74 70 76 61 49 51 62 59 69 53 59 72 71 49 44 61 77 74 81 72 61 53 58 49 69 54 63 66 67 63 59 55 57 41 47 42 39 40 48 37 32 40 42 65 63 68 72 33 27 32 30 58 58 38 32 53 36 28 30 39 25 27 28 26 25 26 30 28 25 28 28 27 42 51 40 33 28 32 54 62 61 65 65 65 66 66 67 67 67 67 67 67 67 68 68 68 68 68 68 68 68 69 69 69 70 71 71 71 71 71 71 71 71 71 71 71 71 72 72 73 74 72 72 72 72 73 73 73 74 74 74 74 74 75 75 76 75 76 76 77 77 78 78 78 78 78 78 78 78 79 79 79 80 83 83 83 82 81 81 82 84 87 84 79 129 163 162 174 164 157 153 157 131 130 133 101 112 85 79 83 80 81 74 48 51 55 55 55 50 49 47 50 49 46 50 92 92 89 90 92 93 92 92 92 92 93 93 94 94 94 94 94 94 95 96 95 96 97 97 97 97 97 97 97 97 98 98 98 98 99 99 101 100 102 102 102 103 103 104 104 103 103 103 103 104 104 104 104 104 104 105 105 105 106 106 106 107 107 107 107 107 108 108 108 108 109 109 109 110 110 111 110 110 110 110 110 110 111 112 112 113 113 114 113 114 114 115 115 115 115 115 115 115 115 116 115 116 117 117 118 118 119 119 119 119 119 119 119 119 120 120 120 120 120 120 120 120 121 121 121 121 121 121 121 121 122 122 122 123 123 124 124 124 125 125 125 126 126 126 126 126 127 127 127 127 127 128 128 128 128 128 128 128 128 128 128 128 128 128 130 130 128 128 128 128 129 129 129 130 130 130 130 130 130 130 130 130 131 131 133 132 133 132 134 133 134 133 134 133 134 133 134 133 133 133 135 134 134 134 135 135 135 135 135 135 135 135 135 135 136 135 135 135 135 135 135 135 136 136 136 136 136 136 136 136 138 
67 67 66 65 65 65 65 65 65 65 65 64 65 65 65 64 64 64 64 64 64 64 64 63 63 63 65 65 64 63 65 64 59 61 67 63 74 84 97 56 61 60 64 68 69 61 60 65 61 62 66 65 63 62 62 60 58 77 75 69 66 62 62 50 54 54 57 60 59 56 62 69 72 73 65 56 47 50 59 60 58 44 55 48 34 42 54 41 38 40 50 65 67 38 35 37 33 58 61 44 41 34 35 27 30 31 37 34 35 38 19 27 53 56 30 28 27 27 24 26 28 25 26 26 26 25 26 27 28 37 35 26 26 52 65 64 65 65 65 65 65 65 65 65 68 69 71 72 66 69 70 69 70 70 69 68 68 69 69 69 69 69 69 69 69 70 70 70 71 72 72 73 73 75 75 75 74 74 74 74 74 74 75 75 75 76 76 76 76 76 76 76 76 76 76 77 77 77 78 78 78 78 79 80 80 81 81 81 83 83 83 83 86 87 88 87 89 79 77 165 153 152 159 146 150 144 143 139 135 123 105 85 79 83 77 79 60 48 50 54 53 51 53 51 48 51 49 48 49 45 57 93 91 92 94 93 94 95 95 95 95 95 95 95 94 94 95 96 97 97 98 98 98 98 99 99 100 100 101 100 100 99 100 100 101 101 102 102 102 102 102 102 103 103 104 103 103 103 103 104 104 104 105 104 106 106 106 107 107 107 108 108 108 108 108 109 109 109 110 110 109 109 109 111 110 111 112 113 113 113 113 113 114 114 115 115 114 114 115 115 116 116 117 116 116 116 116 116 117 117 118 117 117 117 117 118 118 118 119 119 119 119 119 120 120 120 121 121 122 123 123 124 124 124 125 124 124 124 124 125 125 125 126 126 126 127 127 127 127 127 127 127 127 127 127 128 128 128 129 129 128 129 129 129 129 129 129 129 129 130 130 131 131 131 132 131 130 130 130 131 131 131 132 132 132 133 133 133 133 133 133 133 134 133 134 133 134 133 134 134 135 134 135 134 135 134 135 135 135 135 135 135 135 135 135 135 136 136 136 136 136 136 136 136 136 136 136 137 137 137 138 138 138 138 138 138 138 138 138 138 136 
68 67 67 66 66 65 65 64 65 65 65 65 65 65 65 65 64 63 64 64 64 64 64 64 63 63 66 66 64 64 65 65 65 64 80 66 75 77 93 61 59 63 62 66 66 60 59 61 63 63 65 65 62 61 60 60 57 54 71 79 67 65 58 65 72 66 63 55 57 60 70 67 69 78 76 50 48 43 72 69 37 41 41 29 30 37 51 51 44 36 36 65 62 50 41 42 31 42 56 54 36 39 26 32 34 28 46 39 37 29 22 25 58 64 27 25 24 29 25 24 27 25 25 29 29 26 26 28 24 25 27 26 26 36 63 67 65 65 65 65 65 65 65 65 68 66 72 71 69 68 69 69 70 70 71 72 71 70 69 69 69 69 69 70 70 70 70 70 71 71 73 73 73 75 75 75 73 74 74 74 74 75 75 75 76 76 76 76 76 76 76 76 76 76 77 76 77 78 78 78 78 78 79 80 81 81 81 81 83 83 83 84 87 86 87 89 89 81 74 158 159 164 150 142 138 142 142 143 142 140 127 100 84 74 71 76 44 45 48 48 52 51 54 56 48 51 52 48 41 40 46 64 95 94 90 92 94 95 95 95 95 95 95 95 94 95 96 96 97 97 97 97 99 99 100 100 100 101 101 101 100 100 101 101 101 102 102 102 102 102 103 103 103 104 104 104 103 103 104 104 104 105 105 105 106 106 107 107 107 108 108 108 108 108 109 109 109 110 110 110 110 109 111 111 111 111 113 113 113 113 114 114 114 115 115 115 115 114 116 116 115 117 117 116 116 115 117 117 116 118 118 117 117 117 118 118 118 119 119 119 119 119 120 120 120 121 121 121 123 123 124 124 124 125 125 125 124 124 125 125 125 126 126 126 127 127 127 127 127 127 127 127 127 127 128 128 128 129 129 129 129 129 129 129 129 129 129 129 130 130 131 131 131 132 132 132 130 130 131 131 131 132 132 132 133 133 133 133 133 133 133 133 134 135 135 135 135 135 135 135 135 136 136 136 136 136 136 136 136 136 136 136 136 136 136 136 136 137 137 137 137 137 137 137 136 136 137 137 137 138 138 138 138 138 138 138 138 138 138 138 138 
67 67 67 67 66 65 65 65 65 65 65 64 65 65 65 65 64 63 64 64 64 64 65 65 64 65 66 65 63 64 64 65 64 63 78 78 78 78 76 62 72 68 63 60 63 62 60 63 69 64 59 61 62 61 61 57 58 56 54 79 72 64 63 66 69 66 66 75 74 62 75 76 77 80 80 49 45 54 72 69 44 42 49 34 33 43 39 32 33 29 29 34 43 42 45 31 54 57 54 53 43 39 29 34 32 35 44 44 46 47 36 30 61 67 25 28 30 30 24 25 27 26 26 28 28 26 27 25 28 21 23 29 29 26 36 69 67 68 69 68 67 65 68 68 70 72 69 66 68 64 62 67 69 67 72 72 71 71 70 69 70 69 70 69 70 70 70 70 72 73 73 73 74 74 75 75 73 74 74 74 75 75 75 75 76 76 76 76 76 76 76 76 76 77 77 77 78 78 78 78 78 78 78 80 81 82 81 81 83 83 84 86 86 87 88 89 89 82 116 156 146 159 144 137 139 136 146 149 147 143 103 107 57 65 86 85 44 43 44 46 46 47 53 51 50 47 48 44 41 46 46 44 99 95 92 94 94 95 95 95 95 95 95 95 96 96 97 97 97 96 97 97 99 100 100 100 101 101 101 101 100 101 101 101 102 102 102 102 102 103 103 103 104 104 104 104 104 104 104 105 105 105 106 106 106 107 107 107 108 108 108 108 108 109 109 109 110 110 110 110 110 110 111 111 112 111 113 113 113 113 114 114 115 115 115 115 114 116 116 116 117 117 117 117 116 117 117 117 118 118 118 118 117 118 118 118 119 119 119 119 119 120 120 120 121 121 121 121 123 124 124 124 125 125 125 125 124 125 125 125 126 126 126 126 127 127 127 127 127 127 127 127 127 128 128 128 129 129 129 129 128 129 129 129 129 129 129 129 130 131 131 131 132 132 132 132 130 131 131 131 132 132 132 132 133 133 133 133 133 133 133 133 135 135 135 135 135 135 135 135 136 136 136 136 136 136 136 136 136 136 136 136 136 136 136 136 137 137 137 137 137 137 137 136 136 137 137 137 138 138 138 138 138 138 138 138 138 138 138 138 140 
68 67 67 67 66 66 65 66 67 67 67 66 66 65 67 67 65 65 65 64 65 64 64 64 64 66 66 66 63 63 64 65 66 62 60 55 75 72 72 60 62 69 55 55 59 61 74 74 73 57 59 58 61 80 83 77 50 56 98 95 67 61 62 60 63 64 65 70 71 72 72 81 82 81 49 49 61 68 65 70 49 60 62 53 67 39 31 35 28 44 39 31 39 37 39 24 55 58 58 40 47 45 31 37 39 35 33 29 30 43 32 35 60 52 54 36 32 30 29 28 28 27 29 37 38 32 25 26 26 20 20 27 29 26 26 58 68 69 70 70 71 71 71 69 69 68 66 62 66 74 62 66 66 68 68 70 70 71 70 70 71 70 70 70 71 70 71 72 72 73 73 73 74 74 75 75 74 74 74 75 75 75 76 76 76 77 77 77 77 77 76 76 77 76 77 78 78 78 79 78 79 78 80 79 81 82 82 82 83 83 85 86 86 87 88 88 82 76 156 143 156 146 156 137 123 128 147 149 110 94 86 81 59 61 93 90 45 43 44 50 45 44 51 51 49 64 62 47 49 49 43 45 94 96 94 94 95 95 95 95 95 95 95 96 96 96 97 97 97 97 98 98 100 100 100 101 101 101 102 101 101 101 101 102 102 102 103 102 103 103 103 104 104 104 105 105 105 105 105 104 106 106 106 106 107 107 107 108 108 108 109 109 109 109 109 110 110 110 111 110 111 110 111 112 112 112 113 114 114 113 114 115 115 115 115 115 115 116 116 117 117 117 118 117 117 117 117 118 118 118 119 118 118 118 118 119 119 119 120 120 120 120 120 121 121 121 122 121 124 124 124 125 125 125 126 125 125 125 125 126 126 126 127 126 127 128 128 128 128 128 128 128 128 128 128 129 129 129 129 129 129 130 130 130 130 130 130 130 131 131 131 132 132 132 133 132 131 131 131 132 132 132 133 133 133 134 134 134 134 134 134 133 135 136 136 136 136 136 136 136 136 137 137 137 137 137 137 137 137 137 137 137 137 137 137 137 137 138 138 138 138 138 138 137 137 137 137 138 138 138 139 139 139 139 139 139 139 139 139 139 140 
67 67 67 67 67 67 66 66 66 68 66 67 68 68 67 68 66 66 66 66 66 65 65 65 65 65 66 67 64 64 64 65 67 58 60 58 56 64 73 57 59 65 57 56 57 60 75 77 38 44 55 74 83 80 79 78 56 56 90 61 60 56 52 47 43 81 80 58 49 77 78 77 81 76 57 52 54 68 71 59 55 61 61 61 61 59 46 42 45 45 36 37 52 29 30 46 49 52 45 40 56 58 37 33 37 38 28 31 36 40 35 36 55 49 49 35 33 27 30 30 27 27 31 37 36 35 27 23 21 20 20 21 25 23 28 62 69 69 70 71 71 70 71 71 68 66 66 81 84 99 82 84 66 69 68 68 69 70 71 71 71 71 71 71 72 72 72 72 72 73 73 74 74 75 75 75 74 74 75 75 75 76 76 76 77 77 77 77 77 77 77 77 77 77 78 77 78 79 79 79 79 79 80 81 82 82 83 83 83 84 85 87 87 88 87 86 83 125 158 137 143 140 147 125 119 118 143 142 118 104 79 84 79 66 90 93 44 44 45 51 46 46 47 46 48 71 67 52 50 41 42 43 46 83 94 94 96 96 96 96 96 96 96 97 96 97 97 97 97 98 98 98 100 100 101 101 101 102 102 102 101 101 102 102 102 103 103 103 103 103 104 104 104 105 105 105 105 106 106 106 107 107 107 107 107 107 108 108 108 109 109 109 109 109 110 110 110 111 111 111 111 111 112 112 112 112 114 114 114 114 115 115 115 116 116 116 115 115 117 117 117 118 118 118 117 117 118 118 118 119 119 119 118 118 119 119 119 120 120 120 120 120 121 121 121 122 122 122 124 124 125 125 125 126 126 126 125 125 126 126 126 127 127 127 128 128 128 128 128 128 128 128 128 128 129 129 129 130 130 130 129 130 130 130 130 130 130 130 131 131 132 132 132 133 133 133 131 131 132 132 132 133 133 133 134 134 134 134 134 134 134 134 136 136 136 136 136 136 136 136 137 137 137 137 137 137 137 137 137 137 137 137 137 137 137 137 138 138 138 138 138 138 138 137 137 137 138 138 138 139 139 139 139 139 139 139 139 139 139 139 139 
68 67 66 67 67 67 66 66 68 68 68 68 69 69 68 68 67 66 66 66 65 65 66 66 65 66 66 66 64 64 64 65 62 57 62 55 56 56 68 71 61 71 71 69 66 56 48 43 43 43 45 86 83 82 69 56 58 57 86 76 69 54 54 43 46 84 78 44 48 65 80 81 68 76 75 50 51 63 65 61 62 58 57 53 68 49 44 43 40 50 38 45 60 65 35 47 48 48 41 46 61 65 35 38 34 30 24 30 33 40 42 36 31 34 35 28 27 24 25 28 28 25 24 27 36 28 24 22 22 23 21 22 22 30 66 71 70 70 71 71 71 71 71 71 66 66 64 95 97 99 83 82 74 75 72 67 68 70 72 72 72 71 72 72 72 72 72 72 72 73 73 73 74 75 75 75 74 75 74 75 76 76 76 77 77 78 78 77 77 77 77 77 78 78 78 78 79 79 79 79 79 79 79 81 82 83 83 83 83 84 87 87 88 88 86 86 80 184 167 130 128 154 150 122 119 120 121 119 125 122 86 74 80 99 96 92 43 46 46 60 56 46 46 47 52 62 69 51 50 43 45 48 48 47 93 95 96 96 96 96 97 97 97 96 96 96 96 97 98 97 98 99 100 101 101 101 102 102 102 102 102 102 102 102 103 103 103 103 103 104 104 104 105 105 105 106 106 106 107 107 107 108 108 108 107 108 108 108 109 109 109 110 110 110 110 110 111 111 111 111 111 111 112 112 113 112 114 115 115 114 115 115 116 116 116 116 116 117 117 117 118 118 118 118 118 118 118 118 119 119 119 119 118 119 119 119 120 120 120 121 121 121 121 121 122 122 122 122 124 125 125 125 126 126 126 126 126 126 126 126 127 127 127 127 128 129 129 129 129 129 129 129 129 129 129 129 130 130 130 130 130 131 131 131 131 131 131 131 131 132 132 132 133 133 133 133 131 132 132 132 133 133 133 134 134 135 135 135 135 135 135 134 136 137 137 137 137 137 137 137 137 138 138 138 138 138 138 138 138 138 138 138 138 138 138 138 138 139 139 139 139 139 139 138 138 138 138 138 139 139 139 140 140 140 140 140 140 140 140 140 139 
68 68 67 67 67 67 67 67 68 68 68 69 69 69 68 69 66 66 67 67 67 66 67 66 66 67 66 67 65 65 65 65 67 64 62 61 57 57 65 86 71 68 66 69 67 44 36 37 43 49 65 81 85 70 62 60 58 54 65 70 66 59 65 56 47 51 66 56 50 64 71 74 59 68 71 65 51 49 69 60 60 63 54 35 44 50 44 40 37 54 51 45 49 59 58 43 46 49 47 62 64 57 53 33 38 39 27 29 31 31 43 42 24 25 24 27 26 25 26 31 39 25 23 26 23 23 24 21 22 23 22 21 31 35 66 70 70 70 71 72 72 72 71 71 62 66 98 97 99 92 75 69 73 76 74 68 68 69 71 72 72 72 72 73 73 72 72 73 73 73 73 74 74 74 75 75 75 75 75 76 76 76 77 77 78 78 78 78 78 79 78 78 78 78 78 79 79 79 80 79 80 80 81 81 82 83 84 83 83 85 86 87 88 89 86 83 89 176 169 138 136 142 136 127 129 118 121 123 123 126 70 80 69 98 90 83 53 45 49 67 76 77 77 67 57 70 67 47 49 45 45 48 43 51 90 95 97 97 97 97 97 97 97 97 98 97 98 98 99 98 98 98 101 101 101 102 102 102 103 102 102 102 102 103 103 103 104 103 104 104 104 105 105 105 106 106 106 107 107 108 108 108 109 108 108 108 108 109 109 109 110 110 110 110 110 111 111 111 112 111 112 112 112 113 113 113 115 115 115 115 115 116 116 116 116 117 117 117 117 118 118 118 119 118 118 118 118 119 119 119 120 119 119 119 119 120 120 120 121 121 121 121 121 122 122 122 123 122 125 125 125 126 126 126 127 126 126 126 126 127 127 127 128 127 129 129 129 129 129 129 129 129 129 129 129 130 130 130 130 130 131 131 131 131 131 131 131 131 132 132 132 133 133 133 134 133 132 132 132 133 133 133 134 134 135 135 135 135 135 135 135 135 137 137 137 137 137 137 137 137 138 138 138 138 138 138 138 138 138 138 138 138 138 138 138 138 139 139 139 139 139 139 139 139 138 138 138 139 139 139 140 140 140 140 140 140 140 140 140 140 141 
68 67 67 67 67 67 67 67 68 68 68 69 69 69 68 68 66 66 66 66 66 67 67 66 66 66 66 66 65 65 64 65 67 65 60 67 66 69 69 86 66 66 64 67 67 51 43 38 46 53 49 70 74 73 64 63 60 62 67 65 63 73 70 55 60 53 59 54 53 76 75 75 70 53 61 75 64 65 75 78 57 55 49 31 27 49 54 43 44 38 54 54 41 42 47 49 40 80 73 72 64 63 55 52 49 57 47 34 31 26 31 31 24 25 24 26 25 29 31 33 41 43 25 23 24 22 23 27 21 23 21 30 33 34 41 51 72 70 70 70 70 71 70 68 62 66 96 97 87 89 71 66 63 66 68 69 69 69 70 71 72 72 72 73 73 73 73 73 74 73 74 74 74 75 75 75 75 75 75 75 76 77 76 77 77 78 78 77 78 79 78 78 78 78 78 78 79 80 80 80 79 80 80 81 82 83 83 83 84 84 87 87 88 89 86 84 90 176 181 142 135 130 124 129 125 127 121 126 123 125 115 76 96 94 57 54 55 59 61 61 66 79 81 69 54 48 67 47 46 46 42 43 47 47 47 89 95 97 97 97 97 97 97 97 98 97 98 98 99 99 98 100 101 101 101 102 102 103 103 103 102 102 102 103 103 104 104 104 104 104 104 105 105 106 106 106 107 107 107 108 108 109 109 109 108 108 108 108 109 109 109 110 110 110 110 111 111 112 112 112 112 112 112 113 113 113 115 115 115 115 115 116 116 117 117 117 116 116 117 118 118 119 119 119 118 118 118 119 119 120 120 120 119 119 119 120 120 121 121 121 121 121 121 121 122 122 122 123 125 125 125 126 126 127 127 127 126 126 126 127 127 128 128 128 129 129 129 129 129 129 129 129 129 129 129 130 130 131 131 131 131 131 131 131 131 131 131 131 132 132 132 133 133 134 134 134 132 132 132 132 133 134 134 134 135 135 135 135 135 135 135 135 137 137 137 137 137 137 137 137 138 138 138 138 138 138 138 138 138 138 138 138 138 138 138 138 139 139 139 139 139 139 139 138 138 138 138 139 139 140 140 140 140 140 140 140 140 140 140 140 142 
67 67 67 67 67 67 67 67 68 65 66 65 69 68 69 64 64 67 67 66 67 66 68 68 67 66 66 66 66 65 65 65 67 68 66 67 70 65 68 70 69 61 64 66 63 67 51 44 49 50 66 74 79 72 70 68 63 71 70 59 61 77 73 63 65 63 66 48 51 77 80 73 43 47 81 76 77 61 60 72 50 47 45 27 29 48 55 57 41 43 50 51 43 36 66 57 87 79 75 69 63 66 46 42 56 52 51 28 27 33 32 36 32 28 27 25 24 29 25 22 24 23 24 23 26 23 24 25 27 26 25 24 29 46 42 56 68 67 69 69 61 63 64 61 90 102 97 88 85 84 72 66 65 64 57 72 74 66 62 70 72 74 73 72 73 75 75 75 73 73 74 73 74 75 75 75 77 75 74 75 75 77 77 76 77 77 78 78 79 79 80 80 79 78 79 80 80 80 81 80 81 82 83 84 84 85 85 85 84 87 87 87 87 89 86 83 91 176 182 169 131 127 133 126 126 127 128 121 123 127 118 80 76 84 54 52 78 63 62 61 57 77 74 75 51 52 63 47 50 42 43 44 48 48 49 48 93 95 95 99 98 95 95 99 99 100 100 100 101 101 101 100 101 102 102 103 103 103 104 103 103 103 103 104 104 104 105 104 104 105 105 106 106 106 107 107 107 107 107 108 108 109 109 109 109 110 110 111 111 111 112 111 111 111 111 112 112 112 113 112 112 112 113 114 114 114 115 116 116 115 116 117 117 117 117 117 117 118 118 119 119 119 120 119 119 119 119 120 120 120 121 120 119 120 120 121 121 121 122 122 122 123 123 124 124 124 125 125 125 126 126 127 127 127 128 127 127 127 127 128 128 128 129 128 129 129 129 130 130 130 131 130 130 130 130 131 131 131 131 131 131 131 131 132 132 132 133 133 133 133 133 134 134 134 135 135 135 135 135 135 135 135 135 135 135 136 136 136 136 136 136 135 137 138 138 138 138 138 138 138 138 139 139 139 139 139 139 139 139 139 139 139 139 139 139 139 139 140 140 140 140 140 140 139 140 140 139 139 139 140 140 140 139 139 139 140 140 140 141 141 142 
67 67 67 67 67 67 67 67 66 68 67 67 66 64 64 64 64 66 63 63 66 68 67 66 67 67 66 66 66 65 66 65 66 68 68 65 65 67 71 72 60 75 72 63 63 67 46 44 51 53 66 74 74 71 70 51 55 67 63 52 52 66 76 52 60 62 82 47 58 81 73 56 56 49 51 78 82 50 47 73 79 47 49 44 38 41 49 59 66 45 50 45 56 67 73 73 78 77 70 68 66 67 42 42 41 38 42 33 29 29 30 32 28 27 25 26 25 30 23 22 21 27 26 27 25 25 25 27 26 28 27 26 32 63 70 68 63 70 67 66 51 64 74 91 91 98 99 85 85 84 75 78 66 72 53 69 76 56 57 65 71 74 72 71 72 74 76 73 73 73 74 74 74 74 74 74 76 77 76 75 75 75 75 75 77 77 79 78 79 79 80 80 79 79 80 79 80 81 81 81 82 82 83 84 85 85 85 86 85 88 87 88 87 88 89 83 92 171 161 163 129 129 133 125 129 127 127 122 122 131 123 78 81 86 73 66 88 86 62 56 55 65 75 74 59 70 70 44 47 44 44 46 48 49 47 49 90 95 100 96 94 98 99 98 99 99 101 100 101 101 101 101 102 102 103 103 103 104 104 104 103 103 104 104 104 105 105 105 105 105 106 106 106 107 107 107 107 107 108 108 108 109 109 109 110 110 111 111 111 112 112 112 111 111 112 112 112 113 113 113 113 113 114 114 114 114 116 116 116 116 117 117 117 118 118 118 118 117 119 119 119 120 120 120 119 119 120 120 120 121 121 121 120 120 121 121 121 122 122 122 123 123 124 124 124 125 125 125 126 126 127 127 127 128 128 128 127 127 128 128 128 129 129 129 129 129 130 130 130 131 131 131 130 130 131 131 131 132 132 131 130 131 132 132 132 133 133 133 133 133 134 134 134 135 135 135 135 135 135 135 135 135 135 135 136 136 136 136 136 136 136 136 138 138 138 138 138 138 138 138 139 139 139 139 139 139 139 139 139 139 139 139 139 139 139 139 140 140 140 140 140 140 140 140 140 140 140 139 139 140 140 140 139 139 140 140 140 141 141 141 141 
67 67 67 67 67 67 67 67 67 68 67 68 64 64 65 63 78 66 62 63 67 66 67 66 67 66 66 66 66 65 66 66 66 67 68 70 70 66 69 68 62 76 80 63 63 66 50 51 49 54 61 60 65 67 62 46 47 47 52 60 56 36 43 37 59 68 78 102 57 69 71 61 65 59 67 69 49 50 51 73 74 67 52 70 53 53 54 58 67 55 45 49 56 56 74 78 50 42 48 62 66 59 46 44 25 30 40 43 27 30 29 30 27 26 32 27 37 36 25 24 23 32 33 24 23 27 25 24 27 28 27 26 34 62 69 67 65 62 37 44 41 89 85 97 89 91 89 76 57 45 42 57 77 71 59 56 71 38 35 38 66 70 71 70 76 76 76 73 74 74 74 74 75 75 75 75 76 76 76 77 75 75 75 76 77 77 79 79 80 79 80 79 79 80 80 80 81 81 81 81 82 82 82 84 85 86 85 86 85 86 87 88 88 89 89 83 167 162 156 155 133 133 135 132 133 134 124 124 125 122 132 137 81 72 81 82 86 85 58 61 57 60 60 77 83 75 65 41 45 43 44 49 48 48 47 46 47 101 98 93 96 101 100 98 100 101 101 101 101 100 101 101 102 103 103 103 104 104 104 104 103 104 104 104 105 105 105 105 106 106 106 107 107 107 108 108 107 108 108 108 109 109 109 109 110 111 111 111 112 112 112 112 111 112 112 112 113 113 113 113 113 113 114 114 115 114 116 116 116 116 117 117 118 118 118 118 117 119 119 119 120 120 120 120 120 120 120 121 121 121 122 122 121 121 121 122 122 122 123 123 123 124 124 124 125 125 125 125 126 127 127 127 128 128 128 128 127 128 128 128 129 129 129 129 129 130 130 130 131 131 131 131 130 131 131 131 132 132 132 131 131 132 132 132 133 133 133 133 133 134 134 134 135 135 135 135 135 135 135 135 135 135 135 135 136 136 136 136 136 136 136 136 138 138 138 138 138 138 138 138 139 139 139 139 139 139 139 139 140 140 140 140 140 140 140 140 141 141 141 141 141 141 141 141 141 141 140 140 140 140 141 141 140 140 140 141 141 141 142 142 141 
68 68 68 68 67 67 67 67 67 65 63 65 64 62 77 72 75 70 62 62 65 66 66 67 67 66 67 67 67 67 67 67 66 66 67 71 72 64 64 61 55 77 72 58 55 59 57 57 56 65 63 57 57 61 58 55 40 41 51 56 47 35 34 46 47 44 69 91 109 62 66 69 62 64 73 64 47 50 55 59 72 75 74 72 66 63 64 56 56 80 77 60 53 51 64 68 46 45 50 53 54 27 19 21 25 25 39 31 27 28 28 29 28 26 38 40 39 38 24 25 23 31 33 25 26 25 25 24 26 28 26 27 42 42 45 62 65 32 34 35 76 82 71 75 87 98 93 92 62 41 38 44 67 55 63 32 43 43 45 40 46 62 70 74 75 76 75 74 74 74 75 76 75 75 75 76 74 74 77 77 78 76 76 79 78 77 78 79 80 80 81 81 80 79 80 81 81 81 82 81 83 82 84 83 85 86 86 86 86 86 88 88 88 90 89 84 159 152 145 144 134 135 134 132 131 134 128 130 127 126 141 145 66 78 84 85 80 80 66 62 82 62 64 80 80 78 41 42 38 37 43 49 48 45 46 46 47 96 100 95 95 101 100 98 100 101 101 101 101 101 102 102 103 103 103 104 104 104 105 104 104 104 104 105 105 105 106 105 107 107 107 106 108 108 108 108 108 108 108 109 109 109 110 109 111 111 111 112 112 112 113 112 112 112 112 113 113 113 114 113 114 113 114 115 115 115 116 117 117 116 117 118 118 118 118 118 118 119 119 120 120 120 121 121 121 121 121 120 122 122 122 122 122 122 122 121 123 123 123 124 124 124 124 125 125 125 126 125 127 127 127 128 128 128 129 128 128 128 128 129 129 129 130 129 130 130 130 131 131 131 132 131 131 131 131 132 132 132 132 132 132 132 132 133 133 133 134 134 134 134 134 135 135 135 136 136 136 136 136 136 136 136 136 136 136 137 137 137 137 137 137 136 138 139 139 139 139 139 139 139 139 140 140 140 140 140 140 140 140 141 141 141 141 141 141 141 141 142 142 142 142 142 142 142 142 141 140 140 140 140 141 141 141 141 141 140 142 142 142 142 142 
68 68 68 68 68 68 67 67 67 63 63 62 80 78 76 75 65 64 64 66 66 65 66 67 67 67 67 67 67 67 67 67 67 66 72 70 73 64 60 59 65 60 67 72 54 53 62 59 58 62 67 53 60 59 58 56 42 48 54 34 36 31 51 51 44 47 48 68 91 57 51 74 70 55 53 69 61 43 44 51 64 74 66 41 45 71 74 50 57 84 79 60 57 55 62 39 41 49 55 52 54 26 23 23 24 25 42 35 28 28 29 28 23 26 40 40 39 39 25 24 27 26 23 26 30 27 25 27 26 26 29 43 41 38 38 50 33 28 37 32 92 81 78 73 75 95 102 64 61 38 39 74 58 40 39 39 31 54 83 46 42 51 72 71 72 71 72 74 74 75 75 75 76 76 76 76 75 74 74 78 79 76 77 79 78 78 80 80 81 82 81 81 80 80 81 80 81 82 82 82 83 83 84 85 86 86 86 86 86 85 88 89 89 91 90 85 153 140 143 139 132 134 132 131 132 133 131 134 136 130 150 144 70 82 92 99 82 77 78 82 92 69 67 75 77 71 45 45 35 36 37 48 47 45 45 45 47 54 98 98 100 97 96 101 100 100 102 101 102 102 103 103 103 103 104 104 104 105 105 105 104 104 105 105 105 106 106 106 107 108 108 108 109 109 109 109 108 108 109 109 109 110 110 110 111 111 112 112 112 113 113 113 112 112 113 113 113 114 114 114 114 114 115 115 115 115 117 117 117 117 118 118 118 119 119 119 118 118 120 120 120 121 121 121 121 122 122 122 123 123 123 123 122 123 123 123 124 124 124 124 124 124 125 125 125 126 126 126 127 127 128 128 128 129 129 129 128 128 129 129 129 130 130 130 130 130 131 131 131 132 132 132 131 131 132 132 132 133 133 132 131 132 133 133 133 134 134 134 134 134 135 135 135 136 136 136 136 136 136 136 136 136 136 136 137 137 137 137 137 137 137 137 139 139 139 139 139 139 139 139 140 140 140 140 140 140 140 140 141 141 141 141 141 141 141 141 142 142 142 142 142 142 142 142 142 142 141 140 140 141 142 142 141 142 142 142 143 143 143 143 144 
69 69 69 69 68 68 67 67 66 64 63 79 78 79 61 60 50 46 51 66 66 65 65 67 67 67 67 68 69 69 68 68 69 69 73 75 73 79 69 68 66 63 70 66 52 54 56 52 52 60 46 40 57 57 58 59 40 33 37 34 57 47 43 52 56 41 43 69 70 57 62 56 63 55 56 52 50 50 45 52 70 67 56 43 43 77 76 72 83 78 76 64 63 62 64 60 46 47 46 54 49 24 28 32 29 31 55 59 39 44 27 24 24 25 33 32 39 37 25 26 26 28 24 25 31 31 24 25 24 25 38 41 41 31 34 48 55 28 29 27 93 91 76 72 68 81 75 70 72 45 50 79 57 41 41 35 82 96 89 64 46 66 69 70 72 72 73 74 75 75 75 76 76 76 76 77 82 76 76 79 78 76 75 78 79 80 80 80 82 81 82 82 81 81 81 81 82 82 82 82 83 83 83 85 86 87 86 87 87 85 88 89 89 91 91 85 143 136 141 137 129 129 133 132 132 134 129 137 134 127 136 138 95 90 91 89 81 80 80 80 79 86 87 54 51 68 75 42 37 36 38 48 48 46 45 47 53 53 55 101 98 96 97 101 100 101 102 102 102 102 103 103 103 104 104 104 105 105 105 105 105 105 105 105 106 106 106 106 108 108 109 109 109 110 110 110 108 109 109 109 110 110 110 110 111 112 112 112 113 113 113 113 113 113 113 113 114 114 114 114 114 114 115 115 116 115 117 118 118 117 118 118 119 119 119 119 119 120 120 120 121 121 121 122 122 122 123 123 123 124 124 124 123 123 124 124 124 125 125 125 125 125 125 125 126 126 126 126 127 128 128 128 129 129 129 129 129 129 129 129 130 130 130 130 130 131 131 131 132 132 132 132 132 132 132 132 133 133 133 133 132 133 133 133 134 134 134 135 135 135 135 135 136 136 136 137 137 137 137 137 137 137 137 137 137 138 138 138 138 138 138 137 139 140 140 140 140 140 140 140 140 141 141 141 141 141 141 140 142 142 142 142 142 142 142 142 143 143 143 143 143 143 143 143 142 142 141 141 141 141 142 142 142 142 143 143 143 144 144 144 145 
69 69 69 69 68 68 67 67 64 67 79 76 80 67 59 61 51 46 47 64 67 63 65 68 68 67 68 68 68 68 68 68 65 66 72 68 66 80 64 64 62 58 61 67 59 56 58 50 54 49 37 39 43 53 59 56 44 35 33 49 54 50 49 61 61 49 76 75 57 49 67 43 48 50 56 52 45 59 76 75 77 80 70 59 62 73 77 83 71 74 61 64 63 59 54 62 49 48 47 47 49 49 33 32 32 32 58 58 51 46 30 27 24 28 30 28 37 35 25 26 27 28 27 29 33 31 25 24 26 25 38 42 39 37 32 47 45 28 25 27 90 90 65 69 83 85 76 82 80 66 73 79 83 59 68 79 84 90 89 57 57 60 66 70 69 73 77 77 75 75 76 76 76 76 76 76 79 77 75 78 77 75 76 78 79 80 80 81 82 82 82 82 81 81 81 82 82 82 83 82 84 84 85 85 86 87 87 87 87 85 89 90 89 91 92 86 88 137 140 134 124 126 134 133 134 129 133 129 132 135 124 127 120 85 82 82 77 85 77 74 76 90 91 47 49 75 71 65 44 38 52 51 49 48 49 54 55 53 50 100 100 96 98 101 101 101 102 102 103 103 103 103 104 104 104 105 105 105 106 105 105 105 105 106 106 106 106 106 108 108 109 109 110 109 110 110 109 109 109 109 110 110 110 110 112 112 112 113 113 113 114 113 113 113 113 114 114 114 115 115 114 114 115 115 115 116 117 118 118 118 118 118 119 119 119 119 120 120 120 121 121 121 122 122 122 123 123 124 124 124 124 124 124 124 124 125 125 125 126 125 125 125 125 126 126 126 127 126 128 128 128 129 129 129 130 129 129 129 129 130 130 130 131 131 131 131 131 132 132 132 133 132 132 132 132 133 133 133 133 133 133 133 133 134 134 134 135 135 135 135 135 136 136 136 137 137 137 137 137 137 137 137 137 137 138 138 138 138 138 138 138 138 140 140 140 140 140 140 140 140 141 141 141 141 141 141 141 141 142 142 142 142 142 142 142 142 143 143 143 143 144 144 143 143 143 141 142 141 141 142 142 142 143 142 142 143 143 143 144 144 145 
71 70 69 69 69 68 67 66 64 75 81 80 65 56 57 60 64 39 38 41 49 43 62 68 69 68 68 68 68 68 68 66 64 63 68 65 67 83 65 67 71 77 59 63 61 64 59 59 49 40 36 39 41 35 31 41 42 74 73 50 48 59 64 60 57 68 61 69 78 63 56 94 84 47 46 51 59 80 69 62 79 78 62 66 60 66 60 75 69 71 63 58 72 72 56 50 56 46 46 47 60 53 47 39 34 36 58 56 49 51 25 29 31 28 27 31 32 37 28 26 27 39 46 27 26 31 29 26 26 43 40 30 28 34 27 25 30 39 33 36 68 73 74 96 88 79 84 87 50 42 66 64 74 68 68 77 77 90 53 58 55 56 47 53 57 73 77 77 76 75 75 76 76 76 76 80 81 69 74 77 78 78 77 79 79 79 80 80 81 82 82 82 81 81 81 82 82 83 83 83 83 84 84 85 86 86 87 87 87 86 91 90 90 91 92 86 88 143 134 140 129 122 136 136 136 133 130 132 132 132 132 135 136 82 82 80 91 92 76 72 74 87 89 49 48 56 76 64 52 48 52 54 55 50 50 57 57 53 60 82 103 99 99 100 101 101 102 102 103 102 103 103 104 104 104 104 105 105 105 105 105 105 105 105 106 106 106 107 108 109 109 109 109 110 110 110 109 108 109 109 110 110 110 111 112 112 112 113 113 114 114 114 113 113 113 113 114 114 114 115 115 115 114 115 116 116 117 118 117 118 118 118 119 119 119 120 119 119 120 120 121 121 121 122 122 123 123 123 124 124 124 124 124 124 124 124 125 125 125 125 125 125 125 125 126 126 126 127 127 128 128 128 129 129 129 129 129 129 129 129 130 130 130 130 130 131 131 131 132 132 132 132 132 132 132 132 133 133 133 133 132 133 133 133 134 135 135 135 135 135 135 136 136 136 136 137 137 137 137 137 137 137 137 137 137 138 138 138 138 138 138 138 140 140 140 140 140 140 140 140 141 141 141 141 141 141 141 141 142 142 142 142 142 142 142 142 143 143 143 144 144 144 144 143 142 142 142 141 141 142 142 142 143 143 144 144 144 144 145 145 144 
75 72 72 72 69 69 69 63 61 71 80 81 50 51 49 53 64 55 53 56 46 45 48 65 67 67 63 64 65 64 65 71 68 75 57 65 86 76 70 64 71 70 66 66 67 62 63 65 65 67 38 38 38 27 28 52 61 68 67 59 58 53 64 64 58 66 72 75 64 68 92 84 81 57 50 70 77 80 67 59 59 74 79 54 66 63 52 65 69 68 60 75 70 70 59 51 45 52 46 45 43 52 51 50 39 53 55 56 52 47 31 30 38 38 34 36 44 43 50 60 58 52 41 31 27 28 24 24 24 38 38 29 32 30 27 25 29 40 64 67 61 66 85 97 90 82 78 74 49 46 48 54 59 89 87 62 51 51 54 61 62 50 47 51 65 70 66 79 80 74 76 69 68 68 66 76 81 60 61 76 78 79 83 79 78 77 76 82 82 82 83 84 82 82 83 82 83 83 83 83 85 85 85 86 87 87 88 87 87 88 88 91 92 91 90 85 89 148 153 121 125 134 132 136 131 132 133 129 125 135 135 124 130 121 83 87 96 93 79 79 67 82 76 52 57 58 53 53 50 44 44 56 54 52 52 57 57 75 55 63 96 100 102 95 100 100 101 101 105 106 104 105 105 105 106 106 106 106 106 106 106 107 107 108 108 108 109 108 108 108 108 108 109 109 110 110 110 110 110 110 111 111 112 112 112 112 112 113 113 114 114 114 114 115 115 116 116 116 117 117 117 117 117 118 118 119 119 119 119 119 119 120 120 121 121 121 120 120 120 121 121 121 122 122 123 123 123 123 123 124 125 126 125 126 126 127 127 127 128 127 127 127 127 128 128 128 129 128 128 129 129 130 130 130 131 130 130 130 130 131 131 131 132 131 133 134 134 134 134 134 134 134 134 134 134 134 134 134 135 135 135 136 136 136 136 136 136 136 136 136 136 136 136 136 136 136 138 138 139 139 140 140 140 141 140 141 140 141 140 141 141 141 141 142 142 142 142 142 142 142 142 142 142 143 143 143 143 142 141 141 141 141 141 141 141 141 142 142 142 144 144 145 145 145 144 144 144 144 144 144 143 144 143 144 144 144 144 144 144 144 144 
78 73 72 72 67 67 70 65 69 72 70 63 58 58 60 60 60 56 67 57 48 48 46 40 42 68 65 63 65 64 69 70 76 75 51 52 80 79 73 51 52 62 65 66 67 65 65 49 70 71 56 22 22 26 32 44 43 44 60 53 55 61 66 58 56 65 70 74 71 67 82 59 50 52 47 67 79 74 78 73 64 71 74 64 63 58 58 77 72 41 42 74 70 66 49 46 45 45 39 39 46 47 41 60 59 61 56 49 37 34 35 32 38 31 27 33 41 46 58 64 49 45 34 31 32 34 25 25 25 30 27 26 29 31 28 30 30 41 55 69 75 75 85 92 92 65 67 76 69 73 55 78 83 89 63 49 50 47 58 63 68 72 58 55 48 60 60 78 74 73 72 78 76 76 64 75 69 61 58 77 76 77 83 82 83 76 78 76 81 84 85 84 82 83 83 83 83 83 83 83 85 85 86 85 87 88 88 88 87 87 90 91 95 91 85 83 124 150 148 125 138 140 140 138 133 133 135 130 132 140 141 124 123 126 126 91 93 96 85 80 66 66 69 53 57 54 52 52 44 40 41 47 48 50 49 53 61 93 105 61 72 60 85 97 102 103 103 104 104 101 103 106 105 106 106 106 106 106 106 106 107 107 108 108 108 109 109 109 108 108 109 109 109 110 110 110 110 110 111 111 111 112 112 112 112 112 113 113 113 114 114 114 115 115 116 116 116 117 117 117 117 117 118 118 118 119 119 119 119 119 120 120 120 121 121 121 120 120 121 121 121 122 122 122 123 124 123 123 124 123 125 125 126 126 127 127 127 128 128 128 127 127 128 128 128 129 129 129 129 129 130 130 130 131 131 131 130 130 131 131 131 132 132 132 134 134 134 134 134 134 134 134 134 134 134 134 134 135 135 135 136 136 136 136 136 136 136 136 136 136 136 136 136 136 136 136 138 139 140 140 140 141 141 141 141 141 141 141 141 141 141 141 142 142 142 142 142 142 142 142 142 142 143 143 143 144 144 143 142 141 141 141 141 141 141 141 142 142 144 143 144 145 145 145 145 144 144 144 144 144 144 144 144 144 143 143 144 144 144 144 144 
77 72 71 72 67 68 69 66 76 69 65 54 55 57 62 60 63 60 70 71 50 46 41 33 34 42 70 80 85 68 67 78 58 66 47 43 67 64 63 54 52 56 63 62 68 63 61 42 69 63 65 20 22 31 35 33 42 43 57 54 52 63 68 75 56 57 58 75 76 68 73 54 60 46 73 80 78 82 89 81 64 76 76 80 57 58 53 71 70 41 44 77 74 71 49 50 44 47 37 40 45 44 30 31 61 60 57 43 32 31 32 34 36 31 26 26 27 36 35 29 25 24 25 30 33 35 35 25 28 27 24 24 28 26 26 29 30 46 44 78 73 73 70 91 97 88 64 62 58 72 77 74 74 87 98 46 45 45 64 75 75 74 67 49 46 52 70 74 70 77 75 73 86 81 73 71 58 59 58 74 75 80 81 82 83 80 76 78 77 85 84 84 83 83 83 83 83 83 83 83 85 86 86 86 88 88 88 88 87 88 90 92 94 92 90 84 145 142 145 133 141 140 140 139 133 135 136 135 131 140 144 122 125 133 131 99 97 84 87 87 71 74 80 84 52 52 50 51 40 42 40 46 50 47 48 61 67 89 88 96 60 62 53 98 102 105 104 104 104 105 102 106 106 106 106 106 106 106 106 106 107 108 108 108 109 109 109 109 108 109 109 109 110 110 110 110 110 111 111 111 112 112 112 112 112 113 113 113 114 114 114 114 115 116 116 116 117 117 117 117 117 118 118 118 119 119 119 119 119 120 120 120 121 121 121 121 121 121 121 122 122 122 123 123 124 124 123 123 124 125 126 125 126 127 127 127 128 128 128 128 127 128 128 128 129 129 129 129 129 130 130 130 131 131 131 131 131 131 131 132 132 132 133 133 134 134 134 134 134 134 134 134 134 134 134 134 135 135 135 135 136 136 136 136 136 136 136 136 137 137 137 137 137 137 137 137 139 140 140 140 141 141 141 141 141 141 141 141 141 141 141 141 142 142 142 142 142 142 142 142 142 143 143 143 144 144 144 144 144 145 144 145 144 144 144 144 144 144 144 144 144 145 145 145 145 144 144 144 144 144 144 144 144 144 144 144 146 145 147 145 146 
75 71 71 71 69 74 73 73 75 80 63 50 45 49 60 63 71 63 63 72 45 44 41 38 28 26 25 83 82 70 52 55 57 63 42 40 66 63 68 63 49 62 59 59 60 63 53 38 37 53 60 28 27 42 38 38 39 41 51 58 48 56 74 65 66 52 50 71 70 60 77 57 49 53 61 78 84 77 73 81 65 67 79 75 69 62 57 40 42 65 59 63 78 77 51 64 60 63 39 43 45 38 33 28 36 46 54 42 30 29 29 32 34 31 27 23 27 33 34 26 25 26 27 29 29 35 35 32 31 25 26 31 29 24 24 25 29 39 43 69 77 77 81 92 90 91 79 63 64 79 79 76 70 88 92 42 43 94 92 79 76 75 41 45 53 51 64 54 74 75 74 72 77 88 80 81 61 62 59 57 79 79 80 80 79 81 80 77 78 85 84 84 83 83 84 83 83 84 84 83 86 86 86 86 88 88 89 88 88 89 90 92 94 92 91 100 144 138 134 127 141 140 140 138 133 133 131 132 132 127 140 134 144 141 115 106 99 82 82 89 87 73 85 86 61 60 48 44 42 40 51 53 55 58 66 73 64 63 69 92 58 51 52 54 87 100 104 105 105 107 106 108 106 106 107 107 107 107 107 107 108 108 108 109 109 109 110 109 109 109 109 110 110 110 111 111 111 111 111 112 112 112 113 113 113 113 113 114 114 114 115 115 116 116 116 117 117 117 117 117 118 118 118 119 119 119 120 120 120 120 120 121 121 121 122 121 122 122 122 121 123 123 123 124 124 124 124 124 124 125 126 126 127 127 127 128 128 128 129 128 128 128 128 129 129 129 130 129 130 130 130 131 131 131 132 132 132 132 132 131 133 133 133 134 134 135 135 135 135 134 134 134 134 134 134 135 135 135 135 135 136 137 137 137 137 137 137 137 137 138 138 138 138 138 138 137 140 140 140 141 141 141 142 142 142 142 142 142 142 142 142 142 142 143 143 143 143 143 143 143 143 143 143 144 144 144 144 144 145 145 145 145 145 145 144 144 144 144 144 144 145 145 145 145 144 144 144 144 144 145 145 145 145 145 145 146 147 146 148 148 147 
73 70 69 69 68 75 72 71 70 72 45 44 45 47 60 71 75 62 64 43 46 53 47 35 28 29 29 72 73 69 69 48 55 58 42 40 67 67 68 53 59 57 56 57 64 70 75 78 37 46 27 29 42 42 44 44 54 51 41 45 65 71 60 62 57 52 51 55 50 50 72 59 55 61 65 83 87 85 77 74 77 44 35 53 40 63 70 32 32 53 53 44 76 78 59 59 64 64 39 40 38 39 36 43 33 39 40 35 29 30 31 31 28 27 26 26 28 33 32 29 31 38 38 30 33 33 36 31 31 25 24 30 31 27 25 24 39 39 80 75 64 66 95 90 92 77 75 83 61 80 74 70 84 73 66 50 49 91 92 69 71 72 46 44 48 51 45 29 34 73 75 77 92 89 87 79 64 59 42 40 31 34 69 76 68 78 81 81 82 85 85 85 84 84 84 84 84 84 84 84 86 86 87 86 88 89 88 89 90 91 89 92 94 92 89 153 144 134 130 132 129 135 138 136 131 130 130 131 129 127 138 138 147 146 149 85 77 85 89 88 64 67 85 87 56 52 50 47 46 49 50 51 52 53 67 71 68 60 51 91 78 64 51 61 54 95 105 105 107 107 107 108 107 107 107 107 107 107 107 107 108 108 109 109 109 110 110 110 109 109 110 110 110 111 111 111 111 111 112 112 112 113 113 113 113 113 114 114 114 115 115 115 116 116 117 117 117 118 117 118 118 118 119 119 119 120 120 120 120 120 121 121 121 122 122 122 122 123 123 123 124 124 124 124 125 125 124 124 125 124 126 126 127 127 128 128 128 129 129 129 128 128 129 129 129 130 130 130 130 130 131 131 131 132 132 132 132 133 133 133 134 134 134 134 135 135 135 135 135 134 134 134 134 134 134 135 135 136 136 136 137 137 137 137 137 137 137 137 138 138 138 138 138 138 138 138 140 140 141 141 141 142 142 142 142 142 142 142 142 142 142 142 143 143 143 143 143 143 143 143 143 143 144 144 144 145 145 144 145 145 145 145 145 145 144 144 144 144 144 145 145 145 145 145 144 145 144 144 145 145 145 145 145 145 147 147 147 147 148 148 148 
74 68 69 68 66 71 71 69 65 60 45 44 45 70 77 77 75 57 57 52 55 45 49 50 28 41 59 74 73 70 64 65 44 43 43 44 62 67 68 59 58 55 55 61 65 64 71 74 78 54 30 31 39 38 43 53 49 40 55 59 61 64 66 54 46 61 60 50 46 51 69 54 63 61 65 75 82 82 71 71 73 36 31 30 32 55 62 34 32 33 45 75 76 73 83 54 52 56 44 42 42 43 45 44 35 42 40 38 30 30 40 40 44 44 45 41 35 31 33 28 32 38 37 34 34 33 32 30 27 23 22 29 29 27 31 29 41 39 83 80 66 67 89 92 86 72 79 84 50 71 70 72 72 67 67 53 66 67 75 70 70 72 62 57 48 35 32 33 34 80 82 82 86 80 78 73 58 61 57 39 36 36 39 66 42 51 80 83 84 83 84 85 84 84 85 84 84 85 85 84 86 87 87 87 89 89 89 89 91 91 91 90 93 92 89 161 153 133 135 134 134 139 138 140 135 130 129 138 131 131 135 136 133 146 148 84 77 77 89 92 58 63 97 91 55 51 49 53 51 51 51 49 42 41 39 44 58 57 58 86 89 67 53 51 53 105 108 106 107 107 106 106 107 107 108 108 108 108 108 108 108 109 109 109 110 110 110 110 109 110 110 110 111 111 111 112 112 112 112 112 113 113 113 114 114 114 114 114 115 115 115 116 116 117 117 117 118 118 118 118 119 119 119 119 120 120 120 121 121 121 121 121 122 122 122 122 123 123 124 124 124 125 125 125 125 125 125 125 125 126 127 126 127 128 128 128 129 129 129 129 129 129 129 129 130 130 130 130 130 131 130 131 132 131 132 132 132 132 133 133 133 134 135 135 136 135 135 135 135 135 135 135 135 135 135 135 136 136 136 136 137 138 138 138 138 138 138 137 139 139 139 139 139 139 139 139 140 141 141 141 142 142 142 143 143 143 143 143 143 143 143 143 143 144 144 144 144 144 144 144 144 144 144 144 145 145 145 144 144 145 145 145 145 145 144 144 144 144 144 144 144 144 145 145 145 144 144 145 145 145 145 145 145 146 147 147 147 148 149 148 149 
74 68 67 68 66 70 72 66 69 64 47 47 45 69 78 78 72 50 46 58 56 47 42 45 43 51 62 71 75 68 64 60 32 37 48 55 56 63 74 69 75 68 57 64 68 65 68 65 77 75 70 44 43 36 36 54 51 50 62 63 49 43 59 37 39 49 59 48 48 60 59 51 70 71 74 53 41 77 74 69 73 33 32 30 26 42 52 32 37 31 27 70 74 85 88 79 52 53 45 46 53 44 48 50 57 56 53 35 30 33 41 39 32 41 47 45 39 32 24 24 27 39 39 31 34 34 35 27 27 24 26 28 28 38 45 35 34 38 50 79 95 86 85 80 71 79 75 59 57 76 89 70 68 73 84 85 66 69 72 79 76 83 84 55 48 37 30 42 80 78 78 58 54 65 70 70 62 61 58 48 43 36 46 45 32 30 36 81 83 81 81 86 85 85 85 85 85 85 85 85 87 87 87 87 89 89 89 89 91 90 90 92 93 92 87 166 161 134 132 137 144 148 140 140 139 135 144 141 138 128 112 130 133 139 144 137 114 82 87 99 74 79 92 91 69 50 53 53 52 52 51 46 43 41 43 45 59 52 60 65 89 115 65 44 43 106 107 104 107 106 106 106 107 108 108 108 108 108 108 108 109 109 109 110 110 110 111 110 110 110 110 111 111 111 112 112 112 112 112 113 113 113 114 114 114 114 114 115 115 115 116 116 117 117 117 118 118 118 118 119 119 119 119 120 120 120 121 121 121 121 121 122 122 122 123 122 123 124 124 125 125 125 126 126 125 125 125 125 125 126 127 127 128 128 128 129 129 129 130 129 129 129 129 130 130 130 131 131 131 131 131 132 132 132 133 133 133 134 134 135 135 135 136 136 135 135 135 135 135 135 135 135 135 135 135 136 135 136 137 136 138 138 138 138 138 138 138 138 139 140 140 140 140 140 140 139 141 141 141 142 142 142 143 143 143 143 143 143 143 143 143 143 144 144 144 144 144 144 144 144 144 144 144 145 145 145 145 145 145 144 144 144 144 144 144 144 144 144 144 144 144 145 145 145 145 145 146 146 146 146 146 146 146 146 147 147 147 148 148 148 149 
72 66 68 66 67 72 73 71 67 67 61 43 42 40 54 72 52 59 48 50 54 38 33 31 34 35 43 40 33 28 28 48 28 24 34 53 57 67 71 76 73 65 61 60 70 72 72 68 68 81 78 79 74 34 39 56 55 67 65 65 69 59 41 44 43 44 46 54 52 58 48 53 51 73 70 40 38 42 76 78 71 35 31 31 37 32 42 39 30 30 76 68 68 79 64 70 59 50 53 62 63 52 46 55 58 56 52 33 31 30 36 39 33 31 51 50 52 35 22 22 22 24 24 25 25 43 42 44 33 28 30 28 30 44 45 39 36 49 63 95 94 81 69 68 73 66 56 52 79 93 81 79 69 66 80 84 66 69 78 77 78 79 84 53 45 46 41 64 74 80 64 60 55 51 46 51 49 29 24 41 45 48 48 48 33 37 35 81 84 81 83 85 85 85 85 85 85 85 85 85 87 87 87 87 88 90 90 90 91 90 91 91 93 92 87 165 166 131 134 133 152 150 147 139 139 136 141 141 140 118 111 124 111 141 142 132 134 122 114 89 87 77 76 80 68 63 52 48 51 51 49 51 50 48 47 48 45 69 69 75 116 115 131 43 44 107 109 103 105 107 108 107 107 107 108 108 108 108 108 108 109 109 109 110 110 111 111 111 110 110 110 111 111 112 112 112 112 112 112 113 113 114 114 114 114 114 114 115 115 116 116 116 117 117 117 118 118 119 119 119 119 119 119 120 120 121 121 121 121 121 121 122 122 123 123 123 124 124 124 125 125 126 126 126 126 125 125 125 125 126 127 127 128 128 128 129 129 130 130 130 129 129 129 130 130 131 131 131 131 131 131 131 132 132 132 133 134 134 134 135 135 135 136 136 136 135 135 135 135 135 135 135 135 135 135 136 136 136 136 137 138 138 138 138 138 138 138 138 140 140 140 140 140 140 140 140 141 141 141 142 142 143 143 143 143 143 143 143 143 143 143 143 144 144 144 144 144 144 144 144 144 144 144 145 145 146 145 145 144 144 144 145 144 144 144 144 144 144 144 144 144 144 145 145 146 145 145 146 146 145 146 146 146 146 147 147 147 148 148 148 149 
69 71 67 66 67 74 69 71 67 56 58 54 53 37 50 62 59 54 52 50 35 36 36 28 33 35 43 38 29 27 24 27 27 26 32 28 25 25 34 42 66 64 64 69 69 70 69 70 66 64 67 89 91 69 47 59 60 65 61 70 63 56 55 47 57 40 40 55 62 57 51 48 47 40 42 36 46 42 42 45 65 45 36 33 35 33 35 59 65 75 73 47 45 66 74 51 55 65 79 73 67 56 51 52 57 36 37 30 29 34 35 43 33 34 36 44 41 30 26 20 25 23 25 25 23 23 43 41 25 25 27 29 42 47 33 35 48 82 98 95 92 67 68 68 69 56 49 64 82 90 73 71 71 71 73 52 46 48 58 74 78 76 48 47 49 48 41 50 62 57 57 61 60 44 43 48 54 22 31 29 46 49 50 48 47 38 37 75 85 87 84 85 84 85 85 85 86 86 87 87 87 87 88 89 90 91 91 91 91 92 91 92 93 92 88 163 167 130 130 138 149 150 147 146 138 136 132 133 131 121 108 117 119 115 142 145 131 131 84 85 87 87 76 74 79 57 52 47 48 49 51 53 51 44 42 47 45 89 88 86 137 120 135 42 40 61 109 108 105 106 109 107 107 107 107 108 108 108 109 109 109 110 110 111 111 111 112 111 110 111 111 112 112 112 113 113 113 113 113 114 114 114 115 115 115 115 115 116 116 116 117 117 117 118 118 119 119 119 119 119 120 120 120 121 121 121 122 122 122 122 122 123 123 123 124 123 124 124 124 125 125 126 126 126 126 126 126 127 127 127 128 127 128 129 129 130 130 130 131 130 130 130 130 131 131 131 132 131 132 133 133 134 134 134 135 134 134 134 134 135 135 135 136 136 136 136 136 136 135 137 137 136 136 136 136 137 137 136 138 137 138 139 139 139 139 139 139 139 140 140 140 140 140 140 140 140 142 143 143 143 143 143 143 143 143 144 144 144 144 144 144 144 144 144 144 144 144 144 144 144 144 145 145 146 146 146 146 146 143 144 145 147 146 146 144 144 145 145 147 145 144 146 146 146 147 147 144 145 145 145 145 145 145 145 145 146 146 147 147 148 147 
65 71 65 67 65 74 77 62 50 61 62 63 51 28 22 45 44 37 52 50 33 38 36 37 67 47 39 36 36 28 26 23 29 32 32 27 23 22 27 31 61 62 65 68 70 70 70 70 68 65 67 87 91 59 47 58 50 60 63 61 54 61 69 63 56 52 41 69 66 58 53 66 36 37 42 43 41 50 42 49 66 53 48 62 29 35 42 61 68 72 54 44 47 46 68 71 57 86 79 72 70 47 41 34 29 31 32 35 29 34 34 42 34 38 36 36 39 39 40 36 25 26 25 25 24 24 33 22 27 26 27 31 37 35 34 33 35 63 99 100 83 51 54 62 80 76 78 65 60 64 72 77 71 75 64 52 47 46 45 105 119 62 63 46 44 37 38 62 66 59 58 64 54 44 42 56 67 50 29 29 32 43 47 43 50 48 52 86 86 86 84 85 85 84 86 85 86 87 87 87 87 87 88 88 91 91 91 91 91 92 93 92 92 91 87 164 156 129 131 133 139 149 144 144 130 133 134 134 129 130 132 140 121 127 138 143 149 142 87 83 81 85 78 80 72 51 49 53 50 50 52 52 52 41 41 42 43 96 83 90 90 117 127 45 43 59 106 107 106 104 109 109 107 107 108 108 108 109 109 109 110 110 111 111 111 112 112 112 111 111 112 112 112 113 113 113 113 113 114 114 114 115 115 115 115 115 116 116 116 117 117 117 118 118 119 119 119 120 120 120 120 120 121 121 121 122 122 122 122 122 123 123 123 124 124 124 124 124 125 125 125 126 126 126 126 126 127 127 127 128 128 128 129 129 130 130 130 131 131 131 130 130 131 131 131 132 132 132 133 133 134 133 134 135 135 135 134 134 134 134 135 135 135 136 136 136 136 136 137 136 137 137 136 136 137 136 137 137 138 138 139 139 139 139 139 139 139 139 140 140 140 140 140 140 140 140 143 143 143 143 143 143 143 143 144 144 144 144 144 144 144 144 144 144 144 144 144 144 144 144 145 145 146 146 146 147 147 147 142 142 146 147 147 146 145 149 151 152 146 146 146 147 148 146 147 146 144 144 148 146 146 146 145 144 145 145 147 147 149 148 149 
69 75 76 65 59 80 79 40 38 63 66 60 53 25 26 29 37 40 45 43 36 39 38 62 56 51 35 36 34 33 26 24 23 34 33 28 24 22 27 29 35 45 59 70 71 70 69 70 71 71 69 63 76 72 39 39 50 64 64 63 54 49 64 62 45 49 75 69 67 51 55 65 77 77 69 57 59 61 64 38 41 43 66 60 43 53 58 66 68 61 36 41 48 55 60 65 51 78 81 72 69 54 33 32 29 34 34 34 30 33 35 30 26 37 37 35 35 40 39 38 25 26 27 26 23 24 31 20 24 28 30 32 34 32 31 35 34 49 100 97 51 54 55 70 68 75 77 57 60 49 75 73 81 76 62 57 46 48 68 109 117 65 66 70 39 40 49 56 67 69 63 72 55 44 56 58 64 70 28 29 32 37 34 35 30 33 42 86 85 82 83 85 85 86 86 86 87 87 87 87 87 88 88 88 91 92 92 92 91 94 95 94 93 90 89 161 134 131 132 133 131 136 130 134 131 132 132 130 129 138 141 139 129 125 123 147 148 148 92 80 80 121 138 120 53 50 51 50 47 46 46 46 46 42 41 42 43 38 78 84 92 116 93 46 49 49 53 102 105 104 102 108 107 108 108 109 109 109 110 110 110 111 111 111 112 112 112 112 112 112 112 113 113 113 114 114 114 114 114 115 115 115 116 116 115 116 116 117 117 117 118 118 118 119 119 119 120 120 120 120 122 121 121 122 122 122 123 123 122 123 123 123 124 124 124 124 124 125 125 125 126 126 126 126 127 127 127 128 128 128 129 129 130 130 130 131 131 131 132 132 131 131 131 132 132 132 133 133 133 134 134 134 135 135 135 135 135 135 135 136 136 136 137 137 137 137 137 138 138 137 139 139 139 137 137 138 138 138 139 138 140 140 140 140 140 140 140 140 141 141 141 141 141 141 141 141 144 144 144 144 144 144 144 144 145 145 145 145 145 145 145 145 145 145 145 145 145 145 145 145 146 146 146 147 147 147 147 147 147 149 149 148 148 148 151 151 150 151 151 152 150 147 149 148 149 148 145 146 149 148 146 144 146 145 147 147 149 148 149 149 150 
75 73 72 71 63 77 72 41 39 39 32 47 57 61 39 39 48 58 66 71 68 46 40 44 32 30 30 27 30 23 26 26 25 27 25 23 23 31 31 31 30 27 40 69 71 72 70 69 69 70 64 63 74 75 37 44 51 69 67 62 59 76 72 37 40 48 75 73 50 34 31 71 74 75 62 40 67 70 41 50 48 44 50 49 31 29 65 54 69 42 31 28 50 55 44 40 37 42 48 61 67 60 45 43 53 61 54 47 41 42 34 25 28 31 35 36 34 37 28 24 25 29 28 26 29 30 43 27 24 28 39 39 74 50 41 39 70 75 100 92 70 54 53 67 48 64 74 69 64 57 71 76 80 79 71 78 77 55 58 59 67 72 77 76 55 52 60 59 67 69 80 77 76 61 58 56 58 40 32 28 36 37 33 34 32 34 44 79 83 81 82 85 85 86 86 86 87 87 88 88 88 88 89 88 91 92 92 92 93 94 95 94 93 91 90 158 135 136 137 133 131 128 128 130 129 137 132 122 122 139 143 143 122 124 124 147 145 151 146 126 116 153 144 138 52 55 56 49 47 47 47 46 45 42 45 44 41 41 83 102 101 96 64 48 49 46 49 52 107 102 105 109 108 109 109 108 110 110 110 111 111 111 111 112 112 112 113 112 113 113 113 112 114 114 114 115 115 115 115 114 116 116 116 117 116 117 117 116 118 118 118 119 119 119 119 120 120 120 120 120 122 122 122 121 123 123 123 123 123 123 123 124 124 124 125 124 125 125 125 126 126 126 127 127 128 128 128 127 129 129 129 129 131 131 131 130 132 132 132 132 132 132 132 131 133 133 133 133 134 134 134 135 135 135 136 136 136 136 136 135 137 137 137 137 137 137 138 137 139 139 139 139 139 139 139 138 140 138 140 140 140 141 141 141 141 141 141 141 141 142 142 142 142 142 142 141 144 145 145 145 145 145 145 145 145 146 146 146 146 146 146 146 146 146 146 146 146 146 146 146 147 147 147 146 148 148 147 148 148 150 151 148 147 148 151 151 151 151 153 153 152 151 146 146 145 146 144 145 147 147 145 145 146 147 148 148 148 149 150 149 148 
77 72 74 77 62 66 74 82 40 30 36 35 62 64 50 44 40 62 64 71 70 39 42 37 33 28 27 28 27 26 24 30 29 28 26 23 25 30 31 30 29 26 24 41 66 71 70 69 71 70 63 65 84 79 81 46 60 68 65 57 52 63 60 38 39 52 69 73 38 30 27 36 39 55 35 39 42 44 40 55 49 51 41 38 38 31 32 46 40 35 34 28 28 33 43 41 37 39 36 28 30 34 28 28 58 59 54 55 44 35 33 35 32 32 36 39 39 32 25 25 28 28 28 25 31 30 42 46 41 49 53 63 64 53 47 41 71 75 75 90 93 59 67 53 53 54 55 76 85 75 77 72 78 75 75 87 87 61 62 65 57 76 76 56 50 59 58 64 77 78 77 76 60 57 56 55 57 38 36 45 42 42 35 34 67 68 75 84 84 81 83 81 85 86 87 86 87 88 88 88 88 88 89 89 92 92 92 93 94 93 94 93 96 96 93 153 134 140 140 142 129 128 128 127 141 141 139 122 122 133 134 125 124 124 135 138 150 158 159 123 141 153 150 72 53 52 55 56 56 54 53 54 55 47 45 47 45 44 100 100 96 96 62 45 46 47 48 47 109 106 102 105 109 110 110 110 111 111 111 111 111 111 112 112 112 113 113 113 113 114 114 114 115 115 115 115 115 116 116 116 117 117 117 117 117 118 118 118 119 119 119 119 119 119 120 120 120 121 120 121 122 123 123 123 124 124 124 124 123 123 124 124 124 125 125 125 125 125 126 126 126 127 127 127 128 129 129 129 130 130 130 130 131 132 132 132 133 133 133 133 132 133 133 133 134 134 134 134 134 134 135 135 135 136 136 136 136 137 137 137 138 138 138 137 138 140 140 138 140 139 140 139 139 139 140 140 141 141 141 141 140 141 141 141 141 141 141 141 142 142 142 142 142 142 142 142 145 145 145 145 145 145 145 145 146 146 146 146 146 146 146 146 146 146 146 146 146 146 146 146 147 148 148 148 149 149 148 148 149 148 150 150 149 149 151 151 150 150 148 149 149 147 144 145 144 146 144 144 146 138 143 147 146 147 148 148 149 150 150 150 149 
81 73 76 77 72 58 81 74 79 64 50 71 64 55 41 41 41 60 60 59 72 55 52 43 36 27 26 26 27 26 26 28 29 28 24 23 22 30 31 25 27 24 24 32 62 74 80 78 70 68 71 69 68 82 80 71 58 70 67 55 65 61 56 63 47 65 64 65 38 29 28 29 46 34 33 41 42 42 43 34 35 49 41 46 35 40 40 44 40 31 33 28 27 27 34 41 43 50 31 30 30 29 29 29 30 40 35 49 48 39 35 35 34 32 32 40 40 23 25 28 27 28 26 24 23 25 46 42 47 45 53 60 44 34 45 78 72 61 60 83 88 95 79 54 83 66 56 96 88 82 75 61 63 70 77 80 79 73 69 70 51 68 60 39 37 38 42 70 79 79 78 66 53 52 52 52 55 49 44 46 44 35 36 35 75 79 80 85 85 86 83 82 86 87 87 87 88 88 88 89 89 89 89 89 92 93 92 93 95 94 94 93 96 97 94 153 136 141 142 144 132 133 133 137 142 143 139 125 131 133 133 128 135 130 133 134 165 169 160 118 111 145 143 87 70 51 48 59 58 52 53 55 54 53 51 49 50 48 81 99 102 92 45 45 46 47 48 48 105 110 110 105 109 110 111 111 111 112 112 112 112 112 112 112 113 113 113 113 114 114 115 115 115 116 116 116 116 116 117 117 117 118 118 118 118 118 119 119 119 120 120 120 120 120 120 120 121 121 121 121 123 123 124 124 124 125 125 125 123 124 124 124 125 125 125 125 125 126 126 126 127 127 127 128 129 129 130 130 130 131 131 131 132 132 133 133 133 134 134 134 133 133 134 134 134 135 135 135 134 134 134 135 135 135 136 136 136 136 137 137 137 138 138 140 140 139 141 140 140 141 142 139 139 139 141 141 141 141 142 141 142 142 142 142 142 142 142 142 143 143 143 143 143 143 143 143 146 146 146 146 146 146 146 146 147 147 147 147 147 147 147 147 147 147 147 147 147 147 147 147 148 148 149 149 149 150 150 150 149 149 151 152 151 150 150 149 148 145 149 154 154 148 145 145 132 140 139 138 138 138 138 147 147 147 149 148 150 149 150 150 152 
84 77 75 74 71 59 49 75 75 77 67 73 74 71 41 38 42 59 60 62 68 60 52 47 37 34 28 27 28 27 26 27 27 30 25 22 23 22 25 24 24 24 24 51 59 66 80 81 65 69 69 69 58 58 83 83 46 49 68 70 68 60 56 75 98 83 68 49 39 34 32 31 42 32 35 41 40 46 44 35 36 36 39 42 48 40 34 33 36 32 29 27 28 28 28 32 47 45 47 40 29 27 27 27 34 29 33 48 55 53 60 37 33 32 33 33 26 24 25 28 29 25 23 24 22 24 41 39 42 37 38 43 40 35 41 60 71 59 61 62 94 93 84 81 87 67 59 94 88 76 72 63 63 58 50 60 69 71 68 62 43 46 39 39 38 38 43 54 79 79 80 68 54 53 50 53 58 48 47 45 43 37 35 52 77 78 81 82 85 86 82 82 86 87 87 87 88 88 89 89 89 89 90 89 92 93 93 93 94 94 95 95 96 97 97 156 138 142 142 141 134 134 138 141 143 142 141 139 132 132 130 132 138 134 135 134 167 166 171 106 118 132 139 136 133 92 49 53 49 48 48 52 54 54 51 51 50 35 36 93 93 87 45 45 41 45 49 48 50 112 107 106 110 110 111 111 112 112 113 112 112 112 112 112 112 113 113 113 114 115 115 116 116 116 117 117 117 117 117 118 118 118 119 119 119 119 119 120 120 120 121 120 120 120 120 121 121 121 121 121 123 124 124 124 124 124 125 126 124 124 124 124 124 125 125 126 126 126 126 126 126 127 127 128 130 129 129 130 130 130 131 132 132 132 132 133 134 134 134 134 133 133 133 134 134 134 135 135 134 135 135 135 135 136 136 137 137 137 137 138 138 138 139 139 139 140 140 140 140 141 141 141 140 140 140 141 141 141 142 142 142 142 142 142 142 142 142 143 143 143 143 143 143 143 143 143 146 146 146 146 146 146 146 147 147 148 148 148 148 148 148 148 148 147 147 147 147 147 147 147 148 148 148 149 149 149 150 150 150 149 150 150 150 149 149 146 145 146 151 155 156 146 128 130 130 132 136 138 137 136 118 116 148 149 150 151 152 153 153 154 153 
78 76 76 73 73 47 53 74 77 75 71 71 78 80 67 45 59 65 59 62 72 73 82 92 38 35 35 42 30 24 24 25 26 44 39 36 22 22 23 24 24 30 51 63 58 56 38 41 47 47 68 66 60 62 106 92 62 48 49 71 63 63 70 74 88 89 70 40 34 36 34 29 34 49 39 26 30 27 30 33 50 39 35 34 29 40 29 22 29 26 29 28 28 29 29 29 28 48 45 40 27 28 24 25 27 28 28 60 53 58 68 59 44 43 42 33 29 26 27 24 25 24 24 25 24 29 46 41 35 40 35 43 48 46 41 32 65 64 63 61 96 89 79 83 84 59 43 58 87 78 68 69 67 45 46 63 78 72 57 44 49 47 42 38 37 75 77 81 75 78 77 57 57 52 60 59 51 50 46 53 52 52 54 72 76 79 79 83 84 83 82 82 87 87 87 87 88 88 88 89 89 89 90 90 91 93 93 94 94 95 95 95 98 95 98 157 147 146 151 135 134 135 138 140 142 142 144 143 141 128 128 128 148 139 134 134 168 167 170 172 119 142 135 135 128 134 47 50 47 45 46 53 55 53 50 48 36 35 34 38 73 73 50 41 42 41 46 46 53 91 108 107 110 110 111 111 112 112 112 113 111 111 111 112 113 113 113 115 115 115 115 115 116 116 116 117 117 117 117 117 118 118 118 119 119 119 119 119 120 120 120 120 120 120 120 120 121 121 121 122 123 124 124 125 125 126 126 126 124 124 124 125 125 126 126 126 126 126 126 127 127 128 128 129 130 130 131 131 132 131 132 132 132 132 133 133 133 134 134 134 134 133 134 134 134 135 135 135 135 135 135 136 136 137 138 137 137 138 138 138 139 139 139 139 140 140 140 141 141 141 141 141 141 141 141 141 141 142 142 143 142 142 142 142 142 142 141 143 143 144 144 144 144 144 144 144 145 146 146 146 146 146 147 147 147 148 148 148 148 148 148 148 148 148 147 147 147 147 147 147 148 148 149 149 149 150 150 150 149 149 149 146 144 146 148 145 147 149 132 138 140 137 139 137 137 138 134 137 137 135 117 116 142 150 151 152 153 154 153 153 152 
73 78 77 77 74 73 57 72 70 74 69 69 76 77 75 73 65 70 67 73 75 70 68 85 90 50 40 43 39 30 26 26 38 42 40 27 20 22 25 24 27 26 28 60 62 53 40 39 46 41 45 65 75 80 89 97 57 46 48 46 61 69 74 70 70 76 62 37 34 35 28 30 61 61 28 22 23 24 30 57 45 37 35 32 30 27 26 34 37 27 29 27 27 28 29 29 27 35 33 24 25 26 29 24 31 28 25 46 63 64 68 37 38 44 44 24 24 24 25 23 24 24 22 23 42 45 49 48 37 36 40 37 57 32 26 31 34 53 60 48 46 83 78 73 63 58 53 41 51 75 77 64 56 47 43 76 76 51 40 51 45 67 48 44 74 78 71 87 83 58 60 55 73 69 63 57 47 42 35 45 52 51 51 61 78 79 88 86 81 81 81 87 87 88 88 89 90 90 91 90 90 91 92 92 93 94 94 93 95 93 96 97 98 94 95 153 148 153 150 147 144 139 136 134 144 142 139 138 143 131 127 136 140 142 135 136 129 172 167 172 171 154 152 123 130 151 51 48 50 78 53 54 55 52 48 44 41 36 39 41 45 55 50 42 42 43 41 53 52 52 102 110 109 111 112 110 111 111 112 112 112 113 113 114 114 116 116 116 115 116 115 116 117 117 118 117 117 117 119 120 120 120 121 120 120 120 120 121 121 121 122 122 122 123 123 124 124 124 124 123 123 123 123 124 125 125 126 126 126 127 127 127 127 128 128 128 127 126 127 129 129 130 131 131 130 130 131 131 131 132 132 132 132 132 131 132 133 133 134 133 137 138 135 139 138 137 138 139 136 136 136 136 137 141 140 139 138 139 139 126 133 137 136 134 133 135 136 132 140 132 138 140 140 140 139 139 145 149 143 142 141 140 140 142 142 141 141 142 142 143 143 145 145 143 144 144 144 146 143 145 147 147 144 147 147 147 147 146 146 147 147 147 148 148 147 146 146 145 145 146 146 148 149 150 150 151 151 150 149 149 147 147 157 160 160 158 131 135 140 134 155 138 143 141 140 136 141 139 131 127 119 96 83 137 152 151 152 152 154 154 156 
72 73 75 74 77 81 58 73 75 76 70 70 77 75 75 74 71 58 63 65 73 68 66 65 79 67 44 41 39 31 27 30 32 29 27 27 24 24 29 31 27 27 26 49 66 70 51 61 44 47 45 77 78 79 72 70 61 68 64 40 37 65 67 70 58 71 73 33 34 33 28 28 63 60 58 30 35 33 34 56 47 44 37 35 33 23 24 36 35 35 32 25 26 28 28 28 33 32 32 27 28 27 25 25 29 25 25 22 34 43 41 34 33 36 32 25 24 26 25 25 23 23 25 23 44 46 46 44 45 44 37 32 32 28 28 30 41 47 46 43 83 89 81 78 62 61 53 49 50 63 69 73 82 63 81 79 48 41 40 43 64 65 71 76 62 72 90 86 63 63 62 75 70 64 63 61 51 47 38 61 55 52 54 76 78 85 86 86 84 81 84 88 88 88 89 88 90 91 91 91 90 91 92 92 94 94 94 94 95 93 97 96 100 94 92 151 142 149 130 139 141 140 140 136 141 141 138 138 145 138 144 154 148 147 139 129 133 150 172 169 171 166 140 125 128 77 51 56 99 100 63 60 50 48 49 46 50 45 45 46 44 47 51 40 44 43 43 51 45 49 94 108 110 107 109 112 114 112 111 112 113 113 113 113 115 116 117 117 115 115 116 116 116 118 118 118 118 118 120 120 120 121 121 121 120 120 121 121 121 122 122 122 123 123 124 124 124 125 125 124 123 123 123 123 125 125 126 126 126 126 127 127 127 127 128 128 128 128 128 129 129 130 130 130 130 130 130 131 131 132 132 132 133 132 132 133 134 135 137 136 135 137 137 137 139 137 139 139 140 139 136 137 140 142 143 141 140 128 135 127 180 183 177 165 138 164 165 148 121 156 165 157 144 141 134 127 143 134 147 143 140 137 137 139 140 141 143 143 143 144 144 148 146 144 143 144 144 148 146 144 147 146 145 145 147 147 147 146 147 147 147 147 149 149 148 147 146 145 145 146 147 148 149 150 150 151 150 150 149 145 146 152 160 158 157 160 125 127 147 150 149 140 142 141 141 140 139 141 129 140 137 115 84 86 82 154 152 148 151 153 150 
78 74 74 71 79 76 60 45 78 75 72 72 74 75 76 74 60 61 58 71 70 69 68 70 82 81 80 41 37 40 51 57 34 32 23 25 25 24 32 30 28 28 29 25 70 66 68 66 60 60 60 73 79 76 70 72 67 81 76 34 41 48 63 51 52 52 67 32 27 31 31 28 61 61 76 79 81 36 32 22 50 44 34 36 26 21 21 26 32 34 32 25 26 29 29 29 29 25 26 28 30 26 25 23 31 28 23 24 25 28 38 36 33 30 26 24 25 25 26 21 22 23 28 33 39 36 28 47 44 42 31 29 28 38 29 30 73 84 87 85 83 85 87 84 67 60 51 51 54 48 38 84 79 75 79 75 54 47 41 51 54 69 68 65 80 92 92 94 63 60 63 74 74 53 54 58 52 53 49 52 55 63 75 76 69 75 83 84 85 86 90 89 88 89 89 89 91 91 91 90 90 92 92 92 94 95 94 95 96 93 99 98 100 95 92 157 160 124 124 138 136 141 139 132 132 141 139 145 143 146 146 160 133 135 144 132 132 147 152 165 164 165 148 114 124 72 59 59 93 93 92 78 46 46 48 49 45 45 47 47 46 49 47 38 36 46 50 44 44 46 50 111 106 107 106 116 115 112 112 112 113 114 113 113 116 115 117 117 116 116 116 116 118 118 118 118 118 118 120 120 121 121 121 121 121 121 121 122 122 122 123 123 123 124 124 124 125 125 125 124 124 123 125 124 125 125 125 126 126 126 126 127 127 128 127 128 130 130 131 131 132 132 132 132 130 131 131 131 131 131 131 132 134 135 135 134 134 134 137 139 136 137 139 140 138 137 135 137 134 135 138 138 139 140 140 138 133 127 129 181 174 177 176 165 144 165 167 139 125 160 162 158 120 139 116 85 98 132 141 133 140 140 138 136 138 142 142 139 144 145 146 141 141 140 146 147 143 145 148 148 143 144 149 148 148 147 147 147 147 147 147 147 150 150 150 150 147 146 146 148 149 149 149 149 150 151 151 151 148 144 169 169 158 157 156 157 132 140 147 129 136 137 142 140 140 141 139 140 136 146 142 128 118 82 86 121 152 146 151 153 154 
89 76 77 72 70 72 71 52 75 77 73 71 75 75 76 75 62 64 81 82 80 74 79 70 77 79 79 68 56 69 68 68 39 34 28 26 24 26 31 32 31 35 28 28 52 67 67 68 57 60 60 64 68 70 66 79 85 89 82 46 48 66 76 71 45 41 30 27 29 31 31 29 35 44 80 83 79 61 23 23 27 24 25 26 26 22 21 24 42 45 41 43 43 38 38 32 28 27 25 31 29 24 26 27 25 25 27 27 27 25 35 39 39 31 25 25 25 25 24 21 22 30 32 32 37 33 26 24 23 41 34 31 31 35 36 29 81 80 89 91 74 74 87 92 62 60 67 51 38 35 32 45 62 56 72 78 59 52 49 45 69 68 71 65 70 93 94 80 73 63 60 74 74 48 44 40 48 51 50 51 53 57 71 71 72 74 76 85 87 90 89 90 88 89 89 89 91 91 92 91 92 92 93 92 94 95 95 95 94 92 99 99 102 98 94 165 157 122 120 130 133 134 137 138 132 131 133 146 147 131 137 153 162 143 146 136 137 144 146 159 166 157 108 122 129 78 70 77 68 76 74 72 46 45 47 52 50 46 48 48 42 44 43 41 39 52 49 44 43 50 55 116 113 107 107 116 115 112 112 115 114 114 114 114 116 116 117 118 116 116 116 117 118 118 119 118 119 118 120 121 121 121 122 122 122 122 122 121 123 123 123 124 124 124 124 125 125 125 125 125 126 126 125 125 125 125 125 125 126 127 127 128 128 128 128 128 130 131 131 132 132 133 133 133 131 132 131 131 132 132 132 131 135 135 136 135 133 134 135 136 137 135 137 134 134 133 136 134 134 135 133 135 135 135 135 138 134 144 166 171 182 130 122 127 141 149 145 119 123 135 150 151 132 95 83 76 146 144 135 135 131 141 140 138 137 138 139 139 140 138 138 138 139 141 145 144 144 146 149 148 145 145 148 149 148 148 148 147 147 147 147 147 151 151 150 150 150 149 149 149 150 149 149 150 150 149 151 149 144 166 167 169 157 152 154 154 141 143 138 127 128 142 143 144 142 143 138 139 144 147 127 125 126 113 92 152 157 150 146 149 149 
90 78 78 75 72 72 72 42 47 70 75 75 76 75 76 75 74 69 69 84 80 89 93 87 69 74 76 70 68 68 68 67 58 63 27 23 28 27 31 32 33 35 35 30 54 65 63 64 55 54 65 65 66 66 62 64 87 86 86 65 52 57 86 85 82 35 25 29 33 35 45 40 27 23 60 59 78 40 22 24 25 25 25 25 25 25 28 27 43 42 41 52 53 40 36 34 35 40 39 37 36 22 22 23 24 25 25 26 27 25 34 41 40 34 25 25 25 25 24 23 24 28 31 23 22 31 32 22 22 28 29 30 31 35 37 34 81 85 88 86 65 68 86 82 58 61 61 64 37 32 33 42 55 57 81 77 56 51 37 51 47 67 66 68 96 90 73 64 81 61 60 73 76 46 41 39 44 41 46 59 66 61 72 70 73 73 77 83 90 90 90 89 90 89 90 89 91 92 92 92 91 92 93 93 95 95 95 95 95 93 98 99 101 98 95 168 156 123 129 128 126 125 135 145 140 127 119 121 126 131 141 141 153 141 150 150 143 141 130 122 149 152 115 121 140 86 78 74 66 64 76 77 52 46 50 50 51 48 48 48 37 37 43 44 42 49 50 46 51 50 48 115 112 111 112 115 115 114 112 116 114 114 114 115 115 116 118 118 116 116 117 116 117 119 119 119 119 119 121 121 121 122 122 122 122 123 123 123 124 124 124 124 124 124 125 125 125 126 125 125 127 127 127 126 125 126 125 126 126 127 128 128 129 129 128 128 130 131 131 132 132 133 134 134 134 134 133 132 132 132 132 132 135 136 136 135 135 135 135 134 135 140 137 133 130 130 130 131 142 140 139 140 139 137 144 146 146 143 145 147 145 128 128 124 146 149 148 141 137 132 144 152 148 149 81 135 144 140 140 142 135 148 145 143 144 150 152 151 136 134 132 151 143 136 138 137 144 145 143 145 145 145 148 149 149 148 148 148 149 148 148 150 151 151 151 151 151 152 152 152 153 151 151 151 148 147 146 145 160 167 165 158 155 151 151 141 135 139 142 123 123 139 147 147 147 143 141 137 141 117 129 126 130 160 165 155 153 155 149 148 124 
80 77 78 77 74 83 79 54 49 77 76 76 76 75 72 71 73 69 71 72 69 78 96 96 63 67 70 72 70 69 64 63 70 69 57 59 62 38 35 31 32 36 36 35 59 59 63 59 52 55 61 66 65 63 61 74 71 87 86 35 41 80 84 84 72 31 26 27 35 40 51 51 19 27 35 35 41 34 24 25 24 24 24 25 25 25 30 29 46 44 44 53 54 48 30 31 39 40 40 39 33 23 23 21 28 24 24 25 24 29 33 33 39 30 27 26 25 25 25 25 36 34 34 22 25 31 29 26 28 29 27 27 25 26 26 30 95 87 76 70 66 63 64 74 66 62 63 67 45 42 65 65 91 72 81 73 51 44 37 36 35 62 61 59 102 112 67 64 58 62 78 75 77 55 50 45 39 44 52 62 65 65 69 73 74 71 73 79 90 90 90 88 90 90 90 90 92 92 92 92 92 93 93 93 95 96 95 96 96 96 99 95 100 98 93 164 151 127 129 127 127 129 136 143 138 117 119 124 125 134 138 139 133 110 150 157 150 143 119 123 133 151 129 122 147 158 120 68 57 65 75 73 68 56 58 52 50 49 48 48 36 37 45 52 48 50 49 47 49 50 45 43 114 114 115 114 113 114 117 117 115 115 115 115 116 116 118 118 117 117 117 117 119 119 119 119 119 119 121 121 122 122 122 123 123 123 124 124 124 125 125 125 125 125 125 125 126 126 126 126 127 128 127 127 127 126 126 127 127 127 128 128 128 129 129 130 130 130 131 132 133 134 133 134 135 135 135 134 132 132 133 133 133 134 136 138 138 138 136 134 132 133 133 131 143 148 147 145 139 141 140 139 135 136 136 147 142 145 152 152 137 134 137 158 160 151 146 145 139 131 146 148 142 146 148 133 127 144 144 139 154 149 145 144 143 143 151 149 131 129 152 152 153 140 139 144 140 141 139 147 147 147 148 147 148 149 149 148 150 150 151 150 150 151 151 151 151 153 153 154 153 152 153 153 147 146 146 146 167 169 166 159 158 156 148 130 126 136 135 125 129 129 123 122 125 128 130 133 126 122 118 149 159 158 149 138 130 126 119 113 110 
72 76 76 80 82 79 78 74 45 75 76 74 75 75 72 72 70 73 73 72 73 76 71 90 82 65 64 75 79 66 64 65 68 58 56 63 65 59 55 38 35 33 34 33 54 58 53 55 41 53 60 45 37 33 36 71 71 72 64 35 37 56 67 68 77 81 44 32 28 27 31 52 41 31 25 35 38 33 25 25 25 25 25 24 24 26 29 33 46 46 43 47 55 60 61 28 25 24 24 29 32 31 29 27 28 25 26 23 33 34 33 33 26 27 28 27 27 25 26 28 34 37 45 49 21 26 23 24 29 30 28 25 26 24 22 30 101 94 70 70 72 58 61 43 61 66 64 68 53 67 76 83 87 79 73 76 75 53 43 31 51 56 59 68 82 65 70 52 63 71 75 77 60 52 48 47 42 72 61 60 60 84 85 72 72 62 60 58 79 87 90 91 90 90 90 90 92 92 93 92 93 93 94 93 95 96 96 97 96 96 98 95 98 97 94 159 150 126 127 126 125 132 136 138 100 97 115 122 127 132 136 98 113 91 94 92 98 113 114 128 149 145 129 134 144 149 94 72 43 48 46 61 54 54 54 44 40 41 48 49 37 38 51 51 52 51 47 54 50 47 45 48 104 115 116 113 113 116 116 115 115 115 115 115 116 116 118 118 117 117 117 118 119 119 120 119 120 120 121 122 122 122 123 123 123 124 124 125 125 125 126 125 125 125 125 126 126 126 126 126 128 128 128 127 126 126 126 126 127 127 128 129 130 131 132 131 129 129 130 130 131 133 134 134 135 135 135 134 134 134 133 134 134 135 136 135 134 132 131 126 160 157 150 140 140 146 145 145 143 140 140 147 136 135 137 161 145 147 155 155 152 141 145 156 159 153 147 149 145 154 146 143 139 139 153 135 146 154 156 157 160 151 146 146 148 146 145 146 137 146 149 155 151 146 152 155 138 141 132 136 146 147 142 149 148 149 149 150 150 151 150 151 150 151 151 151 152 153 153 153 153 154 154 152 149 149 156 169 166 169 169 165 162 160 155 119 119 143 139 137 125 127 119 121 121 126 133 135 137 153 162 157 152 138 139 131 132 132 119 112 113 
74 77 76 80 80 71 72 57 40 56 79 73 73 75 74 77 80 74 70 71 75 75 72 86 91 67 66 82 81 70 67 71 72 65 53 66 63 56 58 57 36 35 27 26 49 48 28 26 35 40 59 49 39 34 41 74 71 67 67 48 33 30 63 66 69 81 90 34 26 28 32 47 31 28 27 39 39 44 26 25 25 25 26 25 25 27 34 38 35 47 48 47 42 60 65 28 25 26 25 26 35 34 34 23 22 28 26 35 34 35 29 25 25 25 26 28 28 22 21 26 18 24 66 64 59 21 22 26 30 29 31 28 25 24 23 26 37 94 96 74 77 75 58 44 43 70 75 74 47 52 55 56 68 84 79 79 82 69 53 49 56 65 60 49 44 42 58 51 72 76 77 65 60 51 49 46 70 68 67 57 82 82 72 75 71 74 58 54 68 85 91 91 90 90 90 90 91 93 93 92 92 93 94 94 95 96 96 97 96 96 97 96 99 99 96 154 153 118 124 126 136 137 105 107 99 86 93 93 97 94 96 96 95 99 94 100 96 105 107 124 145 143 139 130 133 139 66 58 48 44 45 56 55 47 58 46 38 38 51 50 39 42 45 49 50 51 50 55 56 50 51 51 109 115 119 111 114 118 117 116 116 116 115 116 117 117 118 118 117 117 117 118 118 120 120 120 120 120 120 122 122 123 123 123 124 124 124 125 125 125 126 126 125 125 125 126 126 127 126 127 128 128 128 127 127 127 127 127 127 128 129 130 130 131 132 132 129 129 128 130 132 133 134 135 135 135 135 135 134 134 134 135 133 132 132 131 131 145 148 148 150 155 152 143 142 146 143 141 144 148 148 150 145 146 164 161 161 148 145 155 161 156 144 145 145 143 156 158 160 153 147 143 149 141 126 124 153 148 152 152 158 142 144 150 149 147 143 142 135 145 149 139 149 154 157 141 140 134 120 121 123 115 105 145 149 148 149 150 151 151 151 151 151 150 151 151 153 154 154 154 154 154 152 150 148 150 174 170 164 168 167 164 163 163 153 114 115 150 148 169 172 170 128 129 131 125 128 138 142 154 164 135 137 141 140 132 131 128 128 121 113 
79 76 76 77 77 72 70 70 31 32 72 75 72 74 80 82 78 78 68 62 81 79 69 84 74 64 68 82 80 72 70 71 71 52 53 59 62 57 56 56 52 29 29 30 48 43 32 37 39 37 44 44 42 50 48 42 75 71 75 31 29 50 64 68 80 87 86 86 71 30 30 31 23 27 27 29 48 42 27 26 27 24 26 27 27 30 33 35 36 38 42 44 44 62 69 59 34 35 36 35 33 26 27 25 22 24 41 42 36 33 29 24 23 24 40 36 25 24 28 19 19 18 25 70 82 25 24 24 28 33 29 28 25 26 24 31 52 92 96 83 73 71 66 70 47 78 76 59 69 61 56 48 70 78 76 76 62 51 48 46 47 58 63 52 49 33 31 36 41 75 68 63 70 71 48 53 52 68 65 83 77 76 64 68 68 65 46 47 49 90 92 91 91 91 91 92 93 93 94 93 94 95 95 95 96 97 96 97 96 97 97 94 100 99 93 158 160 118 116 120 133 104 111 106 92 89 91 95 96 99 92 97 98 95 102 99 104 105 103 105 102 106 141 135 130 136 96 59 63 41 49 44 44 48 47 48 38 37 51 47 45 43 43 43 50 49 50 55 57 53 53 58 55 115 115 118 113 117 117 118 116 116 116 116 116 116 118 118 118 118 118 119 120 120 121 120 120 120 122 123 123 123 124 124 124 124 124 125 125 125 126 126 126 126 126 127 127 127 127 127 127 128 128 128 128 128 129 128 128 132 133 134 129 131 130 133 130 129 128 134 135 131 132 133 133 135 136 134 134 134 134 132 131 149 145 125 131 150 152 155 155 152 153 154 152 153 149 140 139 142 152 148 149 153 152 165 167 145 144 155 158 155 150 144 136 146 156 161 154 155 156 153 152 142 139 127 160 153 146 151 154 151 146 146 151 153 140 128 127 131 130 134 139 141 132 134 132 130 135 134 140 147 103 120 134 133 142 147 151 148 149 148 149 149 149 149 150 153 153 154 154 153 151 144 156 175 174 159 163 167 163 163 163 154 127 119 121 140 157 170 172 168 168 147 127 110 110 139 149 142 140 136 139 139 141 140 130 128 124 129 125 
76 77 76 77 77 76 72 69 64 38 31 75 79 75 78 75 79 64 67 61 60 60 65 67 63 64 66 80 86 80 75 66 62 57 57 58 43 44 54 62 62 58 44 52 54 58 40 36 38 38 33 29 35 46 44 44 51 73 77 84 31 26 39 69 81 86 89 85 82 31 26 22 21 27 25 26 24 26 24 28 26 25 26 28 36 40 39 41 38 27 38 48 44 50 59 66 37 36 37 36 35 28 28 27 27 30 34 42 40 26 28 25 36 36 49 43 37 29 25 26 18 22 35 86 80 31 34 27 28 29 38 30 31 25 23 72 89 90 87 73 56 55 73 71 45 31 69 62 68 72 56 62 74 76 72 58 57 49 50 48 48 54 51 57 55 32 30 36 34 77 81 70 72 60 60 58 55 59 60 77 78 70 54 52 67 66 66 46 45 73 90 94 91 91 92 91 93 94 94 94 95 95 96 95 96 97 97 97 98 101 102 104 102 92 89 163 161 117 121 121 125 112 112 115 102 108 94 95 97 101 95 92 91 96 102 105 103 103 103 101 102 90 103 150 148 122 138 122 81 48 43 43 43 43 45 35 36 36 43 44 44 44 43 43 47 46 50 54 53 54 54 55 56 71 117 111 114 115 119 118 116 116 116 116 117 117 118 118 118 118 119 118 119 121 121 121 121 121 123 123 123 124 124 124 124 124 125 125 125 126 126 126 126 126 127 127 127 128 127 128 127 127 128 128 128 128 129 129 131 131 130 131 136 138 138 135 132 130 129 134 134 133 131 131 134 127 133 134 132 132 128 160 139 145 143 137 127 162 157 156 156 153 148 150 156 147 146 144 140 138 148 137 132 129 137 158 147 146 146 150 155 154 129 135 131 167 163 152 150 159 158 155 148 143 141 144 164 158 155 153 142 145 145 145 151 136 124 127 132 131 132 132 140 139 139 131 138 137 140 135 130 141 151 145 112 119 123 140 147 142 145 146 147 147 147 148 148 150 153 153 152 149 145 143 160 169 162 157 162 165 164 162 158 153 141 150 170 160 152 149 165 166 167 151 118 115 145 146 148 140 136 139 139 139 141 148 159 158 128 126 125 
79 77 78 77 77 75 70 71 65 33 36 80 78 72 73 79 71 70 77 82 52 53 65 70 62 79 97 91 80 79 59 53 64 64 63 65 45 46 49 68 65 60 49 51 58 37 37 36 35 34 32 29 26 38 36 31 41 84 88 56 34 29 81 78 77 73 66 74 71 40 32 21 25 26 22 22 28 28 24 26 25 26 27 24 28 43 43 31 35 24 22 33 39 49 57 67 71 35 35 32 34 36 47 25 26 26 31 32 54 59 31 34 33 23 23 44 32 27 25 62 71 66 54 77 79 42 35 30 71 34 31 26 28 26 27 44 87 87 81 77 49 55 71 69 33 32 98 94 73 69 67 73 73 73 64 57 58 57 42 46 48 58 53 52 62 37 38 28 34 76 80 53 51 51 54 45 60 55 54 60 75 44 48 46 50 68 69 56 59 83 94 94 92 92 92 92 94 94 94 94 95 96 96 96 97 97 97 97 98 96 103 102 104 95 85 163 170 139 125 107 107 108 116 116 110 110 103 92 96 118 104 93 93 97 98 101 105 109 104 102 93 95 105 157 157 145 135 103 88 92 52 44 43 43 37 38 37 38 37 39 44 45 44 43 45 45 44 44 55 57 57 55 51 51 114 111 111 115 118 118 117 117 117 117 117 117 119 119 118 119 119 119 121 121 121 121 122 122 123 124 124 124 125 125 125 125 125 126 126 126 127 127 127 127 127 128 128 128 128 128 128 128 128 128 128 130 130 131 133 132 130 133 135 140 136 139 132 131 132 133 135 132 132 126 128 138 142 156 165 159 154 163 139 146 151 164 163 167 153 154 152 150 150 149 144 143 141 143 141 144 147 133 129 130 130 150 146 148 149 125 120 129 133 132 151 159 160 159 154 155 153 157 143 145 143 147 170 170 165 137 138 147 144 140 131 132 127 125 136 137 133 132 136 138 133 133 142 142 150 129 133 134 153 148 117 119 154 165 172 174 171 149 152 148 148 145 144 144 149 148 147 144 145 152 157 160 155 150 161 162 164 163 156 158 170 172 172 169 147 148 159 162 125 120 107 110 148 147 147 149 140 143 140 140 144 151 158 159 155 130 121 
81 78 78 78 78 78 71 73 50 36 37 26 80 76 74 75 67 68 84 83 64 59 60 71 69 83 89 93 88 64 57 57 63 59 59 61 64 68 69 71 72 71 61 63 61 49 45 33 32 33 31 31 24 27 31 31 30 30 29 30 33 33 86 80 76 60 51 49 59 29 38 30 34 24 21 20 23 25 25 25 26 27 26 24 26 25 28 26 29 28 25 28 38 77 57 64 68 46 35 35 27 43 48 24 24 32 32 41 61 60 39 29 29 25 22 43 45 27 21 58 65 71 51 32 33 39 43 60 68 68 48 26 24 26 40 86 80 81 82 83 77 55 51 29 33 32 96 98 75 63 69 68 73 68 52 55 49 54 46 46 49 60 68 70 70 63 58 38 41 60 66 53 54 53 50 34 55 59 62 61 46 43 47 46 34 64 67 58 85 93 94 92 92 92 92 92 94 94 95 94 96 96 96 96 97 97 98 97 100 93 102 100 102 97 163 153 156 122 112 110 106 106 114 110 110 113 122 131 132 134 135 99 111 94 97 99 111 113 109 101 93 95 153 136 139 146 93 80 91 92 47 47 45 42 37 39 39 37 38 37 45 45 45 45 42 41 44 45 47 57 54 53 52 50 65 116 118 117 118 118 118 117 118 117 119 119 119 120 119 119 119 120 121 121 122 121 123 123 124 123 125 125 125 126 126 126 126 125 127 127 127 128 128 128 128 127 129 129 129 128 128 129 128 128 130 131 130 131 132 132 132 132 132 133 140 138 136 135 134 131 129 126 124 122 125 174 168 164 159 162 142 150 153 148 159 158 165 153 149 154 151 151 154 152 147 139 139 142 127 129 130 133 133 127 125 144 129 133 138 116 116 125 124 151 135 143 142 162 158 150 151 150 143 140 146 142 169 170 164 143 155 151 139 136 134 135 134 136 136 137 136 128 120 123 128 136 138 143 146 151 132 126 128 139 138 124 140 172 173 169 164 165 166 156 151 148 142 158 170 167 169 167 159 151 151 155 152 150 147 150 166 163 158 161 167 174 172 167 157 144 150 137 127 122 107 111 150 145 148 147 147 145 146 144 143 146 162 160 153 138 142 
80 78 78 78 78 78 76 73 69 63 26 25 84 79 68 67 78 76 73 74 88 81 56 61 73 63 54 83 86 85 72 80 63 57 59 59 66 67 72 63 73 72 58 64 60 43 43 39 44 31 32 25 26 23 27 24 26 31 28 33 31 28 86 76 70 50 47 61 56 34 35 51 52 53 48 45 27 23 23 26 24 24 23 26 25 22 24 30 29 32 61 50 94 89 72 64 73 54 45 60 29 37 43 63 28 28 39 46 47 59 67 26 29 27 41 40 42 32 26 58 58 44 26 32 27 36 80 71 49 40 47 32 24 32 47 57 80 79 78 77 68 57 60 31 30 29 61 66 75 72 66 63 67 57 52 50 48 47 68 65 34 34 55 74 65 45 43 43 43 43 31 29 48 47 34 27 28 32 57 47 45 37 37 29 28 33 36 40 64 94 93 92 92 92 93 92 94 95 95 95 96 96 97 96 97 98 98 98 96 102 96 98 100 97 144 138 124 122 113 109 113 116 121 108 108 117 123 128 132 132 126 124 127 130 128 126 114 112 117 128 123 121 154 128 135 77 81 67 85 87 54 48 46 43 39 43 39 36 36 35 44 46 46 45 42 40 43 47 59 78 93 95 49 55 47 122 120 117 115 115 118 118 119 119 120 119 120 120 119 119 120 119 120 122 122 122 123 123 125 125 126 126 126 126 126 127 127 127 128 128 128 128 128 129 129 129 130 130 130 129 129 129 129 129 132 132 132 131 131 131 133 134 131 129 125 129 131 127 129 129 128 161 167 169 172 168 157 162 160 142 143 149 152 152 154 155 159 137 155 154 152 154 153 154 143 130 118 125 132 128 131 133 132 125 124 130 139 133 131 138 112 114 114 126 135 137 149 142 146 144 140 141 130 130 130 133 159 164 154 134 155 150 142 139 140 139 136 138 138 132 116 118 123 125 125 123 125 122 145 144 134 127 126 145 145 126 137 127 123 154 164 154 159 161 149 149 148 152 169 171 168 164 163 142 143 154 153 149 149 152 160 163 154 156 166 137 145 161 135 141 141 134 128 137 120 124 151 152 149 151 154 151 146 144 144 144 143 133 129 129 145 
84 84 78 78 77 76 68 71 73 74 27 39 60 75 66 75 79 79 74 75 86 87 76 73 58 62 63 57 79 66 75 74 74 63 70 75 69 56 54 49 45 49 43 44 37 35 33 33 41 43 46 29 23 24 28 20 23 42 33 31 29 27 23 74 76 60 67 83 87 68 47 56 54 52 49 46 27 25 25 21 23 23 26 43 45 21 25 28 37 37 73 82 82 82 60 64 81 81 74 91 94 34 37 59 21 28 28 31 27 67 57 28 23 27 26 27 32 33 39 71 84 63 29 32 30 44 74 82 40 38 33 99 100 97 65 72 91 75 76 73 69 67 78 84 33 71 62 65 77 77 60 57 62 57 56 57 37 41 74 47 42 75 81 77 41 37 44 42 42 45 34 37 36 28 27 28 29 32 38 34 39 44 44 29 32 28 30 35 75 95 94 93 94 93 93 93 95 95 95 95 96 97 97 97 98 98 98 98 98 100 99 98 100 97 133 130 129 147 139 130 114 113 120 126 122 118 122 103 106 89 110 124 127 127 129 121 118 120 118 122 132 153 133 129 133 84 86 88 69 66 49 48 46 45 44 44 38 37 36 36 37 38 41 42 41 42 44 51 54 71 94 99 107 46 52 121 117 119 119 116 119 118 120 120 119 121 121 120 120 120 120 120 122 122 122 122 124 124 126 126 126 127 127 127 127 127 128 128 128 129 129 129 129 129 130 130 130 131 131 131 129 129 130 132 132 133 132 132 132 131 133 131 127 130 128 122 168 152 152 159 152 155 167 169 166 166 151 143 146 148 139 147 132 143 155 158 149 113 116 124 141 153 155 143 132 128 120 122 145 142 132 136 131 123 119 144 145 116 130 122 112 111 115 124 137 140 145 147 144 143 134 141 143 124 123 135 142 122 125 129 127 143 147 138 129 143 136 137 116 119 119 120 122 124 124 121 119 127 137 151 152 139 150 147 137 141 138 134 121 124 132 166 160 153 154 154 151 143 140 140 142 156 155 142 143 151 156 158 160 156 152 153 144 148 138 131 133 142 145 137 156 153 140 145 144 132 139 152 158 158 153 156 148 147 146 143 142 129 124 125 123 
88 84 79 76 76 74 70 66 91 82 81 41 32 35 52 78 80 80 77 74 73 75 70 79 69 73 63 57 77 65 67 77 41 52 70 74 77 55 54 48 39 35 46 44 35 35 34 31 34 40 46 32 27 24 55 56 46 48 37 31 29 27 22 78 76 67 83 86 88 86 36 43 46 31 28 24 25 26 30 24 28 28 29 48 45 36 24 27 36 37 36 89 91 44 44 47 81 81 71 82 82 48 37 58 18 23 32 28 28 31 27 23 24 26 24 26 34 34 62 83 74 45 27 29 56 61 71 46 46 38 84 93 98 91 82 85 82 65 67 71 69 78 78 75 72 61 63 53 81 76 56 53 51 65 70 67 40 37 38 31 33 68 77 55 32 34 35 35 43 42 48 45 34 27 28 29 29 29 31 36 39 44 37 42 31 33 38 84 89 95 95 94 94 93 93 93 94 95 95 95 96 97 97 97 98 98 98 98 97 106 106 102 99 131 114 119 141 145 138 131 108 104 118 127 126 124 127 102 96 96 95 90 122 90 94 97 122 120 119 112 161 157 138 132 136 92 91 99 48 45 54 51 46 45 45 44 39 39 36 36 37 36 40 41 48 44 47 51 53 52 82 100 118 63 57 49 120 113 125 120 119 119 120 120 121 121 121 121 120 120 120 121 122 122 122 122 124 125 126 126 126 126 127 127 127 127 127 128 128 128 129 129 129 129 130 130 130 130 130 131 130 130 132 132 132 132 133 133 132 133 133 129 127 125 164 178 168 153 150 154 150 148 152 164 165 165 164 141 139 133 135 129 148 144 130 123 112 114 122 124 122 167 168 164 135 137 138 125 154 145 130 136 133 131 142 149 107 103 110 112 109 144 133 126 139 140 150 148 146 137 131 147 142 127 131 135 123 110 109 117 135 131 133 103 110 130 125 126 119 112 130 129 121 116 116 118 121 151 148 149 144 143 145 145 137 141 141 131 120 125 126 157 158 149 150 149 151 140 141 149 149 150 155 160 152 148 151 161 159 158 149 146 146 142 135 134 133 134 142 159 154 153 143 142 148 133 134 157 160 160 160 162 150 150 154 151 148 135 123 122 130 
82 81 80 81 83 82 82 82 82 82 79 33 29 32 46 80 81 77 78 77 72 75 75 66 80 76 72 67 80 84 61 56 52 48 56 75 77 57 54 48 37 38 45 48 36 34 31 32 32 35 44 34 30 33 53 33 50 45 50 34 32 26 28 79 78 82 98 86 87 86 51 37 35 29 34 31 27 27 30 28 29 29 29 36 47 42 43 44 41 42 41 73 55 38 39 33 35 58 47 49 74 47 59 64 20 23 21 33 34 27 26 26 22 23 24 31 33 30 32 79 92 82 65 38 42 61 75 49 61 55 84 84 82 75 62 72 54 59 67 69 75 65 63 76 75 40 42 38 47 55 41 50 45 71 69 39 33 35 35 30 38 46 49 46 47 35 44 34 30 50 53 49 27 26 33 32 31 31 34 40 40 42 34 41 45 32 32 89 90 90 96 93 94 93 93 94 94 94 95 96 96 96 96 97 98 98 98 99 102 100 100 103 97 128 129 133 110 102 107 108 105 112 115 126 128 136 144 106 110 92 88 97 99 93 93 93 103 113 114 106 164 160 132 127 101 78 84 69 42 45 54 53 49 45 45 37 40 39 39 38 36 37 40 42 48 50 49 50 51 49 79 104 91 79 47 51 46 115 117 119 120 120 120 120 121 121 121 121 121 120 121 122 122 122 123 123 124 125 126 126 127 127 127 128 127 127 128 128 128 128 129 130 130 130 130 130 131 131 130 131 131 131 131 132 133 133 133 133 133 130 130 124 153 166 176 174 152 147 146 148 153 151 153 165 161 164 163 157 150 126 120 138 150 146 124 122 117 115 124 126 125 161 165 155 143 136 138 128 148 151 118 116 116 117 117 111 102 111 105 107 129 139 136 107 114 153 156 154 145 136 136 116 115 115 123 126 117 113 113 112 131 132 125 105 106 121 117 120 131 129 131 127 127 119 111 115 120 149 157 126 124 121 141 127 138 130 130 131 132 130 126 151 150 147 146 153 145 143 144 155 151 150 156 160 162 135 133 142 159 154 147 142 144 146 135 136 144 154 160 158 147 142 146 147 156 153 158 165 161 158 163 162 158 162 154 148 150 139 133 138 142 
83 81 81 81 82 82 81 80 78 79 79 77 31 31 26 84 78 79 80 80 72 78 79 70 78 78 69 72 80 80 83 50 66 73 67 69 66 62 82 64 49 49 49 44 58 62 36 30 37 36 43 39 34 34 35 32 32 50 49 35 29 27 28 25 83 83 96 82 87 84 51 28 22 24 37 37 35 30 29 27 32 30 32 33 29 32 46 36 44 41 34 42 53 29 29 37 37 39 45 41 42 38 43 58 25 22 27 32 33 24 25 27 30 26 27 33 25 29 27 85 81 66 61 51 69 72 65 61 55 47 55 75 71 65 71 72 67 62 65 60 66 69 64 48 42 38 34 38 32 37 39 33 45 71 68 56 36 33 42 50 43 51 43 43 53 52 54 50 31 35 33 35 25 25 34 32 30 32 31 38 38 35 31 36 42 34 51 88 90 96 95 94 94 95 95 97 97 97 96 96 95 95 95 96 97 98 100 101 102 101 97 97 93 133 127 127 111 96 99 105 109 109 87 90 96 152 144 111 111 102 112 102 90 89 92 98 103 106 106 156 152 153 134 126 74 83 81 73 54 46 49 49 48 48 44 38 37 36 40 39 39 37 38 44 48 51 45 49 50 64 117 106 81 78 78 48 52 54 118 121 120 120 121 119 119 122 122 121 123 124 124 124 124 124 123 123 124 125 126 126 128 128 128 128 128 126 128 128 129 128 128 132 130 131 131 132 132 132 130 131 131 131 132 134 134 132 132 133 135 150 148 144 141 145 175 169 150 145 145 145 151 156 163 158 167 164 159 153 147 151 146 142 141 151 117 116 119 122 122 121 140 120 136 150 136 123 123 142 143 120 112 111 114 120 118 122 116 107 102 111 106 122 113 115 110 155 160 120 113 117 119 123 113 115 122 129 117 112 112 113 109 125 123 107 119 113 112 131 128 140 129 129 140 142 133 137 136 142 139 131 124 127 124 128 129 128 129 132 129 130 131 139 141 145 145 152 159 149 146 155 158 155 164 162 156 133 134 130 111 115 147 148 143 138 143 139 140 149 160 159 148 141 139 149 146 157 160 162 163 159 161 160 161 160 160 157 138 136 134 137 139 
83 82 80 80 82 83 81 80 78 80 79 80 24 30 31 82 79 80 78 79 77 76 74 79 73 78 76 71 76 81 78 68 77 73 72 55 58 82 88 85 54 46 47 48 63 57 51 35 39 41 41 42 32 37 34 32 34 49 48 26 27 27 28 26 65 62 67 79 79 80 72 32 25 21 34 40 33 34 32 31 22 27 29 27 27 27 34 30 30 30 29 28 44 27 27 29 30 34 44 40 40 49 57 58 32 30 31 26 27 26 28 31 29 38 39 24 31 29 46 68 79 69 68 72 74 78 51 62 57 44 85 86 87 69 74 68 78 61 55 51 63 68 69 41 40 39 36 32 30 32 34 33 29 64 64 41 40 53 49 51 53 49 42 44 53 54 54 49 33 33 31 38 43 27 29 27 30 26 28 31 34 33 38 45 66 77 84 94 96 95 95 93 95 95 97 97 97 97 96 96 95 95 95 96 97 98 101 100 101 103 101 96 143 138 126 122 122 99 94 90 95 96 95 86 92 145 143 115 107 119 118 101 93 94 88 121 125 118 102 108 153 132 122 120 70 80 78 60 54 55 53 50 44 46 50 54 50 35 36 35 38 39 38 38 43 42 44 45 47 52 109 109 84 86 79 55 52 58 108 121 122 119 120 124 123 120 121 124 124 124 124 124 124 123 124 124 124 125 125 126 128 128 129 129 126 126 128 128 128 128 128 130 132 133 130 131 132 133 132 131 131 132 136 128 130 146 152 151 150 145 145 146 140 138 168 169 166 146 146 145 151 145 160 162 163 129 130 129 150 157 144 137 139 124 122 112 136 135 127 123 117 136 144 141 137 129 136 140 121 114 110 109 118 121 120 120 114 109 109 102 114 107 126 114 154 150 136 120 122 120 119 119 138 142 148 148 142 139 137 136 112 117 129 130 126 114 112 121 143 139 133 127 142 143 130 137 145 144 142 132 132 130 138 128 126 128 131 130 128 126 130 130 144 150 152 161 161 160 158 159 154 150 150 161 161 137 136 136 112 116 141 142 137 138 144 148 142 145 148 140 143 144 139 138 147 144 144 166 161 148 158 161 160 161 160 150 137 137 134 136 118 
83 82 81 81 83 83 82 80 76 75 80 80 26 25 23 27 81 82 77 74 81 54 53 74 70 76 77 66 58 67 67 67 76 75 75 54 54 78 74 84 73 50 48 49 39 61 43 30 27 38 42 30 27 24 34 34 31 44 40 25 31 30 29 26 58 58 55 74 74 76 91 41 24 35 41 43 43 38 30 28 28 28 30 28 26 28 26 29 30 33 28 29 26 25 26 27 31 25 32 35 79 71 54 46 45 45 42 25 29 37 35 37 32 35 37 36 44 55 74 80 79 76 76 78 81 54 51 51 35 34 72 71 75 57 55 77 75 76 58 55 55 63 42 44 40 40 36 33 29 33 35 31 38 40 29 27 33 51 54 32 46 51 31 36 45 55 39 41 51 39 38 42 41 43 27 28 29 27 28 31 32 33 45 87 97 97 96 95 95 93 92 93 95 96 97 97 97 97 97 97 96 95 97 96 98 100 100 100 102 103 100 97 146 143 141 128 103 105 97 94 90 94 116 113 155 153 136 136 121 132 107 99 88 86 134 137 130 107 99 120 118 122 120 121 74 84 81 56 58 63 48 44 43 52 57 58 59 46 34 34 38 40 39 37 39 42 43 46 47 51 104 100 87 82 84 89 84 63 60 64 119 122 122 123 123 121 121 126 124 124 124 123 124 123 124 124 124 125 126 126 127 127 128 128 127 128 127 123 125 127 129 131 129 139 134 131 128 127 129 130 128 131 138 124 145 149 153 148 149 146 147 150 141 145 167 166 166 139 144 127 144 138 151 155 126 132 132 134 133 132 134 147 128 130 147 131 136 116 126 113 117 137 143 139 142 136 134 118 119 121 114 109 107 107 107 108 108 110 111 104 172 167 165 159 155 137 135 133 117 118 160 147 144 141 144 146 138 137 129 131 122 114 133 130 117 118 139 143 142 139 122 124 140 134 129 126 143 145 136 128 132 140 140 143 138 141 140 128 127 128 130 127 148 152 151 156 161 162 157 157 159 156 148 157 157 135 133 139 140 130 136 140 142 149 158 156 146 146 146 135 135 136 129 130 133 144 150 150 143 143 145 145 143 143 142 139 137 135 133 128 129 
83 82 81 81 82 83 82 80 76 77 79 76 62 24 30 24 81 77 76 71 68 57 60 59 62 62 55 54 63 72 72 62 78 79 79 62 58 78 75 75 80 54 46 48 46 48 42 33 28 30 30 31 26 34 31 28 23 26 33 28 29 28 28 28 55 61 55 61 55 68 90 28 30 32 35 33 45 43 27 27 33 29 28 31 31 25 25 27 37 38 38 26 25 26 26 34 29 38 42 42 45 72 53 50 42 46 36 29 27 30 36 27 34 30 31 52 51 53 71 83 81 76 83 75 52 54 55 49 45 31 41 52 86 72 52 60 71 73 71 65 49 45 50 40 56 55 50 26 29 35 49 56 58 32 28 27 29 30 29 25 28 32 26 24 26 21 24 23 50 47 31 34 44 41 28 29 26 29 62 55 30 37 41 95 96 96 96 95 95 94 92 93 96 96 97 97 97 97 98 98 98 98 97 97 101 100 100 101 101 103 96 131 151 147 135 122 110 114 112 137 92 98 114 137 157 142 140 143 134 141 147 133 113 109 126 138 134 116 113 122 119 119 116 115 75 84 86 53 65 62 56 59 56 52 56 57 59 58 57 50 37 37 37 40 40 43 45 47 47 45 90 97 95 83 86 90 87 58 62 61 63 122 123 121 122 125 126 122 123 123 123 123 124 123 124 124 125 126 126 126 127 127 128 128 128 128 128 126 125 128 128 126 127 121 127 132 132 129 127 126 146 142 157 153 161 157 153 151 149 158 154 156 159 149 157 165 137 135 141 121 125 135 141 130 132 134 134 135 128 129 141 144 143 139 139 120 113 115 121 117 107 138 139 140 139 136 115 115 120 119 116 107 107 107 107 108 108 108 107 175 170 171 155 163 147 145 144 163 157 153 152 160 137 114 112 132 107 110 114 125 99 97 116 121 114 124 137 142 141 142 132 127 137 137 129 129 133 124 110 110 124 135 140 139 142 139 138 140 134 125 126 121 134 153 152 155 160 160 151 155 158 154 146 144 138 136 137 140 142 129 127 138 142 148 153 143 140 143 145 131 132 131 128 128 139 145 152 150 142 146 147 141 147 142 142 143 140 138 135 132 137 
83 82 80 81 82 81 81 80 80 79 79 80 78 69 23 31 25 82 79 71 80 77 72 73 75 79 74 58 69 78 72 67 75 81 58 62 72 74 81 81 80 65 67 71 53 48 51 52 50 25 26 48 49 34 32 28 25 27 41 29 28 24 25 24 53 54 54 56 58 53 52 38 39 31 29 26 52 55 59 62 34 25 28 33 31 25 26 34 35 38 37 33 29 29 34 35 25 36 41 48 47 52 39 53 29 25 26 31 29 29 28 28 28 30 42 51 61 31 38 72 59 61 72 69 67 46 53 43 46 35 47 80 57 75 85 79 71 70 70 59 53 46 63 60 53 59 59 38 30 43 41 36 53 44 26 30 31 27 26 28 28 27 24 24 25 22 25 30 35 32 24 26 27 41 48 25 28 45 69 77 55 45 70 95 94 95 95 96 98 99 99 99 96 96 96 97 97 99 99 98 98 97 98 99 101 102 101 102 103 98 96 141 144 154 154 143 146 147 142 140 104 101 96 132 151 155 154 155 144 153 151 137 109 111 116 126 125 124 123 114 115 113 102 99 86 87 95 53 60 60 55 65 72 73 58 50 53 57 55 54 55 35 38 39 40 43 45 46 46 44 76 87 99 92 85 87 89 66 73 62 56 116 125 122 121 126 127 121 123 123 123 123 125 125 125 124 126 127 127 127 127 128 127 129 128 128 128 123 127 129 130 126 121 125 132 125 130 134 134 162 166 158 153 140 158 153 152 151 157 161 163 156 146 148 149 134 134 137 126 121 121 146 150 130 130 132 135 125 130 151 145 137 128 133 132 126 111 121 119 111 96 140 129 126 118 120 120 112 121 118 116 111 107 106 108 108 104 105 107 171 176 145 146 151 153 166 162 155 157 159 154 116 122 115 110 114 102 106 120 126 97 101 105 107 100 97 137 137 144 140 127 127 136 137 134 133 139 123 108 107 123 142 144 140 140 135 137 141 145 117 118 125 131 154 153 153 156 149 150 153 148 151 142 141 140 129 139 140 146 132 129 131 145 147 145 138 136 141 141 131 132 132 129 127 125 150 152 149 149 144 144 145 145 144 143 142 142 130 133 131 140 
83 81 80 80 82 82 81 80 80 78 77 78 79 78 37 30 28 82 80 81 79 78 79 72 68 78 86 74 73 76 75 73 63 74 57 61 68 64 83 88 46 48 57 54 44 47 53 56 62 36 34 53 50 44 38 28 27 41 61 55 27 22 23 23 44 53 67 62 60 48 43 40 35 35 30 28 45 56 63 71 53 26 27 35 31 27 27 25 34 31 34 33 29 28 31 26 25 24 29 49 49 51 39 39 33 25 24 30 29 28 27 25 47 42 43 53 31 31 35 71 73 59 64 68 64 41 37 43 76 74 66 74 73 80 85 79 87 67 60 43 54 58 59 60 54 57 65 67 45 37 43 26 42 44 47 29 26 30 30 32 31 27 28 25 51 51 27 23 23 27 27 25 33 46 46 38 36 40 66 76 91 97 91 90 93 93 95 96 97 98 98 98 97 97 96 97 97 99 98 99 99 100 101 101 102 102 102 102 103 97 133 146 151 155 145 144 149 152 148 129 127 102 157 154 147 152 152 147 153 151 152 116 106 160 165 163 160 143 135 99 98 91 95 103 111 117 87 49 46 40 42 70 73 73 81 44 48 41 42 56 55 56 44 38 40 40 40 43 45 44 62 99 101 94 90 85 102 84 79 51 51 54 116 125 126 124 123 127 124 123 124 124 124 125 125 125 126 127 127 127 128 128 128 128 128 127 127 131 132 131 123 125 121 135 176 173 179 161 160 172 164 148 150 144 158 154 149 151 156 166 164 157 150 155 159 137 138 135 128 133 140 140 137 139 132 128 120 122 126 148 149 134 132 132 125 138 130 125 93 103 159 149 121 121 120 118 119 121 121 120 116 116 119 110 110 121 103 106 175 169 154 145 154 156 153 156 165 143 153 136 109 112 118 112 109 107 106 102 126 130 132 107 100 103 101 106 107 108 128 124 124 123 125 128 135 136 146 139 131 130 139 141 143 144 134 134 133 142 144 119 117 127 132 149 152 138 128 136 134 147 145 146 135 142 148 151 151 147 142 141 145 143 143 144 143 140 139 130 115 117 135 134 128 126 125 122 122 144 142 135 134 139 139 131 128 129 135 133 130 141 149 
82 81 80 80 82 82 80 80 80 79 78 77 80 82 69 32 39 28 75 79 80 78 77 71 65 85 81 84 73 73 73 69 71 80 89 59 64 61 51 47 44 40 48 44 43 49 54 62 59 55 52 52 49 47 59 65 60 53 67 71 27 28 24 23 31 74 73 65 58 42 44 36 35 37 33 40 60 65 69 89 98 28 28 47 31 29 27 28 29 29 35 34 28 28 28 29 25 25 26 40 45 42 49 79 32 35 28 27 28 30 28 31 45 49 22 26 26 60 71 68 67 55 62 62 63 42 39 68 70 76 57 55 79 76 66 92 83 76 43 42 39 65 60 46 53 43 54 62 39 31 28 28 29 43 45 29 27 31 32 29 31 30 38 40 59 63 28 20 22 27 27 26 28 45 46 37 38 31 32 84 96 96 95 89 94 94 96 96 97 97 97 97 97 97 97 97 98 98 99 99 101 101 102 102 102 102 102 103 96 95 131 139 136 154 147 149 159 164 159 133 154 147 149 157 150 127 127 130 149 140 147 135 145 165 159 164 156 149 90 89 89 92 98 121 120 119 90 43 40 39 36 49 58 75 81 42 40 40 41 47 57 55 47 46 41 37 39 38 43 44 64 102 96 94 102 105 102 81 80 51 55 49 52 124 125 124 123 128 125 125 126 126 127 126 128 129 129 128 127 128 128 128 128 128 133 130 131 134 133 124 120 128 182 176 174 173 178 170 165 173 164 151 137 170 161 154 148 159 156 160 163 158 155 156 160 135 137 135 127 135 133 133 131 133 109 116 120 121 125 138 143 137 128 136 134 135 128 105 96 132 143 125 131 148 148 123 121 123 116 115 114 118 122 133 138 144 162 168 167 154 143 140 148 147 149 125 124 139 139 103 100 108 107 105 110 109 104 110 133 132 125 124 122 126 129 113 102 110 121 123 124 124 124 126 149 146 144 130 130 129 133 130 127 125 133 135 139 143 135 134 137 137 135 146 143 125 125 130 134 137 138 134 133 130 136 135 159 144 135 138 147 138 130 123 119 132 129 122 117 114 128 135 128 125 139 121 123 148 139 131 139 143 134 136 125 128 128 150 148 149 144 
82 81 81 81 81 82 80 80 80 82 78 78 80 79 80 67 34 26 77 78 78 78 78 75 65 68 86 78 74 73 79 66 68 88 81 56 54 58 43 47 32 33 42 39 45 47 43 65 63 71 69 52 48 45 62 59 60 62 66 67 32 29 26 26 75 72 69 78 67 34 39 39 36 37 29 26 39 37 57 96 95 27 28 56 42 32 27 29 26 28 32 42 44 42 43 46 39 26 25 27 34 35 74 104 29 29 32 28 25 45 73 51 28 28 29 27 45 48 68 67 53 57 67 56 50 56 40 29 79 72 72 60 78 79 49 41 86 72 51 44 45 63 64 57 32 30 59 57 63 24 28 28 32 36 36 27 30 27 28 29 29 40 68 54 66 54 36 32 30 26 26 27 27 26 25 25 32 31 30 46 94 100 96 96 93 94 95 95 96 97 97 97 97 97 97 97 98 98 99 100 101 101 102 102 102 103 102 101 99 115 138 124 143 133 148 108 163 160 157 168 149 154 146 141 143 126 129 139 141 144 137 139 153 161 164 157 92 94 94 95 92 100 105 120 127 105 63 42 44 37 55 50 53 69 63 40 40 40 43 46 43 48 45 48 41 38 37 35 42 45 48 99 100 95 100 100 100 67 78 62 49 54 52 58 121 124 126 125 126 125 126 127 127 128 127 128 129 129 129 128 128 129 129 130 133 135 134 133 124 121 125 193 179 178 175 171 116 134 147 149 182 181 175 171 147 144 139 155 161 137 134 134 129 139 131 134 132 134 131 134 129 128 126 132 108 104 119 126 126 122 135 132 126 124 134 125 112 113 134 134 131 133 133 148 146 143 138 118 116 114 112 117 121 130 135 129 157 172 146 139 138 144 144 147 146 121 122 121 107 103 107 106 107 105 112 116 113 126 134 131 124 125 121 123 125 124 125 124 114 121 121 120 122 127 151 150 142 134 130 131 133 130 130 129 124 138 140 132 135 136 145 143 137 141 145 123 121 135 137 137 128 131 132 134 132 125 128 128 127 136 141 124 133 123 113 116 118 122 123 123 128 116 121 146 145 142 119 120 147 148 152 147 146 148 137 125 120 152 154 128 143 
83 82 82 82 82 81 81 81 80 81 83 77 76 79 77 73 28 29 34 68 77 76 76 80 80 66 53 39 79 83 84 72 72 75 85 71 53 55 36 33 31 31 36 37 41 40 34 49 45 67 73 66 71 64 67 84 83 68 67 81 84 32 32 29 62 80 82 57 70 31 25 37 42 39 34 26 33 42 49 49 77 25 25 62 64 54 50 48 44 26 23 47 44 43 46 47 55 30 27 31 29 32 100 55 39 29 27 76 87 74 59 56 26 32 35 29 35 48 62 74 67 58 67 66 51 56 40 46 69 66 62 73 76 56 37 36 38 76 80 74 65 58 59 44 29 34 36 39 58 46 43 29 29 38 35 32 30 28 32 28 32 60 53 75 52 47 44 32 30 25 26 25 25 25 26 25 27 29 34 48 50 47 91 95 95 97 97 95 97 98 97 97 98 98 98 99 100 100 100 101 101 102 101 102 102 102 102 101 97 153 130 125 121 121 117 110 126 154 168 163 163 145 140 136 160 157 144 140 143 136 132 142 149 162 139 88 84 86 85 98 103 107 110 109 71 71 78 43 46 58 58 56 65 59 45 48 38 41 43 43 42 49 48 44 43 44 37 37 42 44 44 103 98 94 93 99 101 75 65 71 70 53 54 55 93 129 125 124 125 128 129 129 127 128 128 129 129 130 130 129 129 129 130 129 133 133 131 130 123 121 202 194 176 173 168 140 125 164 159 156 179 185 167 149 147 136 127 126 139 146 140 132 138 129 132 136 136 129 131 132 128 125 131 129 122 120 122 123 114 112 116 125 126 125 126 126 132 137 126 120 145 145 140 143 149 146 135 129 129 118 118 119 125 124 128 138 131 137 140 138 138 142 140 135 123 128 121 116 112 107 108 107 118 114 117 124 123 118 125 132 131 122 119 114 125 126 126 125 126 141 149 145 145 129 145 148 126 125 123 125 127 133 130 119 121 135 137 135 134 145 143 144 135 137 143 117 123 134 137 132 124 127 136 135 136 119 129 128 128 121 111 114 117 111 110 116 117 117 129 122 118 116 114 140 143 150 135 119 135 147 153 155 156 153 151 124 130 142 146 133 107 
83 83 82 82 81 82 81 81 81 82 82 80 80 80 80 76 31 32 29 54 78 81 82 77 80 83 41 48 40 67 80 73 72 87 79 62 53 47 36 33 33 31 30 24 26 34 32 30 54 53 44 65 74 69 65 69 88 66 69 81 83 39 36 28 74 80 56 55 43 27 25 30 36 29 32 31 37 37 43 44 57 22 24 36 46 28 42 51 39 25 62 54 39 39 39 51 44 44 39 32 31 30 77 87 53 61 62 77 98 49 24 28 28 32 31 39 76 81 76 74 68 54 47 54 68 89 65 67 57 59 58 62 54 51 38 34 40 88 82 73 73 56 55 48 49 33 32 33 35 31 29 28 26 33 34 37 27 24 26 37 39 46 54 67 49 43 30 32 32 28 27 27 23 23 26 26 29 29 36 36 30 31 48 69 71 95 96 96 99 99 98 99 99 99 99 100 99 100 101 101 102 102 103 103 104 103 100 99 102 152 160 125 130 129 123 143 121 135 157 157 159 150 142 148 155 161 155 135 136 141 147 100 94 93 88 83 82 81 91 97 102 105 98 98 66 62 70 44 42 58 55 57 64 62 53 50 58 41 42 43 60 58 48 49 50 53 39 42 40 43 42 104 109 94 104 106 75 66 60 75 73 57 56 57 51 122 131 125 126 128 129 129 129 128 129 129 130 130 131 127 128 128 130 129 129 125 128 127 125 131 194 203 159 175 167 149 147 153 162 141 141 158 163 146 144 139 129 128 146 151 149 139 133 133 134 139 137 126 126 126 115 115 127 125 121 121 120 121 112 106 110 130 128 127 131 123 143 139 125 114 109 150 142 141 132 130 127 127 126 137 128 131 123 122 132 127 134 139 140 139 138 150 141 137 122 111 116 117 115 107 101 101 121 122 127 124 122 119 130 132 119 119 115 120 123 125 126 127 124 128 139 148 142 153 147 130 134 130 131 129 136 130 133 118 126 130 136 134 133 138 139 134 137 136 123 111 108 118 131 131 125 124 129 141 151 151 145 138 119 115 115 117 114 114 109 111 115 115 118 135 134 114 117 125 146 147 128 120 140 138 163 163 157 158 152 142 138 134 96 92 75 
83 83 82 82 82 81 81 81 81 81 82 80 80 80 78 79 78 28 30 26 46 84 81 79 79 81 84 38 38 35 57 70 77 85 76 77 66 49 58 36 34 30 28 26 26 36 31 31 47 45 37 43 45 63 42 42 75 75 61 73 51 36 30 30 31 46 56 59 31 23 27 35 30 35 31 64 45 40 34 28 33 26 27 37 36 35 36 38 64 55 53 60 33 32 31 39 39 39 42 36 36 39 49 34 28 50 59 18 22 27 23 27 36 30 33 41 84 83 83 72 74 50 44 53 94 89 74 69 56 55 63 54 48 50 47 51 59 79 84 88 82 46 52 48 51 37 36 32 34 35 32 29 28 30 30 39 54 21 26 30 53 48 44 49 57 42 42 35 39 34 34 26 23 21 26 28 32 31 33 31 27 29 38 43 80 100 99 97 98 99 98 98 100 100 99 99 100 100 101 101 106 105 104 103 106 101 101 100 125 148 149 131 131 130 126 138 142 142 152 155 109 111 116 125 141 141 124 141 146 84 89 93 99 101 89 89 85 85 109 110 100 109 102 101 68 71 65 41 40 62 59 59 66 69 53 51 56 42 36 40 71 74 48 51 54 53 51 43 41 41 39 110 101 98 109 104 65 66 77 74 73 55 56 56 53 55 129 126 127 126 128 128 130 130 129 123 127 130 129 125 124 126 127 131 139 155 155 168 144 149 163 150 144 150 138 138 150 136 139 138 153 158 150 142 139 148 149 149 152 151 151 134 133 133 131 137 134 137 125 124 110 108 123 129 108 118 122 123 126 110 104 115 135 133 114 118 150 147 118 114 114 162 165 157 133 131 126 124 124 138 139 141 110 105 127 132 148 150 149 146 151 149 151 112 110 110 130 129 124 106 104 106 111 125 127 122 120 141 135 124 126 134 129 123 127 128 130 128 121 131 130 133 119 144 128 122 127 133 138 129 129 140 140 141 126 130 132 136 135 129 127 129 143 143 135 111 110 112 124 129 134 135 135 142 154 151 150 125 119 122 120 132 123 111 111 123 114 120 123 144 144 123 130 133 131 145 135 136 140 136 157 154 161 162 136 119 118 111 94 92 99 
84 83 82 83 82 82 82 82 83 81 82 82 81 77 77 78 79 75 25 31 31 75 81 83 78 78 81 95 94 31 38 28 81 84 85 77 68 66 57 51 60 41 45 37 40 43 40 41 42 36 35 33 40 51 55 53 43 50 41 34 27 24 29 29 26 51 56 70 47 36 29 27 26 28 55 117 97 37 31 33 28 31 31 34 36 32 45 79 71 60 49 30 34 34 38 33 31 31 44 41 56 78 47 40 31 34 31 28 21 28 29 28 40 41 51 69 75 80 76 79 81 79 70 58 96 92 79 81 75 63 61 50 44 46 43 53 57 75 86 93 88 72 44 49 48 37 34 32 36 38 56 44 43 32 32 63 60 56 28 35 42 55 45 40 27 26 43 39 39 39 37 36 24 21 26 26 24 34 35 27 27 29 34 36 88 99 98 95 96 97 96 101 100 100 99 100 100 100 100 102 106 105 104 105 105 100 98 102 133 137 139 139 128 124 122 131 129 125 121 112 110 110 117 116 143 146 140 127 95 88 94 95 100 97 91 87 98 93 106 109 109 95 102 100 73 72 35 36 39 67 68 64 66 66 52 54 59 58 42 45 36 78 58 51 52 54 52 52 49 41 34 104 100 99 91 96 85 71 72 76 78 71 55 53 51 51 133 131 128 127 125 127 129 130 124 122 121 127 125 133 157 171 168 168 163 161 163 161 145 148 151 144 140 143 134 141 139 130 128 133 163 162 162 141 144 154 150 152 150 145 144 133 132 134 132 131 136 134 122 112 98 100 119 110 102 120 125 133 144 101 102 115 142 141 121 120 121 136 130 134 147 163 163 147 143 143 141 127 124 122 135 97 99 131 130 123 145 150 147 148 145 151 121 102 106 133 131 128 127 118 113 115 124 130 128 131 130 143 143 132 127 128 133 127 121 130 129 95 86 127 120 106 113 127 121 126 130 141 138 126 129 139 142 130 131 140 137 138 137 131 127 126 138 135 133 116 115 106 101 134 136 135 132 133 133 151 150 137 122 121 138 139 129 115 113 139 123 130 128 138 141 142 146 144 136 140 136 136 134 135 147 131 130 136 133 125 115 136 117 96 92 
83 83 83 82 82 82 82 82 83 82 82 83 82 77 77 81 81 81 74 39 39 60 81 79 76 77 78 93 96 74 28 36 30 38 47 44 39 32 37 51 56 53 54 65 68 46 47 68 38 38 35 36 46 49 52 46 48 54 49 30 27 27 25 25 39 55 61 53 81 80 27 27 26 32 46 117 122 41 39 36 32 33 30 29 29 31 76 86 84 52 44 26 24 38 37 41 31 31 54 56 63 66 76 41 34 37 29 26 29 24 27 29 41 46 52 64 71 71 65 73 65 82 66 57 95 91 79 77 66 43 64 56 50 33 38 45 55 82 85 85 67 66 60 48 43 33 31 30 27 46 60 48 46 23 24 23 52 63 67 80 61 95 85 36 21 28 34 32 34 38 38 32 27 26 31 25 25 32 33 30 30 32 36 33 44 90 94 96 96 96 98 101 100 101 100 99 100 100 101 102 104 105 104 107 101 101 106 132 124 137 133 144 150 126 135 136 127 129 125 110 109 111 117 123 126 149 146 85 88 92 105 92 102 99 97 106 104 106 105 101 99 92 89 62 68 70 37 41 39 68 68 58 54 61 56 56 52 62 55 44 69 85 73 52 48 52 52 52 55 36 39 50 101 92 94 101 101 71 80 79 78 79 50 51 59 53 78 125 127 130 129 130 121 120 135 155 162 152 139 150 164 172 171 158 153 161 144 152 138 151 149 143 141 141 145 132 129 135 130 134 161 162 156 155 158 155 151 148 153 140 139 132 131 133 130 132 103 103 93 89 91 92 102 106 130 139 132 131 130 86 90 142 143 143 125 127 128 129 136 145 143 144 155 146 149 145 138 120 119 118 133 103 120 124 109 112 134 130 133 134 137 116 114 104 107 126 128 132 112 117 118 117 122 128 131 133 125 134 146 114 102 81 75 90 96 107 99 93 95 95 109 105 117 127 133 122 119 138 148 72 85 92 130 131 158 153 139 139 136 135 132 123 136 138 136 136 116 100 98 123 120 134 134 133 137 141 146 142 144 133 132 147 150 141 146 148 153 129 132 123 120 147 143 143 144 117 122 134 130 132 148 135 129 136 135 134 128 130 129 115 129 
84 83 83 83 83 82 83 82 82 82 83 83 83 85 81 82 80 79 76 44 30 25 59 79 80 81 81 75 95 80 76 35 31 26 53 58 35 35 37 50 49 46 44 71 71 61 62 73 73 61 42 35 35 26 27 26 43 55 52 34 31 27 24 27 30 40 49 52 102 106 44 29 31 30 39 40 38 37 34 29 33 30 33 27 27 41 42 83 87 68 70 25 28 30 36 44 37 48 54 45 44 63 53 36 41 27 25 25 29 25 27 33 70 78 84 89 90 76 70 70 73 63 64 84 92 91 74 74 44 42 40 61 64 36 34 56 55 76 69 62 61 58 58 43 36 33 27 29 26 52 61 33 27 27 24 25 34 64 82 84 75 84 81 66 35 36 29 30 29 28 32 30 29 41 41 29 29 29 28 27 46 40 36 37 48 80 97 96 103 103 99 98 101 101 100 100 101 100 101 102 107 105 106 108 96 96 112 136 145 136 144 156 153 134 130 124 128 128 128 124 121 122 121 121 120 116 88 92 92 94 83 95 102 102 95 100 107 99 102 93 92 92 83 57 53 63 39 36 64 66 70 51 50 62 79 63 60 59 49 53 81 72 72 58 48 53 52 54 53 56 41 37 45 99 103 98 101 75 75 81 78 76 48 51 52 52 49 129 132 125 120 124 122 169 164 160 150 142 126 127 131 165 166 165 140 137 140 140 132 131 138 139 144 143 149 135 128 132 133 139 156 150 144 155 158 156 150 152 148 137 133 131 130 134 131 114 102 100 95 89 88 93 103 107 144 144 142 136 131 84 77 140 141 146 148 142 127 134 136 147 147 143 156 163 150 130 128 123 120 124 91 95 104 117 113 120 131 131 134 135 135 113 112 112 110 145 147 97 89 115 108 100 74 69 126 125 113 95 82 80 83 81 79 108 103 96 94 101 98 103 113 111 113 124 126 133 132 127 97 86 72 130 157 154 155 148 132 133 140 144 131 126 135 136 137 134 128 100 100 116 118 141 142 149 141 139 142 140 146 143 144 146 146 146 149 152 153 150 147 119 118 141 138 132 114 111 123 129 130 132 119 124 132 136 134 132 124 116 115 122 154 
84 83 83 84 82 82 83 83 82 84 84 83 82 85 86 82 82 81 64 59 28 32 28 33 83 80 77 78 82 75 74 39 30 29 57 51 55 46 39 57 49 49 54 67 72 72 70 76 74 70 50 48 29 27 27 29 36 49 36 36 30 28 30 30 30 36 48 45 104 105 28 29 32 30 48 41 38 42 30 29 36 36 38 31 37 41 48 70 115 81 69 41 41 55 45 48 27 26 40 43 42 47 44 36 31 31 23 24 32 33 28 31 53 75 86 90 87 85 87 87 81 82 66 78 79 65 73 71 49 41 45 60 60 52 65 60 62 70 69 62 60 61 64 62 23 28 28 31 26 62 62 32 26 26 25 25 41 91 84 89 46 44 81 80 81 39 41 34 27 28 30 29 27 44 41 43 30 29 30 32 67 72 41 42 96 102 101 100 103 103 99 99 102 102 101 101 101 101 102 103 106 107 108 108 98 98 101 137 139 142 132 152 136 125 126 124 127 128 128 122 122 123 125 127 117 95 93 89 93 92 87 92 103 103 91 93 92 89 94 97 85 88 86 52 62 61 47 36 73 69 57 51 56 91 88 58 56 64 49 56 80 78 59 60 52 56 55 52 53 47 39 40 39 100 104 107 102 84 72 61 66 71 64 49 47 49 50 129 126 120 120 119 171 171 167 155 145 134 130 130 128 155 160 154 135 129 140 138 139 129 128 145 143 147 150 142 143 147 148 143 143 148 145 145 155 157 155 152 127 133 132 134 131 128 126 95 102 106 108 111 111 112 124 128 141 144 136 138 131 96 88 140 142 143 145 136 141 143 128 129 138 140 162 166 158 129 127 126 125 130 97 104 111 138 132 122 118 133 133 135 114 111 115 112 134 143 127 81 78 118 121 77 66 64 92 117 104 99 87 81 78 75 87 97 106 89 94 92 129 127 111 109 170 169 159 139 140 126 116 148 148 151 158 150 155 132 133 142 140 143 125 133 129 130 125 127 124 105 106 120 119 123 143 148 148 145 142 149 141 142 143 141 146 149 154 155 150 152 150 133 135 143 143 108 108 117 125 107 105 108 128 134 128 131 133 134 130 114 114 104 146 
85 84 84 83 84 83 83 82 83 87 86 82 82 85 84 75 65 67 59 73 76 29 30 29 73 81 79 81 77 65 63 57 33 34 36 54 54 50 61 62 62 57 58 68 73 73 65 62 77 78 57 60 43 41 27 27 102 112 112 37 28 32 29 31 33 33 31 42 37 31 35 34 27 31 37 41 40 43 35 41 37 32 41 31 33 38 45 72 117 96 37 37 53 51 47 36 24 29 28 44 41 40 44 31 54 50 56 27 26 35 31 34 36 75 85 85 86 88 85 87 86 73 77 77 77 72 74 75 81 72 44 43 50 39 68 71 49 55 44 68 65 64 63 62 26 23 29 23 26 36 57 39 30 26 28 27 86 94 92 63 40 29 55 86 82 47 27 25 29 28 26 26 26 37 42 28 27 28 30 34 95 102 63 95 96 102 103 100 99 103 102 102 102 102 102 102 101 101 102 103 107 106 104 106 106 98 119 140 130 124 110 129 138 136 120 124 126 130 127 121 122 123 124 128 125 97 93 94 94 97 99 93 91 93 97 92 91 91 93 100 95 90 88 50 55 45 48 75 73 72 39 43 45 95 98 56 69 70 59 53 78 76 58 54 54 69 59 44 42 46 45 40 43 38 90 100 97 93 95 55 48 64 72 73 50 51 55 55 123 123 122 159 167 171 154 151 137 138 134 134 141 153 157 142 146 129 130 126 131 127 130 146 146 145 129 131 144 150 154 138 141 149 149 145 154 156 145 133 134 130 131 133 130 127 125 97 100 107 107 111 109 111 130 133 130 132 136 134 117 115 98 145 139 144 142 136 145 151 127 125 136 143 160 159 128 118 127 126 127 102 109 100 130 134 122 78 93 127 128 105 96 111 109 86 60 50 50 74 95 120 66 67 71 51 55 49 81 100 89 82 83 89 97 77 59 63 84 89 126 131 127 165 162 165 153 135 136 137 153 147 139 135 147 149 123 122 131 138 134 122 122 131 131 130 124 125 127 123 113 118 128 131 135 148 150 148 135 140 147 143 140 140 160 156 154 153 138 143 138 134 141 140 143 116 112 104 93 89 130 117 129 130 134 134 134 133 132 126 125 103 131 
85 84 84 84 83 87 87 85 85 86 84 83 84 72 69 58 73 69 74 74 78 77 41 36 38 31 84 81 68 65 64 63 60 62 34 52 52 46 58 66 64 65 63 41 71 76 68 63 81 79 81 41 42 50 58 49 76 110 111 37 27 26 30 30 36 31 33 34 38 38 34 33 34 29 33 28 27 46 47 38 36 28 27 30 37 40 47 89 119 65 33 45 39 51 24 30 37 31 33 42 36 31 30 26 29 32 34 34 32 42 34 36 42 40 78 85 85 86 88 88 55 61 76 83 82 81 79 84 79 68 59 29 37 57 64 51 55 53 48 44 65 65 63 32 36 29 22 23 37 29 58 33 26 26 26 26 59 90 86 75 37 36 44 67 78 34 27 27 30 26 25 26 28 30 28 27 26 28 34 98 96 100 98 100 100 101 101 101 101 100 100 101 103 103 104 104 103 103 106 106 106 107 104 105 106 110 138 147 109 112 115 116 141 140 123 123 126 126 127 122 122 121 126 126 128 99 100 97 104 103 102 91 96 92 92 94 88 88 99 92 99 92 87 41 44 43 45 71 65 69 43 40 87 90 93 69 80 70 47 53 77 74 55 53 64 70 66 60 44 44 61 42 39 39 48 86 103 104 104 42 39 66 54 77 77 56 57 59 73 161 170 169 174 146 153 142 145 136 141 140 148 152 130 146 120 127 126 126 124 133 131 142 144 140 131 130 133 156 155 156 142 148 148 151 153 153 130 134 130 130 128 133 131 121 122 121 104 107 106 104 109 110 107 130 132 133 134 133 127 95 100 150 142 136 135 147 147 147 125 129 138 145 158 146 128 122 120 136 118 114 105 123 106 112 111 89 91 112 118 80 87 84 70 68 69 59 61 68 86 77 65 69 64 56 50 56 70 81 84 152 137 104 98 68 57 57 86 112 136 131 137 150 161 127 127 130 132 137 151 154 131 129 140 142 128 119 127 133 120 113 96 137 135 133 124 126 134 132 139 125 129 133 129 141 142 140 139 139 155 157 150 147 155 161 159 131 124 139 139 136 139 140 135 125 98 91 86 131 129 117 125 135 130 131 135 130 124 117 118 101 105 
86 85 87 88 86 86 85 87 75 69 67 70 73 70 80 81 71 79 78 77 80 81 78 44 32 31 29 60 70 70 67 63 74 79 30 40 47 51 34 43 43 36 29 30 36 45 67 75 79 81 81 43 43 40 61 67 61 73 77 37 29 29 29 33 32 46 33 32 35 32 31 34 29 34 25 30 41 32 38 38 28 31 27 25 34 71 107 104 63 59 33 39 44 26 27 42 38 45 60 65 32 28 30 28 27 33 32 31 39 61 58 61 37 44 57 49 51 49 49 50 54 82 85 83 84 90 90 89 79 71 38 38 37 56 62 43 56 60 43 41 71 66 68 31 30 54 60 55 34 34 48 53 27 26 29 54 69 69 82 68 62 58 55 63 26 27 25 44 31 34 26 25 26 27 28 24 31 30 33 99 96 97 96 100 101 101 101 100 100 100 101 100 103 103 104 104 103 105 106 109 106 108 106 103 104 110 123 115 112 113 118 119 147 140 130 126 120 125 123 124 120 121 122 129 128 104 103 100 105 99 101 98 96 94 93 91 98 91 85 100 93 93 89 41 46 44 47 67 68 67 47 42 64 68 78 77 77 69 55 57 71 71 58 59 70 71 62 60 49 50 70 48 46 44 41 58 91 104 115 41 50 46 61 63 78 56 60 55 119 165 164 168 135 128 138 142 147 148 145 137 135 128 123 122 119 120 129 131 134 130 151 145 140 141 130 132 147 157 156 154 125 123 142 139 152 148 124 132 132 130 130 132 129 125 122 116 109 105 103 102 105 109 120 130 130 135 136 135 102 97 95 154 142 133 133 137 144 140 123 121 142 149 153 161 140 136 143 143 147 144 134 131 98 101 118 129 109 110 93 91 96 96 76 64 77 60 58 122 116 120 52 54 156 150 159 161 160 159 156 157 155 154 158 162 163 163 160 158 158 151 151 149 141 125 129 127 135 139 144 136 130 129 133 127 128 144 147 139 133 125 131 141 134 132 135 123 123 140 145 131 120 124 138 139 140 138 143 160 154 156 138 133 128 126 118 115 127 119 125 118 119 131 137 133 106 87 90 110 136 119 130 129 127 129 136 138 119 118 118 113 104 
82 85 88 88 87 83 77 75 72 71 67 67 66 84 83 84 82 86 86 81 77 81 81 72 32 29 34 38 60 73 67 69 76 86 87 28 32 41 35 58 52 25 23 26 35 46 60 75 79 82 86 88 40 44 43 60 59 62 74 73 35 30 31 33 29 61 46 88 59 38 28 37 37 28 31 52 30 32 34 29 24 25 27 35 42 59 92 87 42 50 36 34 31 27 78 33 38 43 68 34 25 31 29 26 33 30 32 33 60 68 76 80 86 90 42 45 51 56 55 50 52 80 86 84 83 90 90 89 83 72 42 62 70 60 48 41 36 34 32 34 74 86 90 91 49 60 61 58 39 33 28 24 29 32 43 77 80 50 58 50 65 61 41 31 23 27 26 43 31 25 26 27 26 26 29 36 31 32 33 100 96 96 96 100 101 102 102 102 101 100 100 101 103 103 104 104 104 105 107 106 108 108 107 102 111 122 120 117 117 117 117 117 126 131 129 130 125 128 128 128 125 123 118 126 131 103 98 103 104 99 94 98 96 119 88 94 100 122 94 96 96 91 94 42 52 55 54 63 66 46 52 48 66 67 61 81 79 73 69 70 60 63 68 79 66 58 60 62 65 73 69 59 55 42 44 41 60 108 107 52 62 73 68 69 83 79 56 51 170 162 158 158 124 123 127 145 145 154 160 134 129 126 131 130 120 128 128 134 139 138 154 154 142 145 146 150 157 162 160 158 121 123 138 136 136 136 113 112 132 133 133 133 128 126 120 101 104 104 101 100 106 106 122 129 131 131 138 141 99 101 99 155 146 138 138 146 148 141 116 118 139 146 154 137 129 137 140 145 146 143 145 83 91 113 143 139 103 103 96 97 104 86 75 78 166 147 117 124 109 102 148 158 159 162 157 158 159 157 157 157 157 158 156 160 165 164 159 157 157 153 153 154 145 121 122 143 143 139 138 136 131 138 137 128 128 139 144 146 116 117 120 132 134 134 136 125 122 138 143 128 141 151 144 138 138 135 154 155 158 147 136 133 134 126 121 120 119 125 127 130 131 138 135 128 137 124 113 117 107 102 136 131 127 136 137 126 124 120 118 117 79 
82 85 87 87 87 83 77 72 70 78 88 87 86 87 82 82 84 85 85 83 82 84 84 87 83 45 32 32 27 22 44 78 82 82 72 57 27 28 32 63 61 53 39 71 78 80 81 81 77 73 87 84 80 44 47 56 61 59 71 61 35 29 29 35 34 73 80 84 41 43 39 34 25 26 100 95 31 37 39 29 34 24 25 36 41 33 68 31 38 34 53 54 60 82 77 49 42 26 26 24 24 31 33 28 45 44 42 51 82 80 82 82 87 83 87 88 79 77 78 85 85 80 78 87 87 85 86 87 72 71 71 77 77 57 55 53 51 35 31 32 80 81 90 87 69 67 56 38 27 30 27 25 20 47 59 72 59 47 42 39 52 31 25 21 26 25 29 38 31 25 26 31 32 33 34 38 33 34 35 100 97 99 101 103 102 102 102 102 101 101 101 101 104 104 104 104 105 105 106 108 108 108 107 110 113 128 118 125 120 117 116 119 122 129 131 131 131 128 125 130 129 124 119 116 95 99 108 103 110 106 93 91 106 126 135 102 120 118 90 87 104 104 99 44 53 55 58 59 67 57 54 67 69 67 59 59 71 67 75 71 60 56 88 94 77 53 59 65 66 66 66 50 55 47 44 44 43 101 88 78 65 78 71 66 65 77 74 164 164 160 158 158 125 125 128 148 148 158 157 127 127 123 132 133 121 120 137 143 146 142 156 147 147 144 147 149 159 159 161 156 121 134 136 135 135 130 110 113 118 126 134 134 130 107 107 102 105 101 98 97 101 103 116 114 129 131 141 142 92 97 98 156 147 142 143 151 151 147 131 124 141 124 128 131 125 125 119 145 148 117 124 78 84 129 134 130 104 129 136 141 148 138 147 140 159 124 128 122 159 156 151 150 160 160 159 161 163 160 157 158 157 155 159 159 162 162 160 160 156 162 163 155 153 125 132 144 142 136 136 136 136 136 136 134 122 137 120 126 123 120 119 129 133 135 133 124 103 104 133 136 140 149 146 139 135 132 134 123 131 124 131 135 134 126 121 119 134 133 133 130 135 137 139 136 135 127 131 138 117 110 132 130 127 124 128 127 142 131 135 106 92 
88 88 87 87 86 86 87 88 88 86 84 83 82 84 84 85 83 86 85 81 80 78 79 79 83 72 38 32 22 29 29 25 22 19 48 53 56 35 29 34 71 71 89 74 79 83 83 84 80 77 73 68 74 85 93 76 62 59 55 61 35 35 29 27 27 53 89 62 45 28 115 63 46 111 93 38 31 29 32 36 34 34 45 39 33 30 56 40 36 33 63 88 108 108 23 26 25 25 26 31 31 31 30 33 44 58 66 73 84 85 85 86 84 83 89 88 81 76 75 83 83 82 81 86 87 85 84 90 51 54 79 78 60 52 53 51 45 38 37 40 88 87 71 67 59 52 52 49 32 26 25 28 65 72 89 77 56 58 34 27 42 33 24 21 23 25 38 53 49 36 29 29 33 34 34 36 43 36 46 92 98 100 100 104 102 102 103 103 103 102 103 103 105 104 105 105 105 106 107 107 108 108 107 110 102 129 124 122 124 122 124 127 129 127 137 135 128 125 122 123 134 118 117 118 105 103 128 112 113 110 107 97 111 114 131 129 110 91 84 98 105 102 102 41 44 55 57 62 62 55 69 66 62 66 56 56 61 49 67 68 60 75 86 86 94 64 63 63 58 60 60 52 49 59 62 41 39 59 82 88 82 76 77 66 64 62 77 168 171 151 157 158 132 139 144 149 150 141 145 125 127 144 134 126 124 122 145 144 146 154 150 142 146 127 108 109 143 157 158 118 114 121 129 131 132 129 122 118 114 106 107 121 109 94 94 107 104 103 98 99 99 100 111 116 136 135 139 142 93 93 109 153 146 143 143 153 158 154 160 129 130 134 126 139 137 125 123 122 115 117 118 86 89 108 117 108 104 137 142 140 144 151 146 88 108 140 152 156 157 159 158 154 159 160 162 161 161 161 161 158 156 159 159 161 163 162 162 161 162 160 162 158 161 144 133 137 132 132 133 140 140 131 122 114 80 91 103 127 131 125 120 124 111 110 88 103 103 109 129 131 127 130 130 133 134 136 129 125 125 128 127 132 130 122 121 121 136 137 131 133 134 141 139 139 138 131 133 137 134 113 113 125 125 126 124 128 134 97 119 113 176 
89 88 86 84 86 86 87 87 87 87 84 84 83 83 85 85 84 85 85 86 79 79 81 83 85 86 94 88 58 31 31 28 26 24 21 35 54 34 39 32 60 85 83 85 83 80 84 85 85 81 67 70 68 93 93 80 71 50 82 72 92 120 39 37 42 35 29 29 31 60 111 116 106 92 43 37 32 31 30 37 36 37 43 41 30 30 32 31 36 80 80 51 57 26 26 29 23 24 26 33 33 28 29 31 32 58 66 71 86 85 83 83 86 87 86 86 85 80 75 76 82 80 81 75 76 89 90 92 84 55 67 62 32 42 36 31 33 40 58 72 83 74 72 73 56 51 40 45 53 87 88 81 67 72 83 84 65 57 27 26 28 27 29 28 31 41 46 50 42 41 28 29 29 32 39 41 90 93 91 103 101 101 101 101 103 103 103 103 103 103 103 103 105 105 105 105 106 106 108 107 110 111 109 109 100 123 122 123 120 123 121 128 128 129 135 138 127 126 126 125 156 143 141 131 110 141 132 113 113 113 110 107 104 114 127 125 87 88 84 84 103 100 98 40 39 40 40 55 76 79 68 59 63 73 71 56 51 45 50 54 52 48 87 91 90 58 64 64 66 58 61 60 55 64 65 42 43 40 71 82 76 76 79 80 59 52 162 169 139 144 159 157 137 145 146 147 151 129 134 121 124 142 135 137 129 128 144 146 147 153 150 148 143 105 103 105 119 132 118 106 106 120 124 131 130 120 122 116 116 103 100 119 111 92 95 110 105 106 101 99 100 98 111 118 140 140 137 134 96 94 100 145 141 143 145 152 153 157 158 128 122 159 139 137 136 139 137 120 114 117 118 92 90 110 109 106 101 133 135 141 150 147 103 107 112 163 159 156 159 161 158 161 157 163 163 160 158 160 161 157 156 162 163 161 162 161 165 164 163 163 164 161 163 162 161 154 127 130 142 140 140 96 87 87 82 78 153 136 134 119 125 121 122 91 74 92 110 121 136 124 126 122 121 125 125 131 132 122 126 127 130 131 131 133 139 140 138 133 136 130 137 151 142 131 127 139 139 137 135 126 112 111 126 125 131 127 105 99 94 184 184 
86 86 85 85 85 86 86 86 86 84 87 87 87 86 84 85 84 84 83 86 83 80 79 82 82 84 89 86 59 40 31 26 25 28 21 29 27 25 32 33 33 38 89 90 85 83 87 87 82 78 80 76 76 95 87 84 84 73 73 84 156 134 39 37 50 31 30 30 25 72 98 127 112 51 50 40 41 41 54 39 40 35 34 38 43 37 29 26 27 84 22 25 24 26 31 26 32 34 28 28 31 29 29 28 30 71 68 73 69 83 83 85 87 85 85 84 86 83 78 81 75 74 76 75 77 85 90 87 72 35 31 33 26 32 35 34 31 34 63 83 85 75 71 74 56 50 44 42 86 82 78 74 83 50 49 38 29 29 28 29 29 30 29 29 48 46 44 41 49 46 48 31 33 47 95 87 101 100 101 102 102 101 101 102 104 104 104 104 104 104 104 104 105 105 105 106 106 106 108 108 109 111 110 110 115 126 115 112 112 116 109 122 126 126 132 125 128 128 134 145 166 164 164 151 127 123 127 116 113 107 109 106 109 120 128 80 83 83 91 80 89 88 38 40 40 40 38 39 81 80 59 58 57 75 72 53 50 43 49 50 52 49 94 100 102 53 59 67 65 59 60 63 58 64 68 49 46 44 42 79 75 78 77 83 74 152 158 140 141 140 155 153 148 148 149 148 129 127 119 110 115 131 133 138 132 132 141 137 150 153 152 146 113 102 105 102 120 121 117 111 126 121 123 128 130 114 113 112 112 100 95 128 128 113 102 110 111 110 104 102 96 94 117 124 143 139 130 131 102 105 107 143 142 145 148 150 153 152 141 131 172 167 146 139 137 139 139 124 124 118 117 99 110 109 108 107 102 97 117 153 149 87 97 82 159 157 158 156 161 161 158 159 165 165 166 159 159 162 164 163 162 165 162 161 162 162 167 165 166 164 164 166 163 164 166 162 157 132 130 138 114 93 92 90 123 145 141 146 125 124 125 120 108 106 74 83 82 98 133 135 123 121 128 145 142 132 117 123 126 129 129 128 130 144 140 141 137 134 131 129 137 155 156 146 130 140 137 131 131 128 122 120 76 94 106 102 88 182 184 183 184 
89 87 87 87 87 86 86 86 86 86 86 86 85 85 85 85 86 87 83 83 80 74 72 66 83 59 63 70 74 78 84 87 32 28 25 28 24 26 31 31 40 32 40 39 33 30 30 30 70 80 76 76 75 77 86 87 85 86 68 68 155 147 47 50 53 46 26 29 89 95 89 102 34 43 57 45 46 64 53 45 37 31 37 32 62 72 26 32 46 28 31 30 22 24 30 26 29 37 32 25 26 30 30 31 47 75 76 70 71 86 89 86 82 82 87 86 81 81 78 80 77 71 73 84 84 78 83 85 27 24 27 33 29 22 26 28 36 35 49 63 86 84 79 78 83 96 81 70 80 86 83 77 63 42 33 33 30 26 28 28 31 29 30 33 50 48 47 36 51 82 93 97 88 102 102 100 99 101 100 101 100 100 103 102 104 104 104 104 104 104 104 105 104 105 105 106 106 106 108 108 108 108 107 106 115 126 115 113 111 113 109 117 122 125 130 125 127 137 135 155 150 165 164 135 129 127 122 117 120 110 109 107 105 113 133 100 73 77 84 89 84 87 40 43 39 40 38 37 38 73 64 61 62 68 75 58 64 44 46 48 55 87 105 101 113 48 57 65 68 62 60 65 71 71 53 46 49 41 43 61 81 83 85 87 146 151 138 142 143 144 143 150 146 152 150 157 151 122 117 115 110 121 130 128 137 138 135 139 138 137 144 104 103 103 113 116 122 119 121 113 128 123 126 137 134 116 115 114 114 95 98 132 126 126 107 109 111 111 104 100 98 95 120 118 120 136 132 129 112 115 110 143 147 156 159 151 153 146 149 132 159 163 157 140 136 135 118 130 117 113 107 100 99 111 105 103 101 96 147 142 152 105 84 162 160 159 156 158 160 161 161 162 163 164 165 164 163 164 166 162 162 162 162 165 165 166 167 166 167 166 168 167 165 163 164 163 159 129 125 123 107 97 99 129 128 137 121 125 121 122 113 110 105 136 132 106 111 135 131 122 122 124 135 140 144 127 121 117 139 133 126 128 133 140 144 131 121 133 129 129 130 156 154 137 139 133 133 134 105 128 93 96 87 92 140 160 181 184 183 184 178 
87 87 87 87 87 87 87 86 86 86 86 86 86 86 86 85 86 85 86 84 82 72 69 73 67 65 66 66 78 84 84 84 83 86 79 34 30 27 28 34 35 39 36 36 27 28 28 32 34 33 75 75 77 78 86 89 85 78 74 71 142 131 61 87 74 33 31 58 91 93 97 29 42 40 66 76 79 66 60 72 40 31 31 49 71 79 89 77 25 30 29 29 25 26 26 27 31 24 31 28 27 28 31 37 76 74 74 78 88 89 91 88 83 87 87 84 83 85 81 79 74 91 80 78 81 86 83 84 31 28 27 35 28 32 27 40 36 57 78 83 85 87 86 80 89 87 84 70 50 50 25 30 31 39 35 30 30 28 27 27 29 35 32 24 26 49 45 44 38 95 99 102 101 103 103 98 100 100 100 102 102 103 103 103 103 103 103 104 104 104 104 105 104 105 105 106 106 107 108 108 109 109 107 106 122 126 116 117 114 112 117 123 125 128 130 129 130 135 140 133 161 153 149 145 134 136 126 126 119 119 115 110 117 129 125 81 78 73 86 84 86 87 66 42 40 37 37 37 39 40 70 67 65 75 79 79 75 40 38 52 59 99 96 111 112 67 51 79 77 74 59 65 70 66 67 57 43 42 47 47 77 81 83 160 150 138 145 141 144 143 146 151 148 143 156 157 128 120 121 106 111 114 116 132 120 120 114 119 136 139 118 110 105 112 114 113 116 120 122 114 129 125 127 143 140 130 135 107 105 108 115 135 135 111 99 111 112 110 107 136 101 112 109 122 132 134 122 112 112 113 128 138 148 156 155 159 149 149 138 144 135 122 122 107 99 101 125 119 108 102 106 98 95 119 124 97 100 94 133 140 106 123 166 160 160 160 160 160 160 161 161 162 162 162 163 163 162 163 163 164 163 163 163 163 164 164 165 165 166 167 167 167 166 165 164 162 162 163 167 162 160 145 140 127 125 116 116 122 123 114 120 128 122 131 124 125 117 129 133 123 123 122 122 123 138 138 125 132 136 136 136 126 124 140 132 127 126 127 131 134 128 124 147 140 139 135 130 107 110 113 119 96 160 161 162 178 184 185 183 182 166 
87 87 87 87 87 87 87 87 86 86 86 86 86 86 86 86 85 85 86 86 86 85 88 88 88 87 86 85 85 84 85 85 83 87 90 91 92 88 62 39 36 40 40 35 29 26 27 30 36 30 32 74 75 58 79 85 85 84 83 79 125 142 71 78 74 48 37 35 79 83 93 34 35 72 71 74 80 79 82 75 72 31 24 31 59 76 82 87 29 28 26 27 28 27 28 29 26 30 31 68 77 68 80 55 76 72 72 85 88 90 89 89 85 87 86 88 89 87 86 80 74 90 78 78 83 82 86 37 41 30 29 29 36 28 71 54 48 78 85 84 83 85 82 79 74 70 56 42 39 33 34 35 33 27 49 87 86 76 61 55 43 32 29 28 31 35 36 37 40 96 103 103 99 98 101 102 100 100 101 102 103 102 103 103 103 103 104 104 104 104 104 105 105 105 106 106 105 107 108 108 108 109 110 106 131 129 116 115 113 110 119 121 123 122 123 129 125 122 128 132 153 151 150 151 137 127 142 126 131 123 119 117 128 124 125 86 83 70 69 81 87 86 79 40 38 40 40 37 42 45 48 97 101 79 82 80 79 46 35 35 107 97 98 95 67 67 76 76 79 63 54 74 74 69 57 48 45 47 49 43 42 76 128 156 161 140 148 153 159 151 152 153 126 120 122 134 131 122 123 105 109 112 111 119 122 106 114 128 132 140 108 105 106 116 113 114 126 124 123 113 131 125 128 148 139 141 144 152 154 114 117 111 128 104 101 105 113 161 155 150 111 100 113 112 119 129 111 112 109 112 102 126 125 145 162 164 153 150 149 147 125 117 125 103 99 99 111 118 123 104 105 95 95 123 126 109 99 96 131 102 121 138 161 160 161 161 161 161 161 161 162 162 162 162 162 163 163 163 163 164 163 163 163 163 163 163 165 166 167 167 167 167 167 165 165 164 165 163 166 162 157 153 131 125 126 114 115 115 118 117 116 132 122 120 121 123 120 121 128 130 120 119 120 117 140 137 117 110 139 138 140 130 117 120 124 130 131 134 129 129 123 117 136 136 137 142 145 135 118 144 139 159 152 159 160 186 181 187 139 132 128 
87 87 87 87 87 87 87 86 86 86 86 86 86 86 86 86 85 86 86 87 87 86 86 86 85 85 85 85 84 85 84 85 83 84 89 89 87 85 86 88 89 86 76 34 33 34 34 32 29 39 34 27 55 50 55 88 87 85 82 74 119 109 66 62 45 43 41 79 90 83 27 46 32 76 79 75 76 81 82 82 41 28 32 24 94 82 92 92 28 27 27 25 34 34 32 29 26 29 38 78 84 85 85 84 82 80 86 89 88 85 84 89 92 86 86 88 88 89 83 81 80 65 46 79 77 74 69 40 36 39 104 122 38 65 56 53 57 64 85 86 80 83 74 79 77 87 86 38 34 42 37 30 90 83 99 95 86 83 50 53 47 40 40 43 46 37 32 36 34 86 103 103 98 97 102 103 101 102 102 101 103 102 103 103 103 104 104 105 105 105 106 105 106 106 107 106 107 107 108 108 108 109 110 106 133 130 114 114 113 113 111 122 123 118 118 128 128 123 126 129 151 153 154 157 130 136 140 133 132 123 122 116 127 126 125 89 81 64 62 75 84 86 88 38 40 40 40 40 39 51 53 97 102 68 74 77 70 67 35 39 102 97 94 91 98 77 79 69 71 63 82 79 69 57 52 49 48 48 46 47 46 104 156 146 145 140 160 155 162 150 153 133 127 128 123 130 135 133 130 117 111 108 110 122 111 105 105 127 133 108 110 109 106 120 116 119 127 128 116 113 121 124 124 116 133 137 153 149 156 155 118 118 155 111 132 129 124 168 174 164 113 110 117 93 95 115 107 104 113 100 97 118 127 155 157 153 143 155 154 126 128 125 115 108 97 102 97 113 122 97 94 95 95 110 101 105 107 101 123 123 122 162 161 160 162 162 162 162 162 162 162 162 162 162 162 162 162 163 163 163 164 164 163 163 162 162 163 163 166 166 167 167 167 167 166 165 167 166 164 157 137 142 107 123 115 113 113 113 116 124 128 127 137 122 119 120 124 120 120 132 134 121 121 130 137 136 108 109 139 140 135 122 119 135 129 125 134 131 103 104 113 95 101 124 148 147 148 144 146 143 149 155 144 152 148 174 184 148 138 132 131 
88 88 88 88 88 88 88 87 87 87 87 87 87 87 87 86 87 88 87 87 86 85 84 85 84 84 83 82 82 83 85 85 85 86 83 83 82 82 87 85 84 82 80 82 85 87 89 74 37 33 33 28 32 40 92 86 88 85 82 103 137 85 60 48 43 42 45 62 92 90 37 39 83 82 78 88 84 82 81 83 80 25 29 95 109 106 68 24 27 28 28 29 32 34 29 30 32 34 36 84 83 85 85 87 78 85 87 90 87 85 84 92 91 86 86 88 89 84 83 83 48 37 37 42 51 46 89 106 50 44 123 112 63 56 50 51 65 61 78 87 88 85 75 74 87 84 87 65 43 41 44 96 100 98 95 93 92 61 38 32 36 42 42 42 45 45 45 38 59 93 101 103 99 97 102 102 101 101 102 101 102 103 103 103 103 104 105 104 106 106 106 107 107 107 107 107 107 107 109 108 110 110 109 107 128 125 110 115 123 122 115 123 128 128 132 131 123 121 128 139 152 152 157 156 146 138 155 136 130 125 124 114 129 123 125 86 83 66 63 81 84 87 88 43 39 41 42 39 40 60 62 77 71 62 62 53 56 59 60 43 96 91 91 93 98 69 66 65 69 81 79 64 69 58 53 50 68 78 71 50 61 64 149 144 150 145 164 166 163 154 146 128 126 127 118 132 134 138 132 128 120 111 112 128 127 103 103 113 103 109 109 111 106 115 122 128 128 122 117 114 118 123 119 118 128 129 122 158 158 151 138 172 169 165 160 153 140 165 167 119 106 109 89 111 113 123 128 111 110 97 103 101 112 128 138 117 112 120 114 106 96 98 91 85 83 101 103 124 120 98 93 98 96 108 98 100 103 104 127 131 140 160 160 160 162 163 162 162 162 162 162 162 162 162 162 162 162 163 163 164 166 166 164 163 162 162 162 162 166 166 167 167 167 167 166 165 166 167 164 147 142 141 95 113 116 114 113 114 117 119 128 111 129 122 116 124 126 119 122 130 135 132 137 131 132 129 118 114 134 140 128 123 130 132 133 120 126 104 111 110 106 101 99 151 148 149 144 149 149 147 146 147 146 148 175 174 133 127 123 130 130 
88 88 88 88 88 88 88 88 87 87 87 87 87 87 87 86 88 88 88 87 86 86 85 84 87 86 85 82 83 83 85 85 85 85 85 86 86 84 84 84 84 86 81 81 81 83 82 81 95 35 33 39 33 35 88 85 87 85 86 130 133 90 48 43 39 40 46 41 86 111 41 41 81 83 84 85 86 81 82 86 68 26 30 82 137 41 32 30 28 28 30 29 30 32 29 31 51 42 43 86 84 75 63 64 30 30 41 82 87 90 88 90 91 87 86 88 86 84 87 94 39 39 35 31 33 37 98 106 80 39 58 70 63 53 48 67 61 74 91 94 103 67 72 76 80 84 81 58 54 47 72 99 99 96 94 91 90 88 34 34 34 38 43 38 41 45 46 42 100 103 100 98 99 104 103 101 101 101 102 102 102 103 103 103 103 104 104 105 106 107 107 107 107 108 108 107 107 109 109 110 110 110 108 129 125 113 116 116 124 121 118 129 130 129 130 120 126 133 148 147 152 144 154 152 158 161 163 163 141 128 128 111 105 123 126 79 79 72 70 84 85 84 89 92 50 39 39 40 39 50 71 68 63 68 69 64 57 55 62 95 93 94 104 101 61 66 73 80 77 81 69 74 64 82 71 55 66 77 98 133 59 88 136 150 146 152 161 149 162 106 109 112 127 129 115 103 133 132 134 115 123 115 110 117 121 105 104 105 105 104 109 112 103 101 149 146 126 117 116 119 119 127 123 123 132 116 119 142 127 142 135 175 168 166 162 143 138 131 113 107 106 113 97 129 122 127 117 141 97 90 99 105 128 130 129 133 121 113 115 109 94 103 82 90 82 86 93 121 116 113 108 97 96 107 113 101 98 125 132 126 154 166 164 162 164 164 163 163 163 163 163 163 163 163 162 163 164 164 163 164 167 167 165 163 162 162 162 162 166 165 167 168 168 167 168 167 166 166 164 150 151 148 85 83 128 120 117 119 118 112 114 115 111 124 129 127 121 117 126 129 126 141 138 136 122 124 127 119 118 113 118 134 138 112 123 132 105 109 115 141 137 125 151 151 146 145 140 149 151 141 146 145 147 142 169 168 141 125 134 132 138 
89 89 89 89 89 89 89 88 88 88 88 88 88 88 88 87 88 88 87 87 87 87 90 88 86 86 85 84 85 86 86 86 85 85 85 85 84 84 83 84 82 86 87 81 82 83 85 81 97 104 38 31 35 35 50 86 88 88 82 99 115 54 45 43 42 30 28 32 72 55 71 72 82 82 86 82 84 86 87 76 26 30 31 32 30 29 27 29 31 31 30 30 30 41 77 87 73 55 53 90 86 64 43 38 32 35 36 75 90 92 89 87 87 87 88 88 88 87 89 95 37 39 32 31 33 29 90 81 42 48 76 108 58 70 71 70 81 104 44 29 36 55 77 86 84 85 84 62 55 97 100 101 98 96 96 93 93 88 34 36 35 30 33 40 42 43 42 100 103 104 103 99 99 105 104 101 102 102 101 102 103 103 103 103 104 104 105 105 105 106 107 107 109 109 108 108 109 108 109 110 110 109 108 116 124 119 117 119 119 118 123 135 135 127 118 120 120 146 147 136 131 149 147 156 163 163 161 161 159 131 128 113 112 123 121 74 69 71 85 85 86 85 93 93 45 37 40 43 42 41 65 59 59 68 65 70 72 55 54 89 88 96 101 105 66 67 65 76 73 63 60 56 96 76 69 63 73 118 118 133 125 127 121 125 153 159 159 150 129 109 107 106 130 138 105 123 130 124 120 116 111 110 123 123 114 106 106 105 103 107 110 105 102 107 159 155 112 119 122 121 120 128 128 127 136 148 113 128 113 123 127 171 167 169 162 147 140 132 113 106 137 137 124 133 146 142 143 147 134 102 99 130 144 131 130 143 140 111 112 113 121 111 110 116 116 105 100 98 112 112 110 90 92 108 110 99 91 122 125 159 160 157 163 164 165 165 165 165 164 163 164 164 163 164 163 163 163 164 164 164 168 168 168 164 162 162 162 162 166 166 168 168 169 169 168 168 164 164 164 141 150 145 95 89 129 127 121 121 118 114 107 120 97 105 137 134 121 114 129 128 127 138 142 127 121 122 124 128 126 111 106 99 111 116 115 133 113 108 149 143 131 138 145 144 149 143 141 132 113 115 122 141 139 141 150 141 138 136 132 133 138 
89 89 89 89 89 89 89 89 88 88 88 88 88 88 88 88 89 88 87 87 87 87 89 89 85 85 84 85 86 85 85 86 86 86 82 83 83 86 86 86 84 88 87 86 85 87 87 85 81 110 111 31 35 47 48 83 92 87 73 73 105 63 44 43 45 26 30 31 79 59 88 92 77 82 87 88 83 89 88 84 33 29 34 33 27 29 29 32 33 32 31 32 43 53 72 77 89 58 60 100 95 80 38 37 43 37 39 92 93 92 87 87 87 88 88 88 87 88 91 93 38 33 33 29 30 99 89 81 78 58 65 87 45 48 45 24 22 23 26 27 31 41 79 82 90 89 63 66 94 94 96 99 97 98 95 95 94 88 38 35 30 34 33 53 43 46 54 100 103 105 99 99 99 105 104 102 102 102 102 102 103 103 103 103 104 104 105 106 107 106 107 108 109 109 109 108 108 109 110 110 109 108 112 115 127 120 123 122 115 116 129 130 136 137 119 122 122 130 149 128 128 143 149 156 160 155 164 170 162 129 131 125 108 112 113 103 71 70 84 84 88 86 91 94 45 38 39 41 40 37 38 59 62 59 69 70 70 48 48 88 92 94 104 99 88 70 76 83 78 72 56 61 90 145 137 126 117 122 104 114 104 133 85 97 144 151 138 135 125 125 112 143 146 130 92 85 122 122 122 130 112 136 127 121 116 106 108 113 118 104 99 103 114 117 167 159 112 116 129 121 122 123 127 129 139 142 97 93 121 118 118 151 167 165 166 132 127 137 146 137 145 137 132 141 141 146 136 136 135 107 109 145 136 141 142 139 138 128 111 132 117 116 108 106 119 115 111 104 111 113 111 90 94 96 108 96 87 105 137 159 166 153 160 164 165 165 165 165 164 164 164 164 163 163 163 163 165 165 165 166 169 168 166 164 162 162 162 162 166 168 168 169 169 169 169 169 164 163 142 137 130 118 111 109 131 126 123 119 118 118 120 127 110 102 120 129 110 110 126 119 122 130 126 128 129 125 129 127 129 116 95 100 101 127 142 144 144 140 146 146 136 141 139 147 146 135 135 116 118 118 125 144 136 150 145 138 128 128 125 124 112 
89 89 89 89 89 89 89 88 88 88 88 88 88 88 88 88 89 89 88 87 87 87 87 87 87 87 87 87 86 86 85 85 85 84 85 86 86 85 85 86 86 88 88 86 87 89 88 87 80 78 106 126 41 51 44 49 67 80 72 85 121 126 90 50 35 34 31 34 43 45 85 97 90 81 83 86 86 85 86 86 41 29 83 79 30 23 32 33 30 33 31 33 40 52 54 49 85 55 55 102 95 93 46 41 39 44 52 75 91 90 87 87 91 89 89 87 89 89 84 67 33 34 32 31 27 84 89 81 73 48 41 58 51 39 39 29 25 25 24 26 31 44 63 67 85 86 88 76 78 95 98 95 97 93 97 92 88 77 47 36 34 38 77 91 100 101 100 101 99 101 101 100 101 104 105 104 102 102 102 102 103 103 103 104 105 105 106 106 106 106 108 108 109 109 109 109 109 110 110 110 109 115 112 113 115 127 121 120 121 120 124 124 135 135 124 120 125 128 127 123 127 149 154 168 168 162 171 166 170 131 129 131 129 111 114 111 74 78 84 86 86 87 92 93 41 38 39 40 37 38 39 63 61 61 67 67 67 57 53 76 87 87 83 96 100 106 95 76 78 96 131 148 144 144 141 127 118 106 101 109 110 74 84 151 143 136 137 130 121 124 124 150 148 107 81 84 122 124 121 133 128 132 135 121 114 109 108 121 119 94 100 104 115 124 165 158 114 123 133 127 128 127 125 122 135 126 85 92 113 114 103 157 150 166 125 120 124 120 142 139 141 142 135 140 148 142 132 137 103 129 139 135 137 145 144 147 140 147 141 145 147 109 109 113 117 120 111 109 121 114 116 102 96 96 97 89 155 150 164 160 159 163 161 163 165 166 165 165 165 165 165 164 164 163 165 165 164 165 165 166 169 169 166 166 163 162 162 162 165 167 168 169 169 169 169 169 153 141 146 144 125 116 111 112 109 126 123 118 120 121 120 101 104 85 96 119 105 98 127 118 125 129 120 126 145 126 126 126 115 113 97 133 132 135 141 147 149 140 142 152 151 139 136 151 147 137 133 121 131 144 141 141 145 149 135 128 131 129 124 126 125 
90 90 89 89 89 88 88 88 88 88 88 88 88 88 88 87 87 87 87 87 87 87 87 87 87 87 87 87 87 87 87 86 86 87 87 86 87 86 87 87 87 87 87 87 88 89 88 88 83 80 109 109 34 40 52 52 61 43 49 54 137 133 54 53 37 34 35 30 35 92 87 85 91 93 77 77 85 86 86 88 45 77 88 30 30 33 32 32 33 30 31 32 50 51 53 59 53 40 40 91 95 88 74 57 55 55 64 76 53 90 89 88 90 91 88 91 89 87 84 34 27 29 28 31 123 92 53 69 39 29 30 29 30 45 36 49 47 47 34 35 65 77 86 85 78 75 90 93 78 81 98 100 99 95 91 60 45 56 66 65 66 46 47 102 101 101 100 101 101 102 102 103 103 104 104 104 103 104 104 105 105 105 106 106 106 106 106 107 107 107 108 108 108 108 110 110 111 111 110 110 110 108 113 111 105 129 128 120 116 119 122 123 134 132 127 133 133 124 124 128 127 156 156 155 171 173 168 173 168 166 130 127 128 117 116 101 75 73 85 87 86 85 87 39 42 39 38 41 39 39 62 66 63 79 62 68 66 64 77 84 87 93 90 85 109 104 99 92 132 147 156 144 150 148 141 120 120 124 102 99 77 68 160 150 133 128 132 132 111 124 141 140 116 117 110 92 117 123 117 138 140 135 114 111 107 110 115 117 120 94 101 108 115 122 162 155 142 127 138 132 129 128 132 121 115 130 134 90 88 105 110 159 150 130 126 127 121 128 144 150 143 153 128 128 126 139 137 136 99 97 137 125 129 144 144 134 148 145 147 144 142 143 140 140 136 137 128 118 115 127 117 154 149 145 100 159 166 165 167 166 165 162 160 160 164 164 164 164 165 165 165 165 164 165 165 165 165 166 166 166 167 167 167 166 165 165 165 165 167 167 167 168 168 169 170 169 154 142 145 144 137 129 112 110 108 102 116 123 122 119 102 106 102 78 84 108 110 103 101 134 139 115 117 112 155 160 137 119 146 151 144 149 137 139 137 150 148 149 151 158 157 137 143 132 144 135 144 141 135 144 149 134 112 116 119 123 125 126 123 124 170 
90 90 90 89 89 89 88 88 88 88 88 88 88 88 88 88 87 87 87 87 87 87 87 87 87 87 87 87 87 87 87 87 86 87 87 86 87 87 88 87 87 87 88 87 88 88 88 88 84 83 80 124 126 34 49 31 38 36 42 44 149 164 51 45 35 31 31 35 55 95 92 81 81 91 81 78 84 82 88 90 31 29 26 28 34 33 30 34 31 54 32 33 50 48 64 93 40 43 46 63 68 64 49 45 46 34 30 37 46 87 87 88 91 92 87 95 101 74 25 29 20 27 25 42 108 105 66 47 46 28 28 30 26 31 70 70 53 52 40 38 65 84 93 93 89 80 88 92 86 92 98 101 99 100 93 52 51 48 51 51 59 55 47 101 100 99 99 101 102 102 103 103 103 104 104 104 104 104 105 105 105 106 106 106 106 106 107 107 107 108 108 108 108 107 110 111 111 111 110 110 110 110 109 111 107 128 123 118 120 123 122 125 134 131 125 119 134 131 129 127 128 158 158 156 171 172 166 171 173 165 159 128 123 119 118 112 73 72 85 85 86 85 81 42 42 42 40 40 50 67 65 66 75 80 92 74 70 67 73 76 89 92 86 96 90 99 93 147 150 152 160 155 127 118 120 129 135 126 121 104 74 170 167 157 148 127 116 116 112 118 129 134 111 115 104 102 91 102 131 142 141 141 120 111 105 110 112 120 120 103 101 98 113 119 160 155 142 134 144 136 125 127 133 127 125 140 137 105 90 111 127 147 142 131 126 123 132 130 146 147 151 148 127 120 127 137 143 120 122 123 115 117 138 139 142 130 144 143 129 130 142 144 142 135 143 120 127 127 147 146 144 140 137 141 152 164 164 165 167 167 167 165 159 160 164 164 164 164 164 166 165 165 164 164 166 166 166 167 167 167 167 167 167 167 166 166 166 166 167 167 167 167 169 171 170 170 145 142 141 144 144 134 124 122 101 103 120 118 120 133 103 112 115 116 93 122 133 131 111 92 131 112 116 119 156 153 137 139 150 142 136 138 137 139 141 140 148 149 148 158 160 156 137 133 139 132 134 150 121 119 117 115 115 122 120 122 121 125 171 168 186 
90 90 90 90 89 89 89 88 88 88 88 88 88 88 88 88 87 87 87 87 87 87 87 87 87 87 87 87 87 87 87 87 87 88 87 88 87 87 88 88 87 87 87 87 87 88 87 87 85 85 77 82 106 69 34 34 36 38 44 37 159 159 40 39 36 30 31 30 91 89 91 87 87 89 89 89 82 89 88 29 32 26 29 28 36 33 30 26 34 68 33 33 29 30 84 94 71 50 49 61 63 61 53 45 31 32 32 33 37 78 91 90 94 92 88 83 88 40 31 30 28 40 67 119 121 87 78 92 31 29 28 30 28 43 73 74 58 51 45 42 83 91 90 93 90 56 53 85 91 90 99 100 100 100 98 62 51 43 49 58 49 53 68 99 96 98 99 102 103 104 103 103 104 104 104 104 104 105 105 105 106 106 106 106 106 107 107 107 108 108 108 108 108 107 111 111 111 111 110 110 113 111 112 114 109 110 117 115 115 130 128 124 120 129 120 119 115 130 127 129 126 126 149 146 148 164 164 171 168 160 151 127 124 117 118 113 72 77 85 86 85 85 81 42 42 43 39 53 54 62 59 73 83 84 88 67 70 61 72 78 85 79 81 84 89 167 166 149 152 164 158 151 118 122 120 140 138 120 117 59 72 171 161 161 126 129 119 110 123 125 130 127 111 110 106 100 98 98 132 136 140 110 109 109 124 111 114 122 118 97 102 98 114 117 159 153 155 133 144 149 125 125 124 117 132 138 135 131 155 171 133 114 119 137 135 130 134 136 143 141 139 133 135 127 126 135 119 110 126 130 125 112 99 128 119 117 132 133 130 128 140 143 133 124 129 116 117 118 148 148 149 136 138 137 159 165 164 165 167 167 167 165 161 162 164 165 164 166 166 165 167 167 165 166 165 167 167 166 167 167 167 168 168 168 166 166 166 166 168 168 168 168 170 170 171 171 158 135 143 142 135 125 124 125 96 99 112 114 124 127 107 110 110 117 94 95 140 131 100 97 131 125 122 121 122 142 140 141 144 137 134 137 141 141 142 144 158 149 151 157 157 152 144 132 134 122 119 123 123 123 123 111 117 149 158 125 127 169 160 171 171 
91 91 90 90 90 89 89 89 89 89 89 89 89 89 89 88 88 88 88 88 88 88 88 88 88 88 88 88 88 88 88 88 88 88 89 88 88 87 88 88 87 87 87 87 87 87 87 87 87 83 82 80 101 108 27 35 39 38 42 38 163 147 40 38 35 37 37 42 91 87 85 88 88 86 86 91 90 93 106 30 28 34 32 26 28 35 31 28 91 71 44 30 30 24 45 89 69 58 53 54 59 57 56 27 30 34 36 37 37 50 69 88 86 93 95 81 60 49 34 25 85 125 118 106 116 94 92 96 51 54 23 25 45 60 64 57 46 38 40 43 80 91 88 90 91 58 50 90 96 97 101 103 97 99 99 99 99 72 98 98 53 55 96 103 97 97 102 102 104 104 104 104 104 104 104 105 105 105 105 106 106 106 107 107 107 107 107 108 108 108 108 109 108 108 111 111 111 111 110 111 113 114 113 113 108 114 114 116 119 125 127 125 128 130 119 119 116 119 130 131 129 131 148 148 152 164 167 172 167 167 164 125 123 117 118 119 77 81 86 86 85 86 83 43 41 41 45 64 62 67 62 73 83 86 88 69 71 63 77 70 76 77 71 133 154 153 165 151 124 165 163 163 118 124 138 141 140 135 135 56 62 169 171 162 126 127 131 123 125 124 127 126 123 122 132 128 118 132 131 109 108 107 107 108 121 121 109 116 117 99 100 113 118 116 151 149 132 133 137 134 120 123 111 110 121 139 124 133 168 173 175 107 112 93 139 129 127 137 140 141 132 129 132 130 119 116 107 111 104 134 126 102 106 124 118 120 126 129 130 131 123 128 118 126 124 115 119 121 120 142 135 133 129 160 158 160 164 165 167 166 167 166 163 162 165 165 165 165 166 166 166 167 166 166 166 166 167 167 167 168 169 168 169 168 168 167 167 167 168 168 168 169 170 171 171 171 147 128 127 137 130 122 123 123 98 103 105 90 96 127 111 111 117 122 87 82 88 109 99 105 133 132 126 113 117 143 141 141 139 143 136 135 144 163 161 161 161 135 131 129 126 130 125 128 136 116 121 121 120 125 157 162 162 153 155 153 167 163 167 129 128 
91 91 91 90 90 90 89 89 89 89 89 89 89 89 89 89 88 88 88 88 88 88 88 88 88 88 88 88 88 88 88 88 88 88 89 89 89 89 89 88 88 87 87 87 87 86 87 87 86 85 83 91 86 97 96 31 42 38 34 37 162 133 38 36 36 36 36 71 90 91 86 91 92 83 83 87 90 102 67 30 33 32 31 33 32 26 24 116 108 50 43 29 27 24 68 95 76 74 83 42 38 39 39 30 29 42 40 37 36 32 41 90 89 90 95 90 43 42 32 119 116 104 116 119 66 36 37 39 53 46 31 31 27 75 60 52 50 41 39 36 56 73 88 92 49 59 66 97 97 98 102 103 102 101 98 101 99 94 100 102 100 103 104 104 102 104 104 103 104 104 104 104 105 105 105 105 105 105 106 106 106 107 107 107 107 107 108 108 108 109 108 109 109 109 111 111 112 111 111 111 111 114 115 113 114 137 136 118 119 117 128 134 133 130 121 121 116 115 128 134 147 153 158 156 154 165 148 167 173 171 172 126 126 118 117 121 88 85 85 86 85 85 84 43 42 41 47 66 68 61 57 89 86 82 79 75 70 65 75 79 67 70 149 149 173 129 122 116 111 147 162 150 111 116 114 141 139 141 137 56 64 160 171 142 125 126 133 119 119 121 122 121 119 125 124 127 125 127 111 113 107 104 112 113 116 109 111 114 118 102 107 126 119 117 105 150 155 131 135 124 126 110 109 106 106 148 149 141 166 170 170 180 131 97 97 128 134 129 132 136 137 133 135 119 120 118 111 107 101 106 96 91 121 124 125 121 130 128 126 128 117 118 117 124 125 122 122 120 120 139 130 132 161 160 160 162 165 166 166 166 167 166 164 164 166 166 167 167 168 168 168 168 167 168 168 168 169 169 169 168 169 169 168 168 168 168 168 168 169 170 169 169 171 171 171 172 132 126 126 136 134 120 122 120 121 114 85 86 99 102 122 122 117 113 88 88 88 120 118 114 129 130 113 113 136 137 143 133 148 158 168 173 158 159 151 154 145 135 133 132 125 121 120 124 128 128 118 126 130 145 166 164 165 139 141 168 168 160 134 137 136 
92 91 91 91 90 90 90 90 90 90 90 90 90 90 90 89 89 89 89 89 89 89 89 89 89 89 89 89 89 89 88 88 89 90 90 89 89 89 89 89 88 87 87 86 86 86 86 86 84 82 101 99 74 72 96 113 31 34 36 36 78 118 120 41 39 36 35 49 91 87 91 86 90 87 91 90 37 31 27 22 35 31 30 33 30 24 23 126 125 40 26 25 30 28 73 52 60 68 61 57 61 40 52 47 35 37 41 32 27 29 89 94 98 89 93 92 61 71 96 108 117 114 102 30 37 41 38 42 52 41 35 36 31 80 84 46 47 43 36 37 70 75 78 81 58 55 81 100 99 96 98 98 102 100 99 101 98 100 101 100 103 104 102 101 102 106 107 107 105 104 104 104 105 105 104 106 106 106 106 106 107 107 107 108 108 108 108 108 109 109 109 110 110 109 112 112 112 112 111 112 112 116 115 113 109 140 137 115 116 118 136 136 132 131 120 121 123 116 120 111 155 158 154 158 133 141 148 153 163 173 169 125 124 128 125 122 74 84 81 82 84 85 76 47 43 43 59 68 67 57 63 84 87 91 76 72 73 62 72 72 60 66 158 154 145 144 117 111 154 150 137 152 155 118 119 145 144 142 134 87 81 154 150 123 131 119 120 130 129 124 120 116 112 113 116 94 94 110 112 110 105 114 111 115 113 112 112 130 127 106 112 112 125 111 110 161 166 130 134 135 129 110 111 112 110 168 169 143 145 160 180 174 155 113 133 149 162 163 142 146 141 135 133 115 118 118 117 99 113 95 89 89 103 123 124 118 130 128 122 117 119 115 118 122 125 125 123 123 144 140 130 133 165 163 159 164 165 166 166 166 166 165 165 165 166 167 167 167 167 168 168 168 167 167 168 168 168 169 169 169 170 170 170 170 169 169 169 168 170 170 170 170 171 171 171 172 155 122 127 137 132 120 118 120 125 125 84 94 99 99 119 118 113 110 111 101 93 111 122 122 119 111 114 133 127 114 123 141 136 145 173 173 170 138 148 150 146 140 133 132 123 119 122 123 136 138 136 143 161 168 163 162 153 138 138 151 163 141 141 142 175 
92 92 91 91 91 90 90 90 90 90 90 90 90 90 90 90 89 89 89 89 89 89 89 89 89 89 89 89 89 89 89 89 90 89 90 89 90 89 89 89 87 87 87 86 85 85 85 85 87 85 93 78 72 78 104 97 33 33 38 40 51 108 103 46 39 35 35 35 57 92 91 90 89 89 94 32 27 27 25 31 29 30 32 30 36 33 28 126 124 118 24 26 24 37 66 39 46 35 37 53 54 53 43 47 44 35 35 35 29 31 89 93 95 93 88 48 44 100 97 66 78 29 32 33 41 39 96 96 38 34 30 37 39 77 83 52 48 53 47 44 85 80 77 79 57 66 71 101 99 102 97 101 98 100 100 102 99 103 100 101 101 103 101 100 104 104 106 106 105 105 105 105 105 105 105 106 106 106 106 107 107 107 108 108 108 108 108 109 109 109 109 110 110 110 112 112 112 112 112 112 112 115 116 111 113 111 119 115 114 115 138 139 133 129 123 124 120 121 106 109 118 115 119 129 129 135 149 158 158 155 159 146 130 128 123 124 70 82 78 83 80 80 64 53 49 48 56 59 65 70 78 77 89 86 81 79 75 67 66 74 70 68 159 157 146 144 123 164 163 152 136 149 157 114 143 141 145 137 134 121 139 138 131 118 119 120 114 134 133 125 112 112 110 109 107 92 93 101 106 115 118 114 111 115 113 114 110 132 127 128 112 114 126 107 108 169 172 127 129 133 109 107 110 112 110 177 176 151 161 169 154 141 139 137 150 156 166 163 149 147 144 118 108 110 105 99 101 86 117 111 119 116 102 110 107 108 126 127 120 117 119 122 120 117 118 124 125 120 135 121 115 140 164 165 164 165 167 167 166 166 166 165 165 165 166 167 167 168 168 168 169 168 168 168 168 169 169 169 170 170 170 170 170 170 170 169 169 169 171 171 170 170 171 172 172 172 135 127 129 141 144 134 128 129 124 127 84 84 97 92 111 117 116 110 107 96 88 93 132 133 118 117 126 130 132 118 115 137 140 165 165 173 144 145 143 140 137 128 125 126 124 120 122 125 141 140 136 143 160 173 166 156 152 148 138 141 137 142 151 149 174 
92 92 92 91 91 90 90 90 90 90 90 90 90 90 90 90 89 89 89 89 89 89 89 89 89 89 89 89 89 89 89 89 90 90 90 90 90 90 89 89 88 87 86 86 85 84 85 84 88 95 72 84 83 78 75 77 80 45 41 46 41 49 103 106 46 35 38 32 34 54 90 89 90 89 88 30 29 29 26 26 32 29 27 28 34 27 28 116 116 95 21 29 30 60 46 33 34 35 47 43 49 53 43 41 51 31 36 35 37 33 87 93 86 92 89 60 90 95 45 33 28 32 32 33 38 37 119 107 51 48 32 32 47 73 68 73 71 68 50 53 78 84 68 94 89 64 57 55 100 99 98 101 100 102 104 100 102 102 102 102 105 105 103 104 105 104 106 105 105 105 105 105 105 106 106 106 106 106 106 107 107 108 108 108 108 108 108 109 109 110 110 110 110 110 112 112 113 113 112 112 112 116 116 116 115 112 119 119 113 111 136 138 131 131 132 123 119 132 107 115 117 112 113 128 127 130 147 154 157 140 153 130 126 129 125 125 81 81 83 81 83 83 53 53 62 58 60 59 62 78 73 78 82 83 88 74 77 68 73 69 73 72 85 161 159 161 131 162 153 159 159 159 154 107 126 130 134 140 129 127 144 152 120 127 128 118 118 118 124 113 108 113 111 107 107 106 99 108 103 104 113 106 112 116 111 107 100 110 131 128 124 120 127 120 108 170 171 116 127 124 110 112 110 110 115 178 175 164 151 162 155 138 135 138 153 150 161 165 152 152 157 119 123 107 105 92 89 95 97 121 120 111 113 115 104 105 125 133 125 122 121 120 118 116 115 126 125 122 111 110 91 166 162 163 166 168 167 168 167 166 166 166 165 165 167 167 168 168 168 168 168 168 168 168 168 168 169 170 170 170 171 171 170 170 170 170 170 170 171 171 171 171 171 172 172 172 168 126 138 139 141 130 129 127 127 127 84 77 87 105 111 116 121 126 99 81 89 133 139 136 142 131 131 125 127 137 132 122 138 155 161 131 139 157 156 129 132 125 123 127 127 147 164 153 140 141 117 120 160 173 175 152 150 144 140 127 130 154 152 145 142 
92 92 92 92 92 92 92 91 90 90 90 90 90 90 90 90 89 90 90 90 90 90 90 90 90 90 90 90 90 90 89 90 89 89 89 89 90 90 89 89 86 91 95 75 77 83 86 87 84 85 74 85 88 79 78 70 51 45 45 42 39 49 88 93 97 51 36 33 37 32 29 91 91 91 27 30 27 27 28 28 32 33 29 30 31 27 24 64 79 101 76 46 82 74 54 59 51 47 40 28 28 49 62 68 34 34 35 39 36 88 89 89 90 87 55 52 89 93 41 31 27 30 30 37 31 37 119 104 70 62 29 30 27 35 75 76 77 74 56 67 56 46 49 49 78 54 60 55 99 98 97 99 102 102 103 103 103 103 104 104 105 105 105 106 106 106 106 107 106 105 105 106 106 106 107 106 107 107 107 108 108 108 109 109 109 109 109 110 110 110 110 111 111 110 113 113 113 113 112 112 112 119 119 117 114 114 116 113 109 107 129 123 125 130 134 122 136 134 128 115 120 114 115 121 127 149 147 153 108 135 129 142 129 123 127 92 91 89 82 83 83 85 55 55 60 57 55 64 68 78 81 80 91 91 85 85 77 71 76 75 78 75 101 105 108 149 161 137 160 155 153 163 105 103 123 129 142 133 127 144 136 125 121 122 123 124 113 103 103 105 110 109 110 106 107 107 107 104 107 109 97 103 115 114 114 92 106 98 114 125 114 120 121 125 129 161 166 115 118 129 119 110 110 136 132 176 170 154 148 146 137 138 138 144 146 166 161 145 146 156 152 141 131 113 118 111 95 89 97 108 106 117 116 115 118 111 107 108 131 121 119 116 115 115 110 128 123 119 107 98 169 163 162 164 169 169 168 168 168 167 167 167 167 167 167 168 168 168 168 168 168 168 169 170 170 170 170 170 170 170 170 170 170 170 170 171 171 171 171 171 171 170 171 171 171 171 167 166 141 137 119 123 125 128 123 84 86 97 133 130 124 121 128 81 69 73 74 120 139 141 141 120 115 118 138 132 135 128 130 147 138 142 141 156 163 127 129 130 125 124 131 153 162 145 133 136 119 120 135 170 173 149 151 117 123 134 140 151 154 128 130 
92 92 92 92 92 92 92 92 90 90 90 90 90 90 90 90 90 90 90 90 90 90 90 90 90 90 90 90 90 90 90 90 89 89 89 90 89 89 89 89 92 85 90 100 70 78 78 73 83 86 77 89 86 87 80 84 55 41 41 43 44 36 39 96 79 73 60 44 38 32 32 30 81 71 29 30 29 29 28 29 32 30 30 32 31 29 26 72 68 97 63 70 78 77 58 61 67 36 30 26 29 33 73 61 41 32 33 37 31 53 94 98 91 65 61 90 88 91 71 38 34 76 78 44 38 48 55 87 97 70 34 31 27 32 60 76 76 75 80 73 60 50 52 51 70 73 70 100 100 98 99 103 102 102 103 103 103 103 104 104 104 104 105 105 105 106 106 106 106 106 106 106 106 106 107 107 107 107 108 108 108 109 109 109 109 109 110 110 110 111 111 111 111 111 113 113 114 113 113 113 119 119 119 118 114 113 114 111 107 105 124 124 123 136 131 125 119 135 140 127 127 128 128 122 132 144 148 146 88 98 114 142 124 125 125 94 95 96 80 82 83 89 60 63 65 55 52 70 75 78 77 79 94 94 82 83 77 78 77 86 89 83 112 107 104 135 151 169 156 155 154 122 100 101 101 105 126 121 123 142 143 120 117 119 105 102 103 105 104 106 107 103 100 105 105 101 102 117 115 110 96 101 111 116 111 80 82 110 131 128 115 117 118 126 140 155 148 121 125 152 145 152 146 135 133 124 160 150 149 144 146 138 156 160 163 162 163 146 145 151 151 149 147 118 109 124 125 86 98 102 100 99 117 118 121 124 105 112 128 115 119 117 117 112 109 103 131 131 115 111 163 163 161 164 169 169 168 168 168 167 167 167 167 167 167 168 168 168 168 168 168 168 170 170 170 170 170 170 170 170 171 171 170 170 171 171 171 171 171 171 171 171 171 171 171 171 170 167 138 132 122 118 118 87 84 86 136 134 123 126 119 112 110 89 73 75 78 128 131 129 130 123 115 122 115 142 140 129 127 144 148 148 144 136 129 126 138 145 149 137 137 136 138 135 129 131 131 130 134 137 150 158 110 116 119 142 141 148 142 124 137 
92 92 92 92 92 92 92 92 90 90 90 90 90 90 90 90 90 90 90 90 90 90 90 90 90 90 90 90 90 90 90 90 89 89 89 89 89 89 89 89 91 86 82 98 94 89 72 76 81 84 77 77 89 88 85 80 91 87 79 41 38 38 41 46 65 70 78 47 43 40 37 34 48 55 31 32 32 28 28 28 26 30 30 33 33 31 28 64 70 62 61 74 72 68 71 66 66 38 28 30 27 35 28 68 61 36 28 33 35 63 88 96 86 37 60 81 90 76 74 35 30 75 75 70 70 51 46 90 82 65 33 25 43 55 67 69 66 74 79 84 76 46 43 50 80 79 99 100 101 99 101 103 102 103 102 103 103 103 104 104 104 105 105 105 106 105 106 106 106 106 106 106 107 107 107 107 107 108 108 108 109 109 109 109 109 110 110 110 111 111 111 111 111 111 114 114 114 114 113 113 118 119 119 116 116 117 113 108 107 108 121 122 119 130 130 122 124 139 137 132 130 130 149 154 149 144 76 93 98 113 115 121 139 127 123 91 97 95 96 82 88 70 65 68 70 60 72 70 70 76 76 82 95 97 84 76 82 82 76 85 83 88 96 105 111 138 148 168 165 153 117 122 110 97 99 105 121 122 124 141 138 117 116 117 111 100 102 103 105 103 105 102 101 102 97 96 96 126 119 89 91 90 93 98 73 80 78 143 136 127 135 152 159 163 169 169 164 149 142 158 153 150 141 135 131 124 158 154 155 154 157 152 157 150 164 161 150 143 142 142 143 148 150 129 122 125 127 127 101 106 103 104 116 120 126 119 110 111 119 116 116 119 120 122 106 113 118 128 122 167 161 162 165 168 169 169 169 169 167 167 167 167 168 169 169 169 169 169 169 169 169 169 171 171 171 171 171 171 171 171 172 172 171 172 172 171 172 172 172 172 172 172 172 172 172 171 170 170 151 138 114 115 105 89 76 138 135 137 108 108 113 118 111 112 112 77 83 105 126 128 128 139 143 137 121 142 138 138 154 155 153 149 143 135 132 131 129 147 146 144 134 135 138 143 134 133 128 128 133 138 149 145 111 112 142 136 139 130 126 118 122 
92 92 92 92 92 92 92 92 91 91 91 91 91 91 91 90 90 91 91 91 91 91 91 91 91 91 91 91 91 91 90 91 88 88 89 89 89 90 89 90 87 89 87 87 83 87 77 75 79 79 76 84 101 110 110 83 90 91 78 131 121 49 41 52 55 73 70 50 43 41 40 37 38 47 32 33 34 28 28 27 27 30 31 33 33 31 30 60 43 39 31 63 37 37 71 65 62 58 51 46 60 45 31 29 77 72 39 48 62 58 86 74 27 30 36 39 35 63 64 31 29 39 45 76 70 55 43 91 92 100 83 42 47 83 78 58 60 70 83 97 98 97 95 99 101 100 99 98 100 103 102 100 102 102 103 103 103 103 103 104 104 104 105 105 105 105 106 106 106 106 106 106 107 107 107 107 108 108 108 109 109 109 110 110 110 110 110 111 111 111 111 112 112 112 114 114 114 114 113 114 116 116 116 116 117 118 115 109 107 107 122 121 120 123 131 127 125 134 127 133 130 132 137 156 160 104 92 76 138 105 121 130 132 122 124 87 87 94 92 90 94 53 60 64 58 58 71 74 71 75 78 75 91 93 84 78 91 94 80 87 83 84 99 108 114 129 124 180 170 174 118 119 131 115 125 121 117 122 129 125 134 117 118 115 112 98 98 108 116 110 131 143 135 99 97 100 91 135 137 92 87 90 92 89 76 71 74 146 142 131 134 152 154 154 169 172 155 153 152 164 152 150 127 126 118 123 155 155 158 157 153 154 144 139 145 152 149 147 145 140 144 151 152 144 130 124 123 122 110 130 117 102 105 113 117 118 111 112 112 118 118 112 122 121 126 125 107 100 90 167 161 163 167 167 167 167 169 169 167 167 167 167 170 170 169 170 170 170 170 170 170 169 171 172 172 172 172 172 172 172 172 172 172 171 173 173 172 172 172 172 173 172 172 172 172 172 170 170 172 168 157 120 145 83 126 139 137 112 110 107 110 111 110 111 112 102 93 103 117 158 143 137 142 138 109 110 126 130 150 154 150 149 145 133 130 128 128 131 134 142 145 140 140 141 142 139 128 129 129 126 98 112 112 117 139 139 124 125 126 124 115 
92 92 92 92 92 92 92 92 91 91 91 91 91 91 91 91 91 91 91 91 91 91 91 91 91 91 91 91 91 91 91 91 89 89 89 90 90 90 90 90 87 90 91 84 86 90 88 70 71 80 76 93 110 115 111 115 112 123 129 126 117 123 87 44 59 55 72 65 79 36 38 38 35 35 32 34 33 29 29 29 31 31 31 33 33 31 30 61 58 32 34 37 31 31 31 69 66 63 44 48 59 63 56 40 47 63 88 60 60 60 57 54 29 33 34 30 30 48 55 37 32 39 46 67 71 57 99 89 92 99 99 68 49 34 88 98 101 92 93 98 97 96 96 95 101 103 97 98 99 102 102 102 103 103 103 103 103 104 103 104 104 104 105 105 105 105 106 106 107 106 107 107 107 108 108 108 108 108 109 109 109 110 110 110 110 110 111 111 111 112 111 112 112 112 114 114 114 114 114 114 115 115 116 116 119 120 109 107 105 107 123 121 122 136 131 133 109 106 113 133 131 139 144 117 114 100 165 142 133 85 80 130 124 119 120 83 88 92 94 92 102 53 57 60 61 57 69 68 82 79 75 75 87 82 77 74 91 90 88 94 90 82 118 110 109 107 124 137 169 170 130 130 137 128 126 124 119 113 125 121 123 112 114 114 113 101 96 120 121 119 131 134 134 114 107 101 112 129 138 106 99 95 78 79 77 75 126 136 140 143 127 132 142 137 161 156 148 154 175 172 150 148 126 138 120 127 148 146 154 144 137 138 140 150 142 140 152 151 157 161 152 153 150 156 140 120 123 123 122 146 142 99 81 79 103 138 138 113 114 114 108 108 114 116 131 128 94 89 87 168 161 162 167 168 168 167 170 169 168 168 168 167 170 170 170 170 170 170 170 170 170 170 172 172 172 172 172 172 172 172 172 173 173 173 173 173 173 174 173 173 173 173 173 172 173 173 171 173 175 172 170 145 133 136 139 138 123 119 119 112 109 108 113 112 112 103 137 132 141 156 162 130 126 137 142 111 126 128 122 140 137 143 141 138 132 125 132 132 133 142 144 139 136 127 139 138 135 131 96 100 102 111 127 133 132 132 127 124 130 131 130 
92 92 92 92 92 92 92 92 92 92 92 92 92 92 92 91 91 92 92 92 92 92 92 92 92 92 92 92 92 92 91 91 89 89 89 90 90 90 90 90 88 89 92 90 87 93 95 102 80 107 102 102 99 96 95 88 129 84 111 128 125 120 114 128 81 58 61 79 66 73 37 35 36 34 29 27 30 30 32 32 32 32 32 31 33 31 30 64 61 58 32 29 33 29 31 31 32 38 41 48 58 54 51 37 42 93 81 89 74 44 36 30 32 32 28 30 42 40 34 33 35 37 44 47 40 37 97 89 92 95 101 93 37 29 99 99 98 94 94 94 99 97 96 97 97 101 102 103 100 100 101 103 103 103 103 103 103 103 104 103 104 104 104 104 105 105 106 106 106 106 107 107 108 108 108 108 108 109 109 109 110 110 110 111 111 111 111 111 112 112 112 113 113 113 115 115 114 115 114 114 118 118 120 120 121 119 111 107 104 105 123 121 120 129 132 123 110 114 114 112 114 150 157 100 112 151 146 168 116 91 90 85 108 108 103 85 89 97 96 110 107 54 57 62 61 78 72 73 80 77 77 96 92 66 72 70 91 86 87 95 97 88 103 111 112 107 159 160 159 162 162 142 146 140 127 123 100 101 125 123 117 113 115 115 122 109 112 128 124 117 121 111 110 115 135 115 111 118 104 104 102 83 72 66 92 100 136 132 133 132 132 134 139 145 141 142 142 154 175 175 147 149 149 139 138 132 139 146 159 147 132 143 157 148 152 146 153 160 159 163 156 156 157 166 170 125 125 164 168 143 149 163 70 75 143 142 142 113 113 112 109 113 114 119 125 126 106 105 96 151 161 162 165 166 170 172 170 170 167 168 168 168 172 172 171 171 171 171 171 171 171 171 173 173 173 173 173 173 173 173 173 173 174 174 173 174 173 174 173 173 174 174 173 172 173 173 175 176 175 176 167 127 126 140 146 125 125 125 121 112 109 108 120 116 114 141 137 134 132 157 142 129 129 135 144 133 138 131 125 139 139 138 116 136 120 124 122 132 149 146 140 121 120 122 127 134 132 108 96 93 133 133 131 132 131 132 130 137 135 130 124 
92 92 92 92 92 92 92 92 92 92 92 92 92 92 92 92 92 92 92 92 92 92 92 92 92 92 92 92 92 92 92 92 89 90 89 89 90 90 91 91 91 90 89 89 86 88 93 83 98 98 100 104 98 100 99 105 93 85 97 103 110 117 106 99 125 140 59 68 66 64 51 34 35 43 27 28 30 32 33 33 31 32 30 33 33 29 29 51 59 43 28 31 35 32 30 27 29 28 77 77 73 58 71 81 88 94 85 79 55 34 35 33 32 30 29 31 39 36 32 35 27 42 41 35 38 69 102 96 97 89 95 53 37 33 82 102 98 97 95 99 102 100 99 102 98 98 103 102 103 100 100 103 103 104 103 104 104 104 103 104 104 103 104 105 105 105 106 106 107 107 107 108 108 108 109 109 109 109 109 110 110 110 111 111 111 111 111 112 112 112 112 113 113 113 115 114 114 115 114 114 118 118 118 120 121 118 115 110 103 107 115 117 114 112 122 110 105 107 112 105 111 150 153 111 113 123 109 105 116 106 105 88 99 104 104 103 90 107 104 107 103 56 59 62 65 82 83 79 77 77 80 94 92 71 68 82 97 85 90 91 92 86 120 113 151 149 159 158 158 153 161 139 150 146 135 134 95 102 127 125 127 120 120 123 119 107 113 124 121 115 113 114 107 122 125 138 103 111 108 101 100 93 68 66 115 117 142 131 129 125 142 151 149 150 148 139 157 165 164 171 141 143 144 134 136 137 148 156 158 161 153 146 162 154 148 152 166 160 159 154 157 161 165 167 168 169 166 165 165 166 169 171 165 133 143 144 121 116 113 115 110 121 119 138 123 123 115 117 123 104 162 164 164 165 172 172 170 169 168 168 168 168 172 171 171 171 171 171 171 171 171 171 173 173 173 173 173 173 173 173 173 174 174 174 174 175 175 175 175 174 174 174 174 174 174 174 175 179 174 174 167 119 126 139 136 125 126 124 110 112 116 117 118 126 143 139 133 128 126 136 136 139 138 148 146 142 135 128 137 141 140 129 114 114 117 124 124 142 148 150 135 120 114 124 141 141 128 99 100 111 127 139 139 136 130 129 135 134 137 132 110 
92 92 92 92 92 92 92 92 92 92 92 92 92 92 92 91 92 92 92 92 92 92 92 92 92 92 92 92 92 92 92 92 90 89 89 90 90 90 90 91 91 91 89 91 91 89 91 86 86 86 86 90 103 107 102 102 85 90 88 105 110 107 104 106 116 149 133 56 62 82 67 49 59 52 29 31 30 32 33 33 32 29 27 33 32 26 27 29 32 34 33 33 30 31 44 41 41 49 73 74 74 51 72 66 91 95 91 32 30 30 32 34 30 29 36 33 30 36 35 28 28 28 35 30 32 101 99 98 97 103 99 53 39 33 98 102 97 99 100 101 102 100 100 100 101 99 100 103 103 103 101 104 103 103 103 104 103 104 103 104 104 104 104 105 104 105 106 107 107 107 107 108 109 109 110 109 109 109 109 110 110 111 111 111 111 111 111 112 112 112 112 113 113 114 115 115 115 115 115 115 119 118 119 119 122 116 120 121 107 109 121 117 113 113 118 108 110 104 105 117 114 130 127 100 97 98 98 113 115 118 126 85 87 96 104 136 126 117 94 63 69 62 58 60 62 86 82 79 78 79 85 66 72 72 91 103 98 94 87 89 87 91 136 140 138 150 136 161 147 158 148 152 140 145 138 140 102 108 118 126 125 127 127 119 125 93 112 120 117 109 107 101 107 126 121 104 103 116 116 96 92 88 87 108 116 122 129 168 160 151 150 137 138 154 149 134 160 155 154 139 140 139 134 136 131 146 149 151 159 158 148 137 160 166 157 162 158 165 166 155 157 172 168 165 170 168 162 166 162 161 167 171 170 137 134 143 121 129 115 113 109 115 127 137 125 123 112 137 135 126 164 162 164 170 171 170 171 170 167 168 168 168 172 172 171 171 171 171 171 171 171 171 172 173 172 172 173 173 173 173 174 174 174 174 174 175 175 174 174 174 175 175 174 174 174 175 176 177 175 163 162 139 125 125 130 122 129 124 111 110 119 116 121 119 138 141 129 122 129 129 139 136 133 151 149 146 132 135 140 136 138 121 122 114 117 124 129 141 145 141 137 136 133 135 138 138 135 106 104 122 126 128 139 137 126 127 135 135 135 118 117 
92 92 92 92 92 92 92 92 92 92 92 92 92 92 92 91 91 92 92 92 92 92 92 92 92 92 92 92 92 92 92 92 91 91 91 91 91 91 91 91 92 92 92 91 91 91 91 91 90 89 88 87 86 84 83 84 87 87 96 99 99 99 105 110 126 114 136 110 129 72 54 71 65 65 55 35 33 29 34 36 33 28 27 31 33 32 27 30 26 33 33 26 30 28 29 30 30 33 31 45 33 37 51 62 75 45 35 26 28 34 34 26 27 34 35 32 28 35 30 28 29 29 29 30 30 98 101 98 100 99 103 32 41 34 107 103 99 100 101 100 101 100 101 101 102 102 103 103 103 104 104 104 104 104 104 105 105 106 106 106 106 106 107 107 107 108 108 108 108 108 108 109 109 110 110 110 109 110 110 111 111 111 112 111 111 111 111 112 112 112 112 113 115 116 115 115 114 114 115 116 119 118 119 119 116 116 124 108 105 107 105 119 123 116 121 125 116 116 117 118 122 107 107 106 101 95 103 103 108 100 87 106 108 115 127 134 138 58 59 59 67 66 67 62 66 86 90 75 78 68 69 69 68 93 89 90 102 91 88 91 93 149 144 139 146 140 143 140 130 121 150 135 134 121 134 135 139 115 108 104 106 126 126 125 103 88 88 134 130 120 115 121 124 118 119 119 110 113 116 111 91 90 92 109 107 142 166 163 166 143 137 143 132 114 116 120 148 153 150 140 138 136 137 132 138 151 152 149 152 146 133 149 158 62 52 165 162 168 151 170 173 175 169 166 169 154 163 162 160 164 169 171 171 139 136 124 135 102 110 109 107 101 96 138 129 130 131 131 134 124 163 167 165 166 167 172 172 171 171 167 168 170 171 169 171 171 171 170 170 170 170 170 170 170 171 172 172 173 173 173 174 174 175 175 175 175 175 175 175 175 175 176 176 174 176 176 176 177 177 154 136 117 126 137 140 133 119 121 122 114 124 122 119 129 131 114 132 133 124 124 136 140 135 151 149 149 122 135 134 136 130 128 127 116 120 117 138 144 142 143 143 141 110 121 114 125 123 125 126 123 122 133 133 122 121 149 152 149 145 112 117 
92 92 92 92 92 92 92 92 92 92 92 92 92 92 92 92 92 92 92 92 92 92 92 92 92 92 92 92 92 92 92 92 92 92 92 92 92 92 92 92 92 92 92 92 92 92 91 91 91 90 90 90 90 90 89 90 89 88 86 85 86 85 85 98 105 111 80 95 130 106 71 73 82 73 62 60 32 40 36 31 33 47 45 30 30 33 34 27 30 28 26 24 27 29 29 29 31 31 33 36 34 40 47 31 30 36 36 34 31 35 35 29 31 25 31 28 33 31 28 30 27 28 29 30 30 98 100 98 99 95 57 35 37 38 104 106 100 101 101 101 101 101 101 101 102 103 103 103 103 104 104 104 104 104 105 105 105 106 106 106 106 106 107 107 107 108 108 108 108 108 109 109 109 110 110 110 110 110 111 111 111 112 112 112 111 111 112 112 112 113 112 114 116 116 115 114 115 114 115 116 118 118 120 119 116 116 120 106 103 104 107 122 118 120 124 122 118 116 114 112 111 110 107 106 117 114 96 92 103 91 90 110 115 99 124 124 56 61 57 66 59 64 63 71 76 79 81 83 67 72 80 80 73 110 96 97 110 108 120 162 149 151 152 159 162 154 167 161 125 123 124 143 122 120 118 135 134 113 109 108 106 120 111 99 95 127 121 131 131 112 117 129 129 121 119 110 99 115 111 106 103 121 117 109 107 163 159 165 168 145 142 123 116 117 115 126 142 143 141 136 137 133 136 142 142 148 152 146 138 155 165 99 72 47 48 49 47 48 67 163 160 172 172 169 152 156 159 156 156 156 156 154 168 125 117 116 119 107 101 125 130 97 110 142 133 128 141 131 120 121 119 170 163 163 164 170 171 171 171 168 169 167 168 168 171 171 171 171 171 171 171 170 170 170 171 171 173 173 173 174 175 175 175 175 175 175 175 175 175 175 175 175 176 176 176 177 175 174 175 167 149 117 123 134 127 129 118 123 121 127 124 116 127 131 118 118 134 137 121 119 141 141 143 149 148 148 118 118 126 128 114 129 129 133 119 121 133 132 141 144 144 120 120 114 117 123 124 123 127 127 126 128 118 114 143 145 153 147 144 114 104 
92 92 92 92 92 92 92 92 92 92 92 92 92 92 92 92 92 92 92 92 92 92 92 92 92 92 92 92 92 92 92 92 92 92 92 92 92 92 92 92 92 92 92 92 92 92 92 92 91 91 90 89 92 92 92 90 93 86 87 88 88 89 89 88 88 85 98 111 95 87 95 80 76 83 80 54 65 35 40 29 36 47 35 30 29 30 32 31 29 23 22 29 29 30 29 28 31 33 32 34 35 27 31 38 39 34 33 38 38 32 34 37 31 34 49 44 45 41 39 28 27 28 30 33 34 100 99 98 98 85 30 37 32 104 103 100 100 101 101 101 101 101 101 101 101 103 103 103 104 104 104 104 104 105 105 105 106 106 106 106 106 107 107 107 108 108 108 108 108 109 109 109 110 110 110 110 110 111 111 111 112 112 112 112 112 112 112 113 113 113 113 114 117 116 115 114 114 114 115 116 119 119 120 120 117 117 121 125 103 104 105 113 119 119 124 116 115 117 112 112 112 109 121 123 113 97 93 105 114 125 135 126 82 94 106 108 58 52 70 64 69 65 65 74 77 75 81 79 71 75 80 83 106 122 123 113 108 112 151 155 161 141 155 161 158 165 166 165 152 119 120 136 132 121 120 122 144 125 120 130 118 113 116 102 129 129 120 118 121 102 105 114 113 118 117 96 93 84 77 113 115 121 116 114 109 163 165 164 164 149 148 93 112 145 152 139 135 139 140 140 130 135 137 128 135 134 139 127 154 151 144 55 49 46 58 59 43 52 48 163 156 153 166 160 153 154 155 155 155 159 156 155 163 117 117 114 121 109 116 125 126 110 112 134 144 139 140 126 136 135 110 99 171 168 167 170 169 170 171 175 169 166 167 172 172 174 173 171 173 171 172 170 170 171 173 172 174 174 175 175 175 176 176 176 176 176 176 176 176 176 175 177 177 176 177 177 179 177 172 173 161 112 118 131 129 126 117 127 130 130 110 110 116 118 124 144 137 128 121 120 138 143 138 150 149 149 119 119 132 125 114 125 131 131 126 131 135 135 132 146 142 132 134 147 150 148 124 126 128 130 129 124 122 118 144 142 129 142 141 112 123 
93 93 93 93 93 93 93 93 93 93 93 93 93 93 93 92 92 93 93 93 93 93 93 93 93 93 93 93 93 93 93 93 93 93 93 93 93 93 93 93 93 93 93 93 93 93 93 92 92 91 92 91 92 92 92 92 93 91 91 93 94 94 94 88 88 93 89 92 102 87 85 88 86 88 75 82 51 48 57 44 55 55 28 24 31 32 27 30 28 31 34 45 32 31 32 33 35 30 33 31 33 32 31 37 37 34 35 39 37 36 34 35 35 101 97 52 37 35 40 31 27 28 30 32 33 99 98 97 101 101 31 30 34 105 103 101 101 101 102 101 101 101 102 102 103 103 103 104 104 104 105 105 105 105 105 106 106 106 107 106 107 106 107 107 107 108 108 108 108 108 109 109 109 110 111 111 111 111 111 112 112 112 113 113 113 113 113 112 114 114 114 114 116 116 115 116 115 115 115 116 119 118 119 119 117 117 116 120 104 102 105 116 116 119 125 119 122 114 104 108 113 115 122 121 131 96 101 103 108 116 134 129 85 82 106 107 66 78 78 61 65 66 66 75 75 76 82 79 78 127 136 114 118 111 123 121 154 151 143 136 143 134 155 154 159 169 170 152 107 116 114 139 132 133 132 139 141 140 131 131 120 119 119 113 134 130 126 114 116 99 119 114 106 113 114 124 86 79 66 117 120 113 111 103 96 93 162 157 158 161 158 87 95 151 154 140 140 125 125 128 125 134 127 124 115 131 132 95 126 109 118 48 50 51 54 56 55 53 62 160 152 157 157 158 156 157 154 158 162 162 159 162 162 159 124 122 141 135 118 104 126 144 145 136 118 134 136 125 134 132 100 104 122 170 173 169 168 168 171 174 174 171 169 172 173 173 173 173 173 173 172 173 173 172 172 173 175 174 175 176 176 176 176 176 176 176 176 176 176 176 176 176 177 177 177 178 178 178 173 174 138 113 120 118 128 121 118 131 128 121 115 112 114 117 147 142 135 122 119 127 127 127 125 137 150 148 129 127 123 141 114 127 127 123 125 137 144 146 133 129 135 129 133 143 153 150 126 128 130 132 131 132 136 143 142 127 127 142 137 137 110 
93 93 93 93 93 93 93 93 93 93 93 93 93 93 93 93 93 93 93 93 93 93 93 93 93 93 93 93 93 93 93 93 93 93 93 93 93 93 93 93 93 93 93 93 93 93 93 93 93 93 93 92 92 92 91 90 91 93 94 93 91 93 92 93 92 90 87 87 92 91 89 87 91 63 59 104 91 56 43 69 84 86 75 30 27 31 32 35 30 31 31 47 32 31 32 30 28 36 31 31 27 122 63 34 33 40 38 38 37 63 53 42 97 103 103 101 40 38 32 31 30 30 27 29 31 99 99 98 102 99 34 30 44 104 102 101 101 101 102 102 101 102 102 102 103 103 104 104 104 105 105 105 105 105 106 106 106 107 107 107 107 107 108 108 108 109 109 109 109 109 110 110 110 111 111 111 111 111 112 112 112 113 113 113 113 114 114 114 115 115 115 115 117 117 116 116 116 116 117 117 119 119 120 120 118 118 118 117 102 108 112 118 119 118 123 125 122 110 108 111 113 102 110 132 135 120 102 101 99 105 122 134 99 98 118 61 65 76 78 79 65 66 65 85 83 70 80 85 83 131 134 129 114 112 147 148 148 152 139 136 133 161 163 157 157 166 164 94 98 114 111 118 129 134 135 140 145 125 131 132 129 122 115 125 133 134 133 111 109 122 113 119 95 95 114 114 105 66 60 53 109 124 115 88 91 103 147 152 150 160 160 86 86 140 142 135 130 128 122 134 132 132 125 114 122 118 72 86 103 48 46 44 52 53 54 57 53 57 116 163 162 163 161 161 157 158 156 158 162 162 155 162 161 153 142 140 142 101 110 104 123 140 148 137 123 132 130 146 132 144 143 97 89 141 173 169 168 169 171 172 173 172 171 171 175 175 175 175 175 175 174 175 175 175 175 176 177 177 177 177 176 177 176 176 176 176 176 176 176 177 177 177 178 178 178 178 178 178 174 145 136 141 117 118 110 118 121 128 128 128 115 125 120 118 123 140 126 120 124 127 129 121 120 123 138 126 132 129 134 144 143 129 136 122 128 140 145 144 132 130 134 135 129 135 140 132 121 126 129 134 135 135 141 136 125 121 122 137 137 141 115 
94 94 94 94 94 94 94 94 94 94 94 94 94 94 94 93 93 94 94 94 94 94 94 94 94 94 94 94 94 94 94 94 94 94 94 94 94 94 94 94 94 94 94 94 94 94 93 93 94 94 93 93 92 92 92 91 91 95 95 91 91 91 93 93 93 90 92 96 90 89 91 92 84 70 97 90 105 105 57 59 96 91 43 37 28 29 28 36 37 27 28 29 32 34 33 32 30 28 35 39 88 121 152 43 52 29 36 33 79 64 62 65 95 98 104 89 52 40 32 33 31 30 28 29 30 100 100 100 99 31 35 30 42 103 102 101 101 102 102 102 102 101 102 102 103 104 104 104 105 105 105 106 106 106 106 106 107 107 107 107 107 108 108 108 109 109 109 110 110 110 110 110 111 111 111 112 111 112 112 112 113 113 113 114 114 114 115 115 115 116 116 116 117 117 117 116 116 116 117 117 118 118 119 121 121 121 120 120 99 97 99 120 114 117 122 128 125 130 112 119 119 104 98 130 137 114 108 101 98 110 122 122 104 127 118 73 81 76 77 78 79 82 89 88 75 71 75 87 102 120 131 109 116 117 148 136 131 152 145 139 136 161 164 164 136 96 95 94 96 108 114 124 120 139 140 139 137 132 128 136 106 102 79 136 132 135 136 124 123 131 105 102 97 100 109 98 103 55 62 55 106 119 107 99 97 115 112 152 157 153 155 99 124 138 136 125 130 130 132 140 127 91 122 117 113 106 64 65 48 43 44 50 51 51 53 55 52 47 166 160 162 164 162 166 157 156 157 155 156 153 154 153 152 157 148 147 133 111 96 135 129 134 133 131 115 124 140 147 142 137 131 118 92 116 129 168 173 171 171 169 169 172 179 177 175 175 175 175 174 175 175 175 175 175 176 175 176 177 177 177 178 176 176 176 176 176 176 176 176 176 177 177 177 178 178 179 179 178 174 143 142 139 139 127 114 122 126 130 128 136 131 123 121 116 124 136 116 121 120 117 123 121 120 124 130 129 125 136 141 146 149 136 132 137 137 140 140 140 132 125 138 137 136 141 143 140 124 118 99 101 111 115 122 120 122 121 129 140 140 139 149 
94 94 94 94 94 94 94 94 94 94 94 94 94 94 94 94 94 94 94 94 94 94 94 94 94 94 94 94 94 94 94 94 94 94 94 94 94 94 94 94 94 94 94 94 94 94 94 93 94 93 93 93 93 93 92 91 92 95 95 90 90 95 95 94 92 89 92 94 96 91 93 88 88 74 90 88 70 95 68 62 111 106 54 58 39 23 32 27 34 37 29 28 30 35 35 34 39 25 32 52 88 119 122 131 147 41 42 73 75 67 66 93 99 98 72 54 40 34 31 37 32 31 29 30 32 102 101 101 100 32 34 32 104 102 101 101 102 102 102 102 103 103 104 104 104 104 104 105 105 105 106 106 106 106 106 107 107 107 108 107 108 108 108 109 109 109 110 110 110 110 110 111 111 111 112 112 112 112 112 113 112 113 114 113 114 114 114 116 115 115 117 117 117 117 116 116 117 116 118 118 118 118 120 121 123 122 121 124 100 94 103 111 112 112 121 123 125 126 117 130 127 104 119 133 123 112 123 112 108 118 128 102 100 117 122 80 78 75 72 74 73 85 82 87 83 125 115 112 95 107 106 104 122 150 149 133 127 125 121 130 141 150 163 94 105 99 95 94 96 97 120 120 120 138 139 139 134 133 146 140 137 83 55 90 130 137 139 137 144 139 108 115 124 129 123 100 98 62 60 78 96 103 105 108 103 107 117 144 159 162 156 125 120 118 128 114 109 121 129 129 91 94 97 108 118 125 117 45 45 49 49 50 48 53 52 54 55 52 170 167 163 164 165 166 159 157 167 160 155 154 158 155 154 149 141 128 136 129 133 137 131 128 133 128 106 101 99 123 99 103 104 114 110 120 123 116 165 175 172 169 169 179 177 179 176 176 175 175 175 175 175 175 175 176 175 176 176 177 177 178 177 178 178 178 178 178 178 178 178 178 178 179 179 179 180 179 179 179 175 179 141 140 131 133 124 116 130 134 136 135 134 123 119 121 121 107 113 107 116 119 117 120 127 128 132 132 133 141 138 140 138 138 136 140 140 134 138 136 125 125 122 122 130 140 144 139 102 100 100 102 110 123 121 122 120 124 139 139 138 139 137 
94 94 94 94 94 94 94 94 94 94 94 94 94 94 94 94 94 94 94 94 94 94 94 94 94 94 94 94 94 94 94 94 94 94 94 94 94 94 94 94 94 94 94 94 94 94 94 94 93 93 93 93 93 93 94 94 94 95 94 91 90 95 95 94 92 92 92 92 95 95 95 95 94 91 76 71 75 74 95 90 97 105 70 54 26 29 28 30 33 37 36 30 30 31 33 34 26 29 120 165 86 117 106 126 143 149 139 136 78 75 72 79 96 100 96 44 44 35 40 37 37 33 34 33 33 103 104 100 102 35 37 34 100 103 102 101 102 102 102 103 103 104 103 104 104 104 104 104 105 105 105 106 106 106 106 107 107 108 108 108 108 108 108 109 109 110 110 110 110 110 110 110 111 111 111 112 112 112 112 113 113 114 114 114 114 115 115 115 116 116 117 116 117 117 118 117 116 116 119 119 118 118 121 119 121 120 117 131 127 127 111 112 109 110 122 123 122 126 114 125 133 138 129 117 130 132 125 93 88 103 101 90 96 104 82 79 77 78 77 74 80 76 84 100 110 118 103 113 114 126 140 120 119 147 133 125 128 123 126 129 125 101 105 104 101 89 105 101 94 84 100 112 116 124 131 130 131 137 142 147 74 72 65 64 75 139 145 142 142 147 115 117 118 128 125 100 72 78 76 92 95 95 112 108 114 116 117 129 161 165 127 132 119 125 125 104 117 126 131 126 99 86 109 94 115 124 49 49 45 45 49 45 54 55 52 54 50 166 170 175 166 165 167 166 165 160 167 171 158 159 161 157 155 114 122 112 126 108 130 129 151 144 137 138 99 101 100 107 99 107 102 95 125 127 134 104 112 165 176 171 170 179 178 175 175 175 175 174 175 175 175 175 175 175 176 176 177 177 177 177 178 178 178 178 178 178 178 178 178 178 178 178 179 179 179 180 180 180 175 179 136 136 135 135 125 101 103 134 138 133 127 128 128 125 113 104 135 141 141 117 122 129 137 135 135 135 141 143 138 160 154 143 146 144 151 133 127 132 132 124 123 118 119 142 141 147 108 99 99 120 126 126 124 123 126 128 139 142 133 128 127 
95 95 95 95 95 95 95 94 94 94 94 94 94 94 94 94 94 95 95 95 95 95 95 95 95 95 95 95 95 95 95 94 94 94 94 94 94 94 94 94 94 94 94 94 94 94 94 94 93 93 93 94 94 93 94 94 93 94 94 93 94 94 93 93 92 92 92 93 93 94 94 94 94 91 82 76 79 81 82 94 115 84 102 86 58 33 32 32 33 37 36 33 35 34 34 34 34 34 88 150 176 109 108 117 146 154 130 142 148 79 76 86 93 99 84 80 41 40 37 39 35 35 37 37 106 103 106 99 43 45 38 35 108 103 101 103 102 102 103 103 104 104 105 104 106 106 106 107 107 107 108 107 107 107 107 108 108 108 109 108 108 108 108 109 109 109 110 110 110 111 111 112 112 112 113 113 113 112 112 113 113 113 114 114 114 114 114 115 115 115 115 116 117 118 119 119 119 120 121 120 120 119 120 120 120 120 120 116 123 132 127 114 105 109 120 122 121 111 113 120 134 140 129 119 126 144 94 90 92 96 97 95 95 105 76 80 81 80 79 73 69 86 120 111 108 114 108 111 134 139 131 133 103 112 128 130 123 137 136 134 121 99 98 105 115 137 132 93 87 82 82 111 117 121 129 127 130 152 149 149 76 74 69 69 90 83 149 154 145 137 111 116 116 120 124 80 77 64 68 100 89 94 101 127 114 118 119 152 162 157 131 127 136 123 109 89 104 126 123 126 107 103 98 103 121 58 51 50 45 44 47 49 50 54 50 53 54 163 170 167 166 167 168 163 161 162 164 151 158 159 159 134 124 116 114 122 119 115 108 141 142 143 138 136 104 101 111 116 97 101 101 105 103 134 133 132 107 110 168 175 177 176 175 175 174 173 175 174 175 174 175 175 175 176 176 176 176 176 177 177 177 177 177 177 177 177 177 178 178 178 178 178 178 178 178 178 178 179 179 183 133 132 131 119 119 94 102 130 131 113 121 127 131 120 117 138 144 140 131 129 136 141 143 124 125 144 142 144 155 159 140 146 141 140 152 129 128 125 113 110 114 117 116 121 139 131 100 96 109 112 131 130 128 141 145 106 103 112 120 124 125 
95 95 95 95 95 95 95 95 94 94 94 94 94 94 94 94 95 95 95 95 95 95 95 95 95 95 95 95 95 95 95 95 94 94 94 94 94 94 94 94 94 94 94 94 94 94 94 93 93 93 93 93 93 93 93 94 94 93 93 94 94 94 93 93 92 92 91 92 93 93 94 94 93 95 87 78 81 77 72 66 104 98 105 90 79 31 31 33 34 36 35 35 34 35 34 34 34 34 28 29 191 161 111 113 124 121 132 130 166 182 159 146 140 69 54 70 70 32 38 37 40 35 36 40 108 102 95 104 40 36 37 37 108 111 103 103 102 102 104 103 104 104 105 105 106 106 107 107 107 108 108 108 107 107 108 108 108 109 109 109 108 108 109 109 109 110 110 110 111 111 112 112 112 113 113 113 113 112 113 113 113 114 114 114 114 114 115 115 115 116 116 116 118 118 119 119 119 120 121 121 120 120 120 121 120 119 120 119 120 120 108 109 103 105 115 116 124 135 112 115 131 133 126 146 146 147 136 94 76 76 101 96 89 121 73 78 82 85 91 74 75 91 132 110 106 118 120 120 135 131 133 115 109 136 133 127 135 132 140 128 112 101 108 115 134 133 142 112 108 97 85 110 111 106 110 115 131 150 145 90 75 90 109 119 116 67 60 152 141 129 108 105 130 120 104 68 61 62 69 101 105 111 119 132 129 151 148 151 151 155 152 137 136 131 103 102 97 130 136 109 113 118 110 107 72 53 50 50 42 41 50 51 54 52 53 52 52 165 166 167 168 167 167 164 165 166 168 157 144 151 156 124 128 122 112 134 130 115 121 133 120 114 115 129 98 92 114 115 110 99 95 115 113 124 135 131 135 107 92 90 180 186 180 175 173 174 173 174 174 175 175 175 175 175 176 176 176 176 177 177 177 177 177 178 177 178 177 178 178 179 178 179 178 179 178 178 178 179 178 181 136 128 124 118 119 125 101 101 113 108 112 118 116 116 118 140 135 140 132 131 135 138 136 127 124 140 141 143 149 145 127 138 143 141 150 137 126 127 115 108 108 117 118 126 134 127 111 100 103 105 130 127 128 151 154 107 104 121 119 127 124 
95 95 95 95 95 95 95 95 94 94 94 94 94 94 94 94 95 95 95 95 95 95 95 95 95 95 95 95 95 95 95 95 94 94 94 94 94 94 94 94 94 94 94 94 94 94 94 93 93 93 93 93 93 93 93 94 94 94 94 94 94 94 93 93 92 92 92 92 93 94 94 95 95 94 94 98 88 76 67 63 57 71 91 89 92 91 46 30 33 34 36 36 36 35 34 34 42 33 40 37 34 194 168 178 165 115 109 169 195 184 97 173 103 91 45 56 35 36 29 38 37 34 33 37 105 103 108 112 35 37 33 107 109 108 103 103 103 103 104 104 105 105 105 105 106 107 107 107 108 108 108 108 108 108 108 109 109 109 110 110 108 109 109 109 110 110 110 110 111 112 112 112 113 113 113 113 114 113 113 114 114 114 115 115 115 115 115 116 116 116 116 116 118 118 119 119 120 121 121 121 121 121 121 121 120 120 121 120 119 117 107 106 104 105 116 114 119 133 133 123 128 130 123 146 152 106 124 94 83 87 77 79 81 135 118 79 80 87 85 103 107 112 139 131 128 112 114 123 130 111 126 132 133 127 136 136 132 103 113 124 123 105 112 106 132 125 120 117 121 84 84 114 111 112 102 132 129 99 126 88 97 81 111 113 113 113 68 69 136 97 110 119 134 101 80 72 70 70 99 102 107 105 110 122 158 149 148 142 150 146 150 149 130 127 112 102 90 81 122 101 122 113 120 112 52 46 54 48 45 44 42 54 51 47 46 54 54 169 170 160 160 163 163 161 163 165 166 135 138 146 150 120 119 130 135 134 126 120 115 127 130 115 117 124 103 117 118 111 100 110 133 137 107 127 130 134 135 94 83 83 86 176 172 174 173 173 173 174 174 175 175 175 175 175 176 176 176 176 177 177 177 178 177 178 177 178 177 178 179 179 178 179 178 179 178 179 179 180 178 175 152 125 125 130 127 128 122 108 122 119 111 110 116 118 121 131 137 142 145 139 145 135 131 137 142 140 138 139 131 145 151 129 147 150 140 140 135 142 134 106 105 106 96 81 84 118 115 108 107 116 128 128 126 158 159 121 119 127 128 129 126 
96 96 96 96 96 96 96 95 95 95 95 95 95 95 95 94 95 96 96 96 96 96 96 96 96 96 96 96 96 96 96 95 95 95 95 95 95 95 95 95 95 95 95 95 95 95 95 94 93 93 93 93 93 93 93 93 93 93 94 94 95 95 95 94 92 92 92 93 94 94 94 94 95 95 98 95 93 92 93 54 67 62 58 94 90 90 97 31 32 31 32 35 36 35 34 33 30 41 42 34 37 33 32 194 157 147 118 53 50 67 86 86 104 148 141 132 34 33 37 38 40 33 35 38 110 113 110 40 40 37 33 106 104 105 102 103 103 103 104 104 105 105 106 105 107 107 107 108 108 108 109 109 109 109 109 108 110 110 110 110 109 109 109 109 110 110 110 111 111 112 112 112 113 113 113 114 114 113 113 113 114 114 114 115 115 115 115 115 116 116 116 118 118 118 119 120 120 121 121 121 122 122 121 121 121 121 121 121 117 117 104 103 105 106 119 119 116 141 133 124 125 123 118 136 135 97 87 82 80 78 76 72 123 139 123 117 121 119 101 99 100 112 132 136 133 116 114 124 108 91 119 135 139 128 88 106 107 98 103 113 82 78 103 108 103 118 117 134 128 89 91 119 116 103 106 134 134 93 92 77 94 98 90 91 103 106 50 42 77 86 120 149 140 117 117 50 70 128 132 130 101 108 111 137 156 151 141 143 144 146 144 137 94 82 94 95 91 86 82 88 108 120 120 54 53 54 49 51 61 51 45 51 47 52 51 54 52 158 169 164 160 162 162 157 163 156 131 134 133 142 141 116 119 127 136 129 111 112 122 129 123 128 125 116 102 120 115 115 105 140 132 121 126 127 131 129 119 113 102 81 76 178 172 175 174 173 173 174 175 175 175 176 176 176 176 176 177 176 177 178 178 179 179 179 179 179 179 179 179 180 180 180 180 180 180 180 180 181 179 168 134 130 135 131 129 104 124 129 119 122 122 112 115 122 125 129 127 148 144 148 147 139 141 145 143 140 139 140 130 149 144 137 153 158 140 134 137 143 147 132 105 101 86 90 93 90 110 128 130 117 116 128 124 161 155 127 130 128 130 131 132 
96 96 96 96 96 96 96 96 95 95 95 95 95 95 95 95 96 96 96 96 96 96 96 96 96 96 96 96 96 96 96 96 95 95 95 95 95 95 95 95 95 95 95 95 95 95 95 95 94 94 94 94 94 94 94 94 94 94 94 94 94 95 95 94 94 93 93 95 94 95 94 94 96 92 89 93 93 96 96 88 67 56 55 58 94 104 99 73 33 30 32 34 34 33 33 32 40 32 32 38 31 34 40 36 41 114 98 49 61 58 85 86 89 172 160 119 81 130 97 34 39 40 40 100 99 107 113 38 39 36 39 104 104 102 103 104 103 103 105 104 105 105 106 106 107 107 108 108 108 109 109 109 109 110 110 110 111 111 111 111 109 109 110 110 110 111 111 111 112 112 113 113 113 114 113 114 114 115 115 115 116 116 116 116 116 117 117 117 118 118 118 118 119 119 119 121 120 122 123 122 122 122 122 122 122 122 122 123 122 124 113 102 97 98 119 120 116 123 128 133 118 122 120 122 128 100 78 80 69 74 76 92 116 110 110 110 118 114 103 84 104 122 130 131 125 120 122 126 87 98 79 85 94 92 86 80 102 99 98 101 83 85 100 103 103 120 121 138 139 97 95 100 106 110 128 119 127 115 88 100 86 92 93 98 97 65 58 49 45 105 127 136 139 128 115 56 57 140 134 131 103 99 105 133 158 155 158 141 140 145 142 113 86 85 79 101 89 89 69 69 103 112 69 56 63 54 53 53 120 133 89 45 46 52 56 51 51 67 138 172 163 159 159 164 158 119 126 136 139 139 139 125 122 121 121 114 110 113 115 118 127 138 133 115 132 125 118 114 122 128 125 116 128 130 117 121 127 116 97 72 76 180 176 175 174 174 174 174 176 176 177 176 176 177 177 178 177 177 178 178 178 179 179 179 179 179 179 179 180 180 180 180 180 180 180 180 180 180 181 180 123 128 132 134 84 90 126 135 100 94 120 117 124 124 126 126 108 122 151 150 133 144 144 146 143 136 140 138 143 131 136 153 155 147 138 139 127 146 144 125 125 122 108 87 98 94 92 131 131 110 110 109 119 154 153 140 133 128 131 133 130 
97 97 97 97 97 97 97 96 96 96 96 96 96 96 96 95 96 97 97 97 97 97 97 97 97 97 97 97 97 97 97 96 96 96 96 96 96 96 96 96 96 96 96 96 96 96 95 95 95 96 96 96 96 95 95 96 96 96 96 95 95 95 95 95 96 96 96 95 96 95 95 94 96 94 93 91 92 95 96 97 68 59 54 64 69 109 100 80 42 34 32 33 33 32 32 34 42 31 36 35 35 43 41 38 40 43 80 96 60 72 90 96 97 93 161 138 148 107 117 78 82 37 44 101 101 104 65 36 35 35 85 105 101 101 107 106 104 103 105 105 106 105 106 106 108 108 108 108 109 109 109 110 110 110 111 111 111 112 112 112 109 110 110 110 111 111 111 112 112 113 113 113 114 114 114 114 115 115 116 116 116 117 117 117 117 117 118 118 118 119 119 118 119 119 121 121 122 123 122 123 123 123 123 123 122 123 123 123 123 124 131 97 97 95 116 117 125 121 133 136 120 123 127 129 125 121 65 75 59 73 101 129 110 117 111 110 104 106 111 82 75 91 94 97 96 85 82 81 80 69 74 94 97 99 89 90 98 91 84 100 112 94 98 95 121 117 116 141 134 114 89 79 105 109 120 115 113 96 97 96 101 70 60 82 88 78 63 52 46 123 127 132 137 93 98 67 75 132 136 136 102 103 120 132 126 160 156 161 139 135 144 142 136 80 74 101 108 97 70 125 107 55 59 56 62 60 134 157 153 138 131 61 75 53 53 55 57 75 90 119 163 168 163 160 115 125 120 138 138 138 141 141 122 120 123 118 112 112 113 118 121 134 128 130 139 124 118 123 128 115 120 110 128 121 122 120 109 112 103 84 78 168 176 174 175 175 175 175 176 176 178 179 178 178 178 178 178 179 179 179 179 179 179 179 179 179 179 179 180 180 180 180 180 180 180 180 181 181 179 180 121 125 128 80 90 131 130 117 95 99 99 142 139 130 99 103 102 126 132 131 130 150 145 147 123 120 120 124 132 130 130 156 157 148 147 127 122 119 121 114 120 117 117 121 99 97 99 103 110 112 113 111 111 106 116 104 106 117 116 119 137 
97 97 97 97 97 97 97 97 96 96 96 96 96 96 96 96 97 97 97 97 97 97 97 97 97 97 97 97 97 97 97 97 96 96 96 96 96 96 96 96 96 96 96 96 96 96 96 95 96 96 96 96 96 96 95 95 96 96 96 96 95 96 95 96 98 98 97 97 96 95 94 94 95 96 92 93 93 94 96 93 96 90 77 70 59 50 101 77 91 51 41 40 35 31 32 37 37 39 36 34 36 41 40 50 49 43 102 81 58 70 91 94 94 89 77 63 133 130 99 84 98 60 43 101 103 105 31 34 34 36 111 109 108 104 106 105 104 104 104 105 106 106 106 106 108 108 108 109 109 109 110 110 110 111 111 112 112 112 112 112 110 110 110 111 111 111 112 112 113 113 113 114 114 114 114 114 115 115 116 116 117 116 117 117 117 117 118 118 119 118 119 119 119 119 121 122 123 122 122 123 123 123 123 123 123 124 124 124 125 127 128 118 97 100 119 116 129 132 133 135 125 122 128 128 112 46 42 48 54 59 141 143 115 117 115 110 102 102 104 87 88 95 95 99 102 93 73 79 83 67 67 95 100 98 93 89 82 93 72 112 116 102 91 104 118 112 114 119 118 82 74 70 115 117 111 112 110 110 95 102 102 97 59 49 88 47 49 52 53 128 118 119 111 101 89 103 94 98 126 128 103 102 104 124 127 123 151 157 120 122 138 142 137 85 102 96 104 70 56 104 125 49 49 56 56 60 156 150 159 148 139 90 104 50 53 61 83 98 108 105 110 131 162 130 116 115 142 140 134 111 145 139 127 130 127 118 112 110 119 125 123 121 113 141 139 132 120 121 121 116 132 128 130 124 132 129 107 106 117 124 93 171 173 174 174 175 175 176 177 177 178 178 178 178 178 178 178 178 179 179 179 179 180 180 180 180 180 180 181 182 181 181 181 181 181 181 181 184 183 155 115 112 111 95 79 131 142 122 117 97 108 142 141 131 102 100 138 135 127 127 144 144 149 127 121 121 122 123 137 137 135 150 144 147 150 126 116 117 104 105 110 114 118 130 109 114 99 102 110 113 121 122 106 111 112 109 107 110 113 123 96 
97 97 97 97 97 97 97 96 96 96 96 96 96 96 96 96 96 97 97 97 97 97 97 97 97 97 97 97 97 97 97 96 96 96 95 96 95 96 95 96 95 96 95 96 95 96 95 96 96 96 96 96 96 96 96 96 96 96 96 96 96 96 96 96 98 98 98 97 96 95 95 95 95 96 94 94 95 97 94 93 96 94 83 76 69 49 40 91 84 58 49 43 34 33 33 37 36 38 39 40 38 33 44 45 48 47 39 73 106 77 76 45 89 52 83 39 89 142 166 90 71 59 91 89 103 54 33 35 34 43 107 110 108 104 102 102 104 104 105 105 106 106 106 107 108 108 108 109 109 110 110 110 110 111 111 111 112 112 112 113 110 110 110 110 111 111 111 112 112 113 113 113 114 114 114 114 116 116 117 116 117 117 118 118 118 118 119 118 119 119 121 119 119 119 120 121 122 123 123 124 123 124 123 124 125 125 125 125 124 125 124 127 118 111 121 121 118 133 132 134 127 124 119 122 116 47 43 47 58 131 125 110 113 115 118 105 107 100 103 94 98 99 94 99 97 95 82 82 88 72 72 97 95 102 96 61 68 56 56 108 109 115 92 92 94 113 120 116 114 86 73 101 123 117 111 114 111 86 96 101 99 95 43 46 87 42 47 60 108 127 123 122 100 102 118 117 85 82 110 122 99 102 100 120 124 143 162 151 118 123 141 139 142 94 91 99 72 70 96 109 51 58 49 53 58 156 157 146 146 156 106 104 85 109 52 66 60 94 107 115 110 121 135 134 123 129 135 140 112 116 115 115 128 133 128 112 110 121 127 123 130 122 118 123 118 128 128 124 118 142 140 128 132 132 133 131 122 112 127 131 95 174 176 173 175 175 176 176 177 178 178 178 178 178 178 179 178 179 179 179 180 180 180 180 180 180 180 181 181 181 181 181 181 181 181 181 182 185 174 115 109 110 99 97 136 127 131 140 139 110 131 126 134 134 133 139 146 132 136 145 139 126 124 123 123 122 122 128 143 145 139 144 145 144 141 144 115 114 105 103 108 113 123 127 132 128 125 141 140 117 117 125 117 127 132 133 131 136 149 162 123 
95 95 96 96 96 96 95 95 95 96 96 96 96 96 96 96 96 97 97 97 97 97 97 96 96 96 96 96 96 96 96 95 95 95 95 95 95 95 95 95 95 95 95 95 95 95 95 95 94 94 95 96 95 95 95 94 96 96 96 96 96 96 96 96 96 96 96 96 96 96 96 96 96 96 96 96 96 96 96 95 95 94 99 102 86 42 53 39 92 88 49 51 61 36 39 33 35 38 40 36 36 40 34 46 49 49 23 32 142 129 66 60 52 42 36 31 27 41 196 136 92 79 93 81 53 32 26 31 43 111 106 106 107 106 107 103 105 104 104 105 108 107 105 106 108 109 109 110 110 110 111 111 111 111 111 112 112 112 113 113 112 112 112 113 113 113 114 114 114 115 115 116 116 116 117 117 117 117 117 118 118 119 119 119 119 119 119 120 120 121 121 121 119 120 120 120 121 121 122 122 124 124 124 125 125 125 126 125 124 123 124 131 135 115 111 119 123 118 129 113 107 118 118 104 63 46 47 46 49 140 135 113 110 110 98 96 90 92 81 86 101 96 97 99 94 83 92 88 103 80 91 101 101 85 78 60 62 55 53 76 108 113 92 96 94 111 117 107 83 98 103 103 90 115 113 112 110 94 78 109 98 106 44 47 96 100 50 44 76 97 119 119 103 99 114 108 108 92 100 91 93 102 113 109 130 141 139 149 133 126 126 130 95 92 95 87 68 72 52 64 76 55 77 67 158 161 157 157 154 152 108 115 94 130 118 54 58 54 121 127 136 123 137 138 132 136 120 108 121 122 113 123 122 131 132 124 116 121 130 129 134 127 132 124 115 105 118 118 130 131 133 126 117 131 133 121 116 113 130 127 87 68 179 175 173 173 173 171 170 169 172 151 172 175 172 127 120 107 181 180 179 180 179 181 181 178 184 186 183 183 182 182 181 181 181 181 182 185 186 143 109 102 126 139 137 139 129 135 140 114 123 131 130 136 135 130 147 149 148 150 140 131 124 123 124 126 134 138 146 142 140 143 143 138 144 142 124 121 96 96 97 93 110 131 119 128 139 145 145 123 113 100 92 113 138 137 131 135 140 152 176 
95 95 96 97 97 96 96 95 96 96 96 96 96 96 96 96 97 97 97 97 97 97 97 97 96 96 96 96 96 96 96 96 95 95 95 95 95 95 95 95 95 95 95 95 95 95 95 95 94 95 95 96 96 95 95 94 96 96 96 96 96 96 96 96 96 97 97 97 97 97 97 97 97 97 97 97 97 97 97 96 95 96 98 96 99 92 47 51 49 66 55 53 67 60 42 36 38 35 40 33 38 31 34 54 55 29 35 37 39 122 121 147 33 30 32 33 36 36 43 57 76 82 83 84 38 37 38 37 84 109 106 104 104 103 107 105 104 105 105 107 110 110 111 109 109 109 110 110 110 111 111 111 111 111 112 112 112 113 113 113 112 112 113 113 113 114 114 114 115 115 116 116 116 117 117 117 117 117 118 118 118 119 119 119 119 119 120 120 120 121 121 121 121 120 121 121 121 122 122 122 124 124 125 125 125 126 126 125 125 125 125 135 134 111 118 122 119 129 130 99 97 120 125 110 63 52 44 59 107 126 115 116 108 86 89 94 91 85 83 80 96 97 101 107 109 86 92 105 102 105 103 101 95 88 84 71 51 57 62 89 99 85 92 95 95 75 95 93 84 105 104 110 86 94 100 113 89 79 80 68 121 97 46 52 43 80 45 47 87 116 115 107 107 98 111 100 106 109 110 92 91 87 103 107 143 149 144 142 131 127 125 127 93 96 93 84 75 49 58 68 70 96 97 81 172 166 161 155 152 143 134 110 118 112 115 82 54 57 119 114 128 153 152 144 128 134 124 113 126 128 126 129 124 132 135 135 123 124 129 117 130 134 133 114 101 122 131 113 121 112 114 119 113 115 123 130 114 111 107 123 91 73 176 176 171 171 168 166 164 160 165 144 145 151 156 146 116 117 94 104 178 180 182 177 177 177 184 184 183 182 182 182 181 181 181 182 183 181 184 188 135 123 132 126 140 131 124 122 116 119 118 128 132 128 131 131 144 145 136 142 155 157 155 148 129 127 149 151 141 145 139 142 141 139 136 133 122 126 128 127 104 101 104 104 122 108 128 142 139 132 112 96 97 94 133 138 133 142 128 129 141 
96 96 97 97 97 97 96 96 96 96 96 96 96 96 96 96 97 97 97 97 97 97 97 97 96 96 96 96 96 96 96 96 95 95 95 95 95 95 95 95 95 95 95 95 95 95 95 95 95 95 96 96 96 96 95 95 96 96 96 96 96 96 96 96 97 97 97 97 97 97 97 97 97 97 97 97 97 97 97 97 100 94 98 102 102 93 62 65 59 52 62 63 52 49 57 40 36 31 26 37 35 31 28 55 62 34 37 40 32 59 132 118 99 123 82 33 30 31 38 62 94 78 80 87 39 37 39 45 110 110 105 106 104 104 106 104 106 105 105 106 107 110 111 109 109 110 110 110 111 111 111 111 111 112 112 112 113 113 113 113 112 113 113 113 114 114 114 114 115 116 116 116 117 117 117 117 117 118 118 118 119 119 119 119 119 120 120 120 121 121 121 121 121 121 121 122 122 122 123 123 124 125 125 125 126 126 126 126 125 124 127 126 131 104 103 128 135 132 120 106 117 124 108 60 68 62 72 72 117 101 101 111 122 90 123 117 68 77 79 83 135 140 110 100 105 111 107 100 105 103 102 98 97 90 77 57 57 105 106 112 99 84 79 89 64 74 92 85 128 134 110 101 112 130 103 112 112 74 76 72 115 126 60 55 53 102 58 59 65 116 106 115 101 118 121 105 106 117 115 111 96 90 109 105 148 148 151 139 125 128 130 130 89 86 89 58 47 55 82 87 77 102 80 80 159 160 153 156 141 142 137 130 134 107 102 93 82 73 122 120 128 151 155 132 134 120 121 123 122 120 125 131 133 132 134 128 129 124 125 117 115 130 143 158 116 123 124 144 111 107 120 131 126 117 123 126 107 110 107 117 86 86 177 166 159 156 161 165 162 166 148 138 146 146 158 159 156 101 96 102 146 158 160 182 182 183 181 182 183 183 183 182 183 182 184 183 186 185 183 185 185 166 122 130 134 126 127 117 113 116 115 117 128 132 142 143 150 130 135 148 149 158 155 138 136 131 147 149 148 143 140 142 143 139 137 124 121 131 128 130 122 106 101 103 100 93 95 109 139 136 104 104 93 102 94 102 129 132 132 127 132 
96 96 97 98 98 97 96 96 96 97 97 97 97 97 97 96 97 97 97 97 97 97 97 97 97 97 97 97 97 97 97 96 95 96 96 96 96 96 96 96 96 96 96 96 96 96 96 95 95 95 96 97 97 96 95 95 96 97 97 97 97 97 97 97 97 98 98 98 98 98 98 98 98 98 98 98 98 98 98 97 101 100 99 96 92 55 61 70 58 57 59 55 54 50 51 60 65 40 31 36 34 36 28 57 34 39 40 35 35 31 31 44 40 137 100 75 74 71 72 81 91 91 85 35 39 38 39 110 109 108 104 105 106 108 109 103 109 105 105 106 107 108 108 108 109 109 110 110 110 111 111 111 111 111 112 112 112 113 113 113 112 113 113 113 114 114 114 115 115 116 116 116 117 117 117 117 117 118 118 118 119 119 119 119 119 120 120 120 121 121 121 121 121 122 122 121 123 123 123 124 124 125 125 125 126 126 126 126 125 127 125 122 126 104 103 123 129 90 99 111 132 118 61 60 58 64 74 149 144 89 94 133 126 104 124 121 89 70 81 81 135 136 108 104 103 113 109 99 102 103 101 99 116 132 107 62 113 98 110 107 92 74 76 94 66 75 97 107 137 132 134 111 113 125 129 131 126 114 101 90 113 117 76 66 122 107 104 88 68 105 116 101 107 122 132 110 105 103 111 107 109 99 109 111 119 149 147 140 122 121 133 128 104 88 91 58 43 53 76 81 115 122 100 111 121 147 167 165 133 136 127 126 134 128 103 106 118 102 134 136 134 151 138 135 133 123 121 133 128 122 118 138 130 128 123 116 114 115 121 116 135 140 147 151 137 146 136 150 144 119 130 130 124 120 120 111 108 111 122 120 92 72 179 169 154 159 158 159 144 147 142 136 143 140 151 158 154 142 136 130 157 151 153 180 181 181 180 181 183 183 182 182 183 183 183 184 187 188 180 180 187 181 163 118 117 132 129 123 83 115 117 114 131 146 144 147 138 134 138 147 142 142 140 139 141 164 151 140 140 133 92 87 91 124 132 127 128 132 129 127 134 132 128 119 95 96 90 67 71 76 78 83 88 95 101 106 113 125 128 130 135 
96 97 98 98 98 98 97 96 97 97 97 97 97 97 97 97 97 97 97 97 97 97 97 97 97 97 97 97 97 97 97 97 96 96 96 96 96 96 96 96 96 96 96 96 96 96 96 96 95 96 97 97 97 97 96 95 97 97 97 97 97 97 97 97 98 98 98 98 98 98 98 98 98 98 98 98 98 98 98 98 96 103 102 65 70 55 61 64 67 68 61 54 55 55 49 61 76 77 33 34 29 35 69 60 37 37 36 37 33 33 30 31 47 31 32 44 40 42 34 45 57 81 50 37 38 39 32 115 108 105 106 109 95 108 109 107 106 107 108 108 109 110 109 110 110 110 110 110 110 111 111 111 111 111 112 112 112 113 113 113 113 113 114 114 114 115 115 115 116 116 117 117 117 118 118 118 118 118 119 119 119 120 120 120 120 120 121 121 121 122 121 122 122 122 122 122 123 123 123 123 124 124 125 125 125 126 126 126 126 128 127 122 127 107 109 123 123 90 92 144 127 135 54 55 50 56 65 132 128 122 101 122 123 109 111 116 101 92 66 68 128 120 113 103 112 106 113 112 99 98 101 105 122 119 120 113 100 106 78 77 84 45 46 63 84 89 112 107 103 124 111 105 104 121 135 128 130 122 121 81 98 101 57 58 103 121 80 64 91 146 139 143 148 132 106 111 98 101 84 88 108 110 123 125 127 123 140 138 133 122 113 110 115 117 101 65 67 53 72 78 102 113 113 111 101 115 155 140 147 125 118 136 132 134 128 120 114 114 139 139 130 121 134 146 142 124 124 123 129 127 129 127 137 128 133 117 118 114 127 130 134 149 135 142 133 143 143 119 126 124 127 127 114 139 120 110 108 109 121 121 61 76 178 172 170 153 135 140 151 153 151 145 138 143 154 154 152 152 157 156 161 164 153 147 151 170 185 184 182 182 183 183 185 185 186 186 186 185 185 178 182 184 117 108 112 123 118 117 73 61 128 142 148 146 130 131 133 136 139 137 146 139 140 138 144 163 161 140 134 120 97 92 103 113 121 120 120 129 129 129 133 134 131 119 77 78 78 67 65 66 86 75 80 108 127 122 123 132 128 129 138 
97 97 98 98 98 98 97 97 97 98 98 98 98 98 98 97 96 97 97 97 97 97 97 97 97 97 97 97 97 97 97 97 97 97 97 97 97 97 97 97 97 97 97 97 97 97 97 96 95 96 96 97 97 96 96 95 97 97 97 97 97 97 97 97 98 98 98 98 98 98 98 98 98 98 98 98 98 98 98 98 96 87 78 73 60 103 98 95 100 85 95 85 52 53 73 59 69 89 69 42 32 38 60 64 40 34 35 38 31 31 30 29 38 31 30 38 29 37 30 36 77 78 33 37 35 35 107 103 112 107 96 94 90 101 101 98 94 101 107 108 110 109 110 110 110 110 110 110 111 111 111 112 112 112 112 112 113 113 113 113 113 114 114 114 115 115 115 116 116 117 117 117 118 118 118 119 119 119 119 119 120 120 120 121 121 121 121 121 122 122 122 123 123 122 123 123 123 124 124 124 125 125 125 125 126 126 126 127 126 125 126 124 122 114 124 125 124 94 94 120 132 93 52 47 63 61 70 117 109 99 100 106 93 111 112 112 92 99 69 64 134 113 114 124 111 101 113 110 87 96 98 97 102 93 98 122 82 75 76 79 81 41 37 48 119 129 137 140 135 133 109 99 100 126 121 99 93 88 115 93 97 91 74 74 85 101 57 61 62 118 135 152 136 134 98 92 125 103 75 78 93 109 122 125 127 124 139 145 138 115 113 111 109 117 122 77 75 73 94 84 76 84 108 85 96 168 165 149 137 126 137 127 129 129 132 127 120 115 137 138 122 122 145 148 149 124 123 123 129 131 130 129 145 139 139 123 121 121 132 140 125 120 133 137 154 146 114 117 126 114 117 118 104 133 144 116 110 111 111 114 101 80 121 163 131 140 137 139 150 152 150 144 142 154 151 151 150 153 157 154 155 164 147 144 134 140 186 187 181 182 182 184 185 185 186 186 186 185 183 183 184 133 128 122 114 115 119 113 70 70 114 126 145 137 134 130 138 137 143 150 159 155 153 143 139 154 154 152 154 156 143 154 152 122 125 122 123 128 130 120 87 81 80 79 82 67 93 137 130 121 114 119 125 127 121 120 121 130 133 135 129 
97 98 98 98 98 98 98 97 98 98 98 98 98 98 98 98 96 96 96 96 96 96 96 96 96 97 97 97 97 97 97 97 97 97 97 97 97 97 97 97 97 97 97 97 97 97 97 97 95 95 96 96 96 96 95 95 97 97 97 97 97 97 97 97 97 98 98 98 98 98 98 98 98 98 98 98 98 98 98 98 96 85 70 102 95 99 96 99 93 100 100 95 92 73 69 113 118 110 67 50 44 44 39 34 36 39 36 36 37 30 31 30 48 49 51 31 31 38 36 36 71 82 30 41 37 37 91 114 41 55 70 79 103 100 83 94 90 95 103 108 109 109 108 109 110 110 110 111 111 111 112 112 112 112 112 113 113 113 114 113 114 114 114 115 115 115 116 116 117 117 117 118 118 118 119 119 119 119 119 120 120 120 121 121 121 121 121 122 122 122 122 123 123 123 123 124 124 124 125 125 125 125 125 126 126 126 126 127 128 124 123 127 105 110 123 124 125 96 107 115 112 85 55 52 70 71 124 114 118 109 100 112 97 94 116 115 111 93 81 149 147 139 131 128 99 133 121 94 90 105 100 96 100 99 90 87 83 69 72 81 87 51 39 62 133 143 141 142 136 127 129 135 134 132 111 97 91 92 72 92 91 86 94 114 103 118 115 62 117 110 121 120 97 89 92 86 143 156 114 76 66 117 120 119 124 128 139 139 135 107 113 112 112 121 126 82 65 61 86 70 72 75 102 82 92 159 161 155 142 141 129 134 106 129 131 134 133 138 133 133 122 115 145 147 150 126 123 126 137 134 139 147 147 138 136 135 124 122 116 123 110 126 156 158 157 159 153 134 114 104 106 111 102 132 108 107 115 115 111 111 101 85 92 119 128 138 136 134 126 123 117 118 143 153 156 147 141 144 146 143 144 141 132 141 134 103 110 183 181 182 183 183 186 185 188 188 185 184 185 183 181 134 132 133 124 121 117 120 115 126 118 120 135 143 146 137 139 138 141 154 157 154 154 146 140 137 154 155 151 159 159 149 145 133 128 127 125 126 128 103 91 83 78 70 65 120 130 126 131 116 120 118 123 119 122 123 123 125 117 114 107 
97 98 98 98 98 98 98 97 98 98 98 98 98 98 98 98 96 96 96 96 96 96 96 96 97 97 97 97 97 97 97 97 97 97 97 97 97 97 97 97 97 97 97 97 97 97 97 97 96 96 96 97 97 96 96 96 97 97 97 97 97 97 97 97 98 98 98 98 98 98 98 98 98 98 98 98 98 98 98 98 98 102 102 96 98 96 101 101 100 99 102 99 100 90 83 89 137 95 83 92 98 44 37 35 36 36 33 36 35 30 34 33 31 39 39 32 35 37 35 36 58 35 34 30 40 40 32 37 51 47 97 100 106 66 79 87 95 103 108 109 110 108 108 109 110 110 110 111 111 112 112 112 112 112 112 113 113 114 114 114 114 114 114 114 115 115 115 116 116 117 117 117 118 118 118 119 119 119 119 119 120 120 120 121 121 121 121 121 122 122 122 122 123 123 123 123 124 124 124 125 125 125 125 126 126 127 127 127 128 125 124 129 107 112 124 128 111 88 90 108 103 75 61 66 65 73 114 105 100 103 101 118 113 91 114 114 112 87 76 135 149 136 113 83 62 49 125 93 90 125 140 103 100 102 83 88 89 72 72 76 67 58 86 118 118 127 139 144 119 124 131 133 142 121 119 138 90 87 79 81 94 88 112 106 115 98 110 80 121 119 114 95 106 84 83 86 153 160 135 70 66 123 127 123 131 140 136 117 116 110 106 107 120 128 125 112 62 73 96 108 72 66 109 105 92 99 124 117 144 87 84 98 99 102 128 137 139 141 137 120 118 117 123 139 126 130 131 130 140 142 145 151 145 138 109 124 123 109 101 98 133 127 131 148 154 163 161 129 114 114 116 95 109 105 114 112 114 114 105 99 97 91 82 118 122 132 131 127 124 119 115 117 126 131 133 137 144 142 138 140 145 147 141 111 87 99 176 184 181 183 182 183 185 185 187 188 186 185 184 183 184 183 147 146 120 118 120 117 121 127 118 119 141 143 146 147 146 154 153 154 148 150 150 140 141 136 155 155 152 161 163 153 122 116 115 117 126 126 127 127 129 131 123 113 121 128 123 120 118 120 125 127 119 121 119 126 125 121 117 117 113 
98 98 98 98 98 98 98 98 98 98 98 98 98 98 98 98 96 97 97 97 97 97 97 97 97 97 97 97 97 97 97 97 97 97 97 97 97 97 97 97 97 97 97 97 97 97 97 97 96 97 97 97 97 97 97 97 97 97 97 97 97 97 97 97 98 98 98 98 98 98 98 98 98 99 99 99 99 99 99 99 99 99 99 99 99 99 100 100 99 99 99 99 93 99 101 80 78 82 76 126 102 34 36 36 37 37 35 34 37 33 33 33 29 30 31 31 32 34 34 35 33 38 29 29 39 33 32 46 43 80 80 104 98 69 92 106 105 108 108 109 109 109 110 110 110 111 111 112 112 112 113 113 113 113 113 114 114 114 115 114 114 114 114 115 115 115 116 116 116 117 117 118 118 118 119 119 119 119 119 120 120 120 121 121 121 121 121 122 122 122 123 123 123 123 123 124 124 124 125 125 125 126 126 127 127 127 127 127 128 132 126 128 121 114 123 125 88 91 92 107 68 72 74 73 66 112 106 100 99 96 102 101 81 79 68 90 86 79 120 119 101 95 105 103 59 49 70 92 113 131 130 133 102 92 92 91 87 91 67 63 57 54 104 118 116 130 120 124 124 123 121 145 147 126 127 153 159 75 85 73 83 71 88 113 100 90 108 79 124 121 118 99 98 79 82 88 144 163 84 70 86 118 113 116 136 138 134 105 108 105 107 111 131 131 137 101 111 96 93 90 50 56 51 105 103 123 119 119 108 83 83 86 101 106 113 117 102 112 122 134 138 127 129 122 118 135 133 119 120 141 138 128 127 111 111 138 141 131 115 106 124 135 129 127 157 148 135 142 150 105 106 116 109 108 115 121 122 110 114 96 96 94 83 126 132 131 121 126 128 119 121 121 121 141 138 123 112 111 136 136 143 143 152 79 88 83 176 183 182 183 184 185 186 187 188 188 187 185 185 184 185 186 161 108 119 118 121 124 128 128 132 158 156 153 151 138 152 151 148 145 150 159 169 147 145 144 152 150 172 162 137 145 129 120 119 122 122 127 128 126 139 142 96 102 121 117 121 121 119 120 127 127 117 121 124 124 119 117 118 118 116 
98 98 98 98 98 98 98 98 98 98 98 98 98 98 98 98 97 97 97 97 97 97 97 97 97 97 97 97 97 97 97 97 97 97 97 97 97 97 97 97 97 97 97 97 97 97 97 97 97 97 97 97 97 97 97 97 97 97 97 97 97 97 97 97 97 98 98 98 98 98 98 98 98 99 99 99 99 99 99 99 99 99 99 100 99 99 100 100 100 100 101 103 100 104 101 110 75 110 110 88 96 79 36 40 42 37 34 33 35 33 32 31 30 30 31 32 32 33 34 34 32 35 34 29 22 36 37 40 51 108 127 117 111 116 110 106 107 108 108 109 109 110 110 109 110 110 111 112 111 112 113 113 113 113 113 114 113 114 115 114 114 114 115 115 115 116 116 116 117 117 118 118 118 119 119 119 119 119 120 120 120 121 121 121 121 121 122 122 122 123 123 123 123 123 123 123 123 124 125 124 125 126 126 126 126 127 127 127 129 131 125 117 120 126 124 74 92 114 120 113 65 72 77 74 117 109 104 97 98 99 103 89 91 86 75 64 92 130 116 113 101 89 90 45 55 68 69 61 120 120 133 131 82 84 87 83 85 88 68 61 61 81 130 106 116 120 127 126 122 127 132 132 146 122 126 160 157 100 85 83 78 60 57 100 114 103 59 72 122 120 125 101 98 88 78 81 120 94 71 73 121 114 115 119 136 133 130 99 101 101 104 112 118 131 132 125 119 96 88 92 76 56 77 92 86 98 127 130 107 85 92 94 111 115 123 119 98 89 137 142 141 130 130 123 119 117 123 121 120 139 140 129 129 138 132 141 143 122 118 119 126 130 136 127 159 157 136 136 159 165 127 135 124 108 86 129 123 118 128 135 98 99 68 62 124 121 119 118 127 126 122 120 136 138 141 117 112 115 115 135 138 146 148 71 65 73 179 184 183 183 183 184 186 186 188 188 187 186 185 182 187 187 174 105 106 120 131 128 132 128 128 166 156 152 159 123 113 116 130 148 149 168 168 165 133 126 138 136 163 166 135 129 111 114 117 118 121 123 126 110 96 78 96 92 115 115 116 119 112 111 122 120 114 113 120 119 115 116 118 120 120 
98 98 98 98 98 98 98 98 98 98 98 98 98 98 98 98 97 97 97 97 97 97 97 97 97 97 97 97 97 97 97 97 97 97 97 97 97 97 97 97 97 97 97 97 97 97 97 97 97 97 97 97 97 97 97 97 97 97 97 97 97 97 97 97 98 98 98 98 98 98 98 98 99 99 99 99 99 99 99 99 99 99 99 99 99 99 100 100 100 99 101 102 102 97 98 112 104 128 120 92 75 46 37 40 35 36 33 35 36 34 33 30 31 31 31 32 32 32 32 33 31 26 31 34 28 29 74 95 92 119 124 96 102 108 107 110 108 109 109 109 109 109 110 110 110 111 111 111 112 112 112 112 112 113 113 113 114 114 114 114 114 115 114 115 116 115 116 116 117 118 117 118 119 118 119 119 119 120 119 120 121 120 121 121 121 122 121 122 123 122 123 123 123 123 124 123 125 125 124 124 126 127 127 126 128 128 127 127 129 132 132 124 126 128 124 81 82 120 120 118 57 56 50 73 112 103 99 95 97 92 95 88 89 92 99 80 129 117 115 114 98 91 93 68 62 79 75 67 60 93 127 132 94 88 85 89 77 77 124 75 78 108 120 114 110 114 120 126 126 131 134 134 141 119 125 153 145 123 117 99 84 62 66 84 78 55 72 51 127 124 114 104 107 111 112 86 124 114 111 80 108 108 113 125 131 127 118 104 101 111 113 124 133 129 127 120 117 106 99 93 102 67 71 65 100 112 126 125 111 105 107 93 103 98 129 123 100 108 111 143 147 124 124 124 120 116 119 145 148 147 140 140 141 134 135 133 141 130 123 125 119 125 129 132 142 151 134 134 165 168 143 148 134 78 73 115 110 106 132 139 107 86 82 65 127 121 122 120 121 146 140 128 125 131 129 131 134 117 120 137 137 138 144 64 66 162 190 184 183 183 183 184 185 186 186 187 186 185 186 183 187 189 179 111 112 132 131 133 127 131 168 165 163 163 149 123 121 121 119 161 163 164 159 142 134 128 127 123 145 136 136 134 118 112 110 94 109 117 85 79 83 87 83 120 114 114 116 116 110 110 112 109 109 109 117 117 116 116 115 121 121 
99 99 99 99 99 99 99 99 99 99 99 99 99 99 99 98 98 97 97 97 97 97 97 97 97 97 97 97 97 97 97 97 98 98 98 98 98 98 98 98 98 98 98 98 98 98 98 97 97 98 98 98 98 98 98 98 98 98 98 98 98 98 98 98 98 99 99 99 99 99 99 99 99 100 100 100 100 100 100 99 99 99 99 100 100 99 100 99 100 103 104 102 98 95 91 111 95 89 110 110 62 45 48 41 38 34 39 32 31 34 35 34 31 31 31 31 32 32 32 31 27 26 27 32 57 87 89 122 67 95 101 100 105 105 107 109 109 110 109 109 110 109 110 110 111 111 111 112 112 112 113 113 113 113 113 114 114 114 115 114 115 115 115 116 116 116 117 117 118 118 118 119 119 119 120 120 120 120 120 121 121 121 122 122 122 122 122 123 123 123 124 124 123 124 124 125 125 125 126 126 127 127 127 128 128 128 128 128 129 129 130 132 124 117 99 93 90 123 121 121 51 43 46 127 122 102 100 103 91 94 90 88 88 94 103 87 110 116 106 102 117 91 101 100 84 97 98 77 80 129 140 129 106 99 110 105 111 129 140 133 129 121 101 98 91 88 94 110 113 121 135 141 140 136 125 136 139 116 114 84 92 72 79 86 53 46 48 141 125 110 107 107 107 116 120 90 82 112 91 82 94 108 100 106 129 128 113 111 113 114 114 115 129 126 124 116 109 105 103 114 130 129 68 70 118 111 99 84 79 102 103 112 103 104 103 112 122 124 118 140 133 125 125 125 121 123 128 144 146 144 142 139 145 139 138 134 136 123 126 124 111 110 127 119 130 145 122 124 164 164 143 138 157 97 84 73 106 134 134 130 125 83 57 54 129 126 121 122 122 145 148 128 129 132 130 129 130 135 132 139 140 136 142 72 74 202 189 185 184 184 184 185 185 186 186 186 185 184 186 185 187 188 189 134 133 135 134 130 128 156 160 170 155 145 145 141 135 129 136 162 167 159 148 145 146 145 121 126 134 136 137 133 123 106 105 87 80 88 89 81 89 79 111 116 115 111 116 114 111 110 111 111 108 107 116 117 116 113 107 106 111 
99 99 99 99 99 99 99 99 99 99 99 99 99 99 99 99 98 97 97 97 97 97 97 97 97 97 97 97 97 97 97 98 98 98 98 98 98 98 98 98 98 98 98 98 98 98 98 98 98 98 98 98 98 98 98 98 98 98 98 98 98 98 98 98 99 99 99 99 99 99 99 99 100 100 100 100 100 100 100 100 100 100 100 100 100 100 101 101 101 102 100 99 98 93 97 93 125 79 75 95 84 70 48 42 41 43 52 34 31 33 35 31 31 31 32 31 31 30 30 31 32 29 28 29 60 87 46 73 96 111 107 106 103 107 107 110 110 111 110 111 110 109 110 110 111 111 112 112 112 113 113 113 113 113 114 114 114 115 115 115 115 115 116 116 116 117 117 117 118 118 119 119 119 120 120 120 120 120 121 121 121 122 122 122 122 122 123 123 123 124 123 124 124 124 125 125 125 126 126 126 127 127 128 128 128 129 128 128 127 127 130 130 122 117 86 94 89 119 125 112 46 47 46 116 98 104 110 111 99 104 101 111 101 98 94 89 112 109 116 119 122 118 116 94 95 90 111 102 83 72 137 135 121 114 113 85 92 138 139 148 134 112 106 94 83 89 86 93 124 119 79 67 143 135 100 102 110 108 111 68 65 87 78 73 57 48 45 129 135 118 105 105 112 113 115 81 88 114 89 85 96 98 97 100 139 134 117 116 116 115 116 124 121 125 122 115 108 99 109 117 120 127 74 91 117 122 98 82 84 88 91 117 117 100 101 121 120 122 123 136 135 134 121 121 126 124 134 138 138 139 138 136 131 129 134 125 123 117 119 120 107 106 109 127 126 125 123 125 154 139 135 137 151 156 117 72 89 122 129 127 123 45 49 49 59 121 117 115 117 117 148 141 134 137 140 133 132 132 131 131 141 140 134 83 66 198 183 184 185 184 185 185 186 186 186 186 185 185 184 183 184 186 190 144 136 131 134 133 140 164 165 123 130 143 145 138 130 128 130 163 159 161 145 142 150 147 134 124 129 132 124 127 130 124 109 84 78 93 121 116 117 119 122 117 108 105 104 113 109 110 110 111 106 106 111 116 112 107 108 107 102 
100 100 100 100 100 100 100 100 100 100 100 100 100 100 100 99 97 98 98 98 98 98 98 98 98 98 98 98 98 98 98 97 98 99 99 99 99 99 99 99 99 99 99 99 99 99 99 98 98 98 98 98 98 98 98 98 98 98 98 98 98 98 98 98 99 99 99 99 99 99 99 99 100 100 100 100 100 100 100 100 100 100 100 100 100 100 101 101 100 104 103 99 103 103 99 95 139 128 73 55 154 154 59 69 43 48 54 39 36 38 38 31 31 32 31 31 30 30 30 30 33 29 29 41 66 49 37 101 106 107 105 105 112 112 108 112 110 110 111 111 111 110 110 110 112 112 112 112 113 113 113 114 114 114 114 114 115 115 115 115 115 116 116 116 117 117 117 118 118 119 119 119 120 120 120 121 121 121 121 121 122 122 122 123 123 123 123 123 124 124 124 125 124 125 125 125 126 126 126 127 127 128 128 128 129 129 129 129 128 130 129 125 111 114 88 85 122 120 103 86 45 53 41 110 100 103 111 109 110 121 112 114 100 97 95 119 106 121 118 118 120 126 124 101 93 99 117 130 86 97 125 124 113 104 97 90 77 139 154 117 65 64 71 97 101 115 118 118 125 124 61 61 88 102 89 85 106 107 100 60 70 76 65 51 53 47 133 131 107 99 96 96 103 103 104 84 87 108 113 91 89 95 98 98 96 124 118 115 119 110 128 130 118 120 121 107 113 98 111 106 104 112 128 99 91 102 109 104 98 103 87 127 125 110 110 118 116 124 120 119 128 134 137 121 121 142 145 135 135 136 138 131 134 128 129 128 129 120 114 114 117 121 111 132 132 128 128 126 131 131 129 127 135 142 147 131 81 81 68 114 52 59 45 63 78 122 120 114 117 123 151 130 140 140 136 130 130 138 134 126 123 132 135 78 60 197 185 185 186 186 185 186 186 186 186 186 185 184 184 184 184 185 189 143 141 128 129 135 156 160 160 118 117 138 122 121 127 128 134 159 156 158 137 145 146 145 138 134 130 121 125 127 129 118 103 85 125 129 120 112 117 119 118 121 104 104 102 108 106 107 111 108 108 106 103 103 103 105 108 108 107 
100 100 100 100 100 100 100 100 100 100 100 100 100 100 100 100 98 98 98 98 98 98 98 98 98 98 98 98 98 98 98 98 99 99 99 99 99 99 99 99 99 99 99 99 99 99 99 99 98 98 98 98 98 98 98 98 98 98 98 98 98 98 98 98 99 99 99 99 99 99 99 99 100 100 100 100 100 100 100 100 101 101 101 101 100 100 100 101 100 99 101 105 102 103 103 98 92 124 66 78 184 145 77 69 68 49 39 36 36 36 38 38 32 32 32 31 30 29 29 29 30 34 32 33 34 50 105 110 109 106 104 104 112 114 108 109 111 111 111 111 111 110 110 110 112 112 112 112 112 113 113 114 114 114 114 114 114 115 116 115 116 116 116 117 117 117 118 118 119 119 119 120 120 120 121 121 121 121 121 122 122 122 123 123 123 123 123 124 124 124 125 125 125 125 125 126 126 126 126 126 127 128 128 128 129 129 129 129 128 131 129 111 114 113 97 92 114 101 85 87 74 57 82 112 101 100 112 110 112 118 115 113 114 108 89 126 124 126 125 113 124 120 111 111 105 108 117 73 77 120 119 119 112 100 95 93 114 142 68 51 46 53 118 117 104 109 124 84 84 88 67 65 71 92 87 105 109 125 128 101 60 52 49 49 51 124 120 112 108 100 95 93 104 101 101 91 99 113 108 100 100 104 103 90 93 132 138 117 115 113 128 132 120 121 122 111 97 93 109 107 105 117 121 85 84 81 116 98 89 97 105 128 126 127 119 115 114 115 117 121 126 127 137 140 137 139 139 146 165 164 157 138 136 131 133 139 140 134 129 129 121 121 127 133 134 135 133 129 132 132 129 128 139 141 137 94 91 71 68 60 66 66 81 68 69 114 132 136 132 142 154 152 121 118 140 138 137 142 141 125 126 139 112 72 67 184 187 186 186 186 186 186 186 186 186 186 186 185 184 182 184 187 190 139 125 124 125 140 151 142 116 111 122 124 120 117 126 125 123 121 147 127 133 144 146 147 147 134 128 116 122 122 113 112 113 133 133 128 113 108 112 115 117 119 104 103 103 106 105 104 106 104 107 105 103 103 104 105 106 109 110 
100 99 99 99 99 99 99 99 99 99 99 99 99 99 99 98 98 98 98 98 98 98 98 98 98 98 98 98 98 98 98 98 99 99 99 99 99 99 99 99 99 99 99 99 99 99 99 99 98 98 98 98 98 98 98 99 99 98 98 98 98 98 98 98 99 99 99 99 99 99 99 99 99 100 100 100 100 100 100 100 100 101 101 100 100 100 101 101 102 102 105 104 100 100 102 102 101 123 85 92 85 166 177 100 88 35 35 38 37 37 35 36 32 32 31 31 30 29 29 28 33 35 37 30 26 93 114 112 107 108 108 108 111 109 110 111 112 111 111 111 111 111 110 111 112 112 112 113 113 114 114 114 114 114 114 115 115 116 115 116 116 116 116 117 117 118 118 118 119 119 119 120 120 121 121 121 121 121 121 122 122 122 123 123 123 123 123 124 124 125 125 125 125 124 125 125 126 126 126 127 127 127 128 128 128 129 129 129 130 132 129 115 110 84 88 127 120 121 84 78 64 56 97 90 103 103 111 112 117 117 108 108 111 71 82 131 132 128 125 130 119 122 117 127 116 97 89 87 108 109 97 102 109 103 117 101 83 94 52 53 52 48 110 105 105 101 99 86 83 93 90 80 84 100 106 103 103 126 127 126 55 53 46 48 48 120 108 112 104 103 97 113 119 110 89 81 86 90 105 101 92 91 97 91 97 134 131 110 117 118 127 127 117 111 131 131 89 91 109 103 105 115 85 81 82 81 84 93 86 102 126 122 128 119 122 116 115 115 130 126 135 129 138 140 138 133 138 159 166 166 154 136 133 132 135 145 139 141 129 128 125 123 140 134 133 135 130 131 127 130 122 125 134 121 121 94 104 56 65 58 90 104 74 71 58 50 134 155 166 168 157 159 120 123 131 137 132 128 138 140 134 114 103 74 92 194 190 187 186 186 186 186 186 186 186 186 186 188 185 182 185 189 185 126 128 124 125 139 142 110 113 118 116 120 125 121 120 123 126 143 138 120 130 139 146 147 132 106 101 96 106 115 115 110 110 134 139 115 114 104 117 116 97 93 110 105 107 109 103 104 105 103 104 104 106 109 110 106 97 97 100 
99 99 99 99 99 99 99 98 98 98 98 98 98 98 98 98 98 98 98 98 98 98 98 98 98 98 98 98 98 98 98 98 98 99 99 99 99 99 99 98 98 98 98 98 98 98 98 98 98 98 98 98 98 98 99 99 99 99 99 99 99 99 99 99 99 99 99 99 99 99 99 99 99 99 99 99 99 99 99 99 99 100 100 100 100 101 101 102 102 102 102 102 102 102 102 103 102 100 117 85 71 134 152 99 73 33 34 40 37 38 34 38 33 34 31 30 29 29 28 27 34 37 37 35 31 115 111 107 109 108 109 109 109 110 110 110 111 111 111 111 111 112 112 112 112 112 113 113 114 114 114 114 114 114 115 115 116 116 116 116 116 117 117 118 118 118 119 119 119 120 120 121 121 121 122 121 121 121 121 122 122 122 123 123 123 124 124 125 125 125 126 126 127 127 127 127 127 127 127 128 128 129 130 130 130 130 130 129 132 131 121 125 113 83 85 129 125 77 81 74 73 95 95 92 91 111 111 119 123 124 101 108 107 76 74 143 130 126 126 143 141 120 137 137 77 78 87 91 105 93 99 116 122 115 118 97 57 56 54 53 52 114 111 108 103 102 101 99 99 98 85 83 82 93 108 105 96 109 119 92 50 51 50 46 49 109 111 105 107 101 129 135 128 119 84 83 84 87 98 95 96 92 98 97 90 88 121 116 115 118 123 125 133 112 104 127 135 115 83 109 117 112 112 77 82 84 94 101 95 90 120 133 116 114 123 124 129 126 126 125 126 140 135 128 132 132 138 157 165 165 134 131 134 135 133 141 142 140 131 128 125 132 142 144 138 134 131 131 130 133 135 136 126 121 123 117 96 51 55 57 107 107 100 79 63 47 165 171 173 172 157 157 152 139 123 124 124 128 137 139 135 106 106 104 102 91 188 186 187 186 187 187 186 185 185 185 189 188 186 185 188 178 124 118 120 133 143 137 138 108 104 119 118 117 125 127 116 123 127 131 137 116 101 104 103 120 122 105 94 97 105 106 114 110 102 110 125 111 157 145 119 122 100 97 93 109 107 106 110 102 103 107 104 104 104 110 108 105 98 96 102 
99 99 99 99 99 99 99 98 98 98 98 98 98 98 98 98 98 98 98 98 98 98 98 98 98 98 98 98 98 98 98 98 99 99 99 99 99 99 99 98 98 98 98 98 98 98 98 98 98 98 98 98 98 98 99 99 99 98 99 99 99 99 99 99 99 99 99 99 99 99 99 99 99 99 99 99 99 99 99 99 99 100 101 101 101 102 102 102 102 103 103 103 103 103 102 102 101 100 119 85 86 60 150 169 63 59 37 41 39 33 40 39 34 34 31 30 30 29 28 28 29 30 29 34 108 116 116 108 108 109 110 110 109 110 110 110 110 110 111 111 111 112 112 112 112 112 113 113 113 114 114 114 114 114 115 115 115 116 116 116 117 117 117 117 118 118 119 119 119 120 120 120 121 121 122 121 121 121 121 121 122 122 122 123 123 124 124 124 125 125 125 126 127 127 127 127 127 127 127 128 129 129 130 129 130 130 130 130 131 129 122 120 89 95 114 116 121 73 73 80 79 100 100 92 96 104 116 123 125 119 93 92 104 80 83 146 136 136 140 147 142 127 114 88 84 74 76 93 100 95 94 117 120 116 100 49 56 61 68 54 125 123 114 108 107 96 96 104 102 101 96 80 84 96 99 99 104 95 93 103 46 47 46 51 51 105 100 102 111 117 126 137 127 107 106 97 96 95 96 93 93 93 96 98 100 87 125 125 121 122 121 119 129 96 96 132 136 90 95 111 111 109 73 77 85 83 87 106 95 96 105 117 116 115 113 129 130 130 126 127 126 130 128 125 129 138 145 151 156 149 130 133 133 134 133 133 136 132 131 136 140 142 140 143 130 130 131 133 127 133 136 136 132 130 113 106 106 57 52 81 106 97 89 91 45 40 57 175 179 170 158 157 139 133 128 120 139 132 134 126 138 118 106 105 101 82 189 187 187 186 186 186 186 185 184 185 187 187 189 187 180 147 118 116 117 140 140 143 98 100 102 120 114 120 136 126 122 125 120 109 110 103 103 106 106 107 124 130 130 130 121 108 109 100 108 150 149 165 157 160 127 120 121 100 92 109 110 109 110 110 107 107 107 101 99 101 102 101 104 109 104 
99 99 99 99 99 99 99 99 98 98 98 98 98 98 98 98 98 98 98 98 98 98 98 98 98 98 98 98 98 98 98 98 99 99 99 99 99 99 99 99 98 98 98 99 99 99 99 99 99 99 98 99 99 99 99 99 99 98 99 99 99 99 99 99 99 99 99 99 99 99 99 99 99 99 99 99 99 99 99 99 99 101 101 101 102 102 102 102 103 103 103 103 103 103 103 102 98 99 124 131 75 65 164 165 71 73 43 42 40 36 36 36 38 35 31 30 30 31 30 30 30 26 27 111 110 112 110 109 109 110 110 110 111 111 111 111 110 111 111 111 112 112 112 112 112 113 113 113 114 114 114 114 114 115 115 115 116 116 116 116 117 117 118 118 119 119 119 119 120 121 121 121 122 122 122 122 122 122 122 123 123 123 124 123 125 125 125 126 126 126 127 127 127 127 127 127 128 127 127 128 129 129 130 130 130 131 130 130 130 132 135 124 90 116 119 117 117 74 67 59 63 104 91 98 97 102 117 118 103 111 96 97 97 86 112 135 138 137 142 128 140 106 112 102 77 73 76 77 101 101 94 111 106 107 58 54 66 71 123 90 132 125 126 124 104 99 99 104 104 100 100 92 90 105 93 99 98 95 98 103 44 45 52 50 86 104 104 102 100 103 106 116 128 112 96 99 108 105 90 94 94 104 91 96 93 94 118 125 116 128 118 123 101 102 101 88 95 100 102 101 112 98 70 77 71 86 93 94 107 109 110 108 116 117 118 130 129 130 129 132 129 127 126 125 130 141 144 142 150 150 145 132 129 129 135 136 132 128 125 130 142 141 141 133 131 130 129 134 126 121 135 135 133 129 115 112 109 131 129 95 91 103 92 85 55 60 53 83 160 127 113 119 127 125 132 137 144 146 139 135 100 116 107 100 99 82 186 188 188 188 188 188 188 187 186 185 186 187 190 189 182 167 117 118 116 122 127 132 104 98 105 115 121 124 127 125 134 105 114 180 150 147 163 132 109 115 125 126 129 123 120 118 134 159 151 155 154 161 162 128 123 122 117 65 57 55 106 108 110 109 108 107 98 100 100 101 100 101 105 108 106 
100 99 99 99 99 99 99 99 98 98 98 98 98 98 98 98 98 98 98 98 98 98 98 98 98 98 98 98 98 98 98 99 98 99 99 99 99 99 99 98 98 98 100 99 99 99 99 99 99 99 99 99 99 99 100 100 100 99 100 100 100 100 100 99 99 99 99 99 99 99 99 99 99 99 99 99 99 99 99 100 101 101 101 102 102 102 103 103 103 104 104 104 104 104 103 103 97 97 128 124 66 76 176 150 66 76 40 43 40 37 34 36 38 39 31 31 29 32 32 32 36 32 27 116 113 108 113 111 110 110 110 110 111 111 111 111 111 110 111 112 112 112 112 113 113 113 113 114 114 114 115 115 115 115 115 116 116 116 117 116 118 117 118 118 118 119 119 119 120 120 121 121 121 122 122 122 122 122 122 122 123 123 123 124 125 125 125 125 126 126 126 127 127 127 127 127 127 127 129 129 129 129 130 131 131 130 131 131 129 132 139 132 92 115 118 118 107 93 54 62 83 79 91 93 116 122 119 102 106 113 129 96 101 106 108 131 140 138 128 136 127 94 94 76 81 78 75 89 95 96 80 98 106 48 51 49 55 81 145 146 132 116 112 111 105 108 83 65 105 108 100 96 93 111 111 100 107 109 106 99 54 50 51 57 92 107 106 104 108 103 112 119 122 96 96 104 105 100 88 91 92 110 109 94 98 89 108 91 87 85 88 101 99 101 99 92 97 102 107 105 97 101 110 74 83 99 101 98 94 111 111 112 120 119 118 119 126 125 130 134 133 124 119 141 152 138 145 145 145 143 140 138 127 130 136 136 122 119 128 132 141 142 139 136 136 133 135 135 119 122 125 117 117 123 120 131 128 126 128 124 90 83 60 63 51 55 53 57 82 123 115 108 148 143 139 142 150 157 149 131 89 78 110 104 86 193 200 183 188 188 187 188 187 186 186 186 185 187 190 184 174 123 117 112 123 117 116 152 166 165 166 141 144 137 112 101 119 109 155 187 189 162 164 183 179 167 157 151 126 127 121 153 149 154 156 150 154 156 151 111 114 111 95 85 44 54 113 108 111 108 108 105 99 99 103 103 104 100 102 103 99 
99 99 99 99 99 99 99 99 99 98 98 98 98 98 98 99 99 99 99 99 99 99 99 99 99 99 99 99 99 99 99 99 99 99 99 99 99 99 100 100 99 100 100 100 99 99 100 99 99 100 100 100 100 99 100 99 100 100 100 100 100 100 100 100 100 100 100 100 100 100 100 100 100 100 100 100 100 100 100 100 100 101 102 102 102 103 103 103 104 104 104 104 104 104 104 104 104 100 100 119 86 91 194 149 56 44 41 42 45 47 37 41 38 39 33 31 31 36 38 38 43 34 111 109 110 105 105 111 110 110 110 110 110 111 111 111 111 111 112 112 112 113 113 113 113 113 114 114 114 115 115 115 115 115 116 116 116 117 117 117 118 118 119 119 119 120 120 119 121 121 122 122 122 123 123 123 123 124 124 124 125 125 125 124 126 127 127 127 128 128 128 127 127 127 127 127 128 128 129 129 130 130 130 131 131 131 131 131 129 136 135 129 108 114 119 122 101 74 58 80 90 90 112 120 119 124 125 113 106 150 145 113 121 122 96 129 125 135 117 133 135 110 65 73 98 107 103 103 66 65 69 98 99 55 42 52 101 153 141 143 135 106 103 99 115 114 65 59 75 119 120 94 94 100 118 116 119 90 84 76 76 54 55 96 104 101 101 109 113 113 111 112 119 93 94 97 91 96 95 102 92 110 116 109 104 118 98 90 87 85 88 97 98 99 112 106 101 100 103 103 95 110 91 81 75 97 103 97 100 116 116 117 119 119 117 121 123 127 128 134 135 153 153 148 150 151 145 134 129 111 147 145 151 131 134 129 115 117 153 150 137 140 138 136 135 136 131 130 130 121 119 111 112 124 128 131 136 123 120 122 122 121 60 46 43 62 64 57 54 139 149 147 138 143 140 144 148 149 145 139 79 93 120 116 103 189 180 186 187 188 188 187 187 186 186 185 183 189 189 162 122 121 113 137 125 123 118 149 160 162 159 141 143 137 100 92 120 188 184 180 190 176 169 177 183 143 145 152 146 165 172 164 152 146 146 150 144 143 138 106 110 104 99 85 104 65 112 110 105 103 93 99 97 92 64 41 40 35 36 37 40 
100 100 100 100 100 100 100 99 99 99 99 99 99 99 99 98 99 100 100 100 100 100 100 100 100 100 100 100 100 100 100 99 99 99 99 99 99 99 100 100 100 100 100 100 100 100 100 100 100 100 101 100 101 100 100 101 101 101 100 100 100 100 100 100 100 100 100 100 100 100 100 100 100 100 100 100 100 100 100 100 101 101 101 102 102 102 103 103 104 104 104 104 104 104 104 104 103 101 97 120 138 78 57 141 67 44 44 39 40 45 39 41 36 36 33 32 39 41 43 42 35 32 113 111 111 111 110 110 110 109 109 110 111 111 111 112 112 111 112 112 112 113 113 113 113 113 113 114 114 114 115 115 115 115 115 116 116 116 117 117 118 117 118 118 119 119 120 120 121 121 121 121 122 122 123 123 124 123 124 124 125 125 125 125 126 126 127 127 128 128 128 128 127 127 127 128 129 129 129 129 129 129 130 131 131 131 132 131 133 134 101 102 112 112 110 100 101 91 102 92 83 96 107 123 120 122 119 122 136 139 141 146 121 92 89 130 128 124 138 136 141 88 72 86 90 112 109 76 71 67 64 87 94 69 115 129 131 141 137 109 107 118 101 107 107 57 62 81 84 128 124 111 126 105 115 112 108 94 87 76 65 72 109 105 110 108 106 107 113 113 111 114 120 94 89 93 88 85 99 97 109 107 111 104 103 116 84 89 102 106 101 111 100 102 118 114 99 91 100 96 98 98 108 83 96 112 120 95 102 116 116 113 115 116 119 122 126 129 131 141 144 152 159 116 112 116 133 130 119 114 122 140 148 140 141 132 113 115 155 154 116 129 134 136 135 133 130 129 114 113 119 107 107 122 117 138 134 131 117 121 126 120 103 51 49 49 60 63 48 146 145 144 149 128 145 129 141 129 93 78 86 72 91 131 191 193 188 182 187 187 187 187 186 185 185 185 190 183 138 138 136 115 149 160 156 156 162 154 126 126 126 150 123 100 95 105 180 188 183 181 174 153 146 152 149 144 145 157 157 163 165 167 142 146 146 148 138 130 128 114 108 109 95 98 112 58 39 115 106 101 90 92 84 56 38 40 41 39 40 38 39 
100 100 100 100 100 100 100 100 99 99 99 99 99 99 99 99 100 100 100 100 100 100 100 100 100 100 100 100 100 100 100 100 99 99 99 99 99 99 99 99 100 100 100 100 100 100 100 100 100 101 101 101 100 100 101 101 101 101 101 100 100 100 100 100 101 101 101 101 101 101 101 101 101 101 101 101 101 101 101 101 101 102 102 102 103 103 104 104 104 105 105 105 105 105 104 104 103 99 98 123 134 57 58 154 199 44 46 44 42 46 35 35 35 32 33 34 41 44 44 44 39 108 111 112 112 114 106 109 110 110 110 110 111 111 112 112 112 112 113 113 114 114 114 113 114 114 114 114 115 115 116 116 116 116 116 116 117 117 118 118 118 118 118 118 119 119 119 120 120 121 121 121 122 122 122 123 123 124 124 124 125 125 125 126 126 127 127 127 128 128 128 129 127 127 127 128 129 129 130 129 130 129 130 131 131 131 132 132 125 116 100 103 109 133 126 101 98 107 113 89 102 108 109 113 121 114 87 116 139 132 130 146 154 97 121 137 140 129 145 147 105 102 113 96 93 79 74 72 81 77 83 81 72 69 123 122 103 114 107 104 109 110 54 51 61 58 86 86 81 129 142 136 144 144 107 107 118 163 157 138 65 81 117 111 109 107 106 103 112 111 125 120 114 94 93 95 87 82 89 104 108 110 101 103 114 102 86 87 102 107 109 112 120 105 105 116 118 91 90 103 93 95 68 76 92 111 113 113 102 103 112 113 111 111 118 122 126 129 134 132 137 121 141 130 120 123 123 141 121 134 126 123 140 138 138 134 130 117 112 117 110 103 98 96 122 129 127 124 113 114 108 96 97 109 109 114 130 122 120 122 127 120 86 100 61 45 42 51 50 124 128 115 107 110 119 108 103 104 90 90 86 79 115 175 202 187 190 187 186 186 186 186 185 185 184 184 187 179 142 135 165 161 157 156 154 149 155 160 129 122 121 148 150 126 112 117 139 189 189 182 162 148 143 145 135 140 151 155 143 163 157 147 141 145 122 117 126 115 134 125 114 123 86 86 101 49 39 124 123 95 87 87 43 37 38 40 39 37 38 39 39 
100 100 100 100 100 100 100 99 99 99 99 99 99 99 99 99 100 100 100 100 100 100 100 100 100 100 100 100 100 100 100 99 99 99 99 99 99 99 99 99 100 100 100 100 100 100 99 100 100 100 100 101 100 101 100 101 101 100 100 100 100 100 100 100 101 101 101 101 101 101 101 101 101 101 101 101 101 101 101 101 101 102 102 102 103 103 103 104 104 105 105 105 105 105 104 104 103 102 99 117 122 68 65 176 161 45 41 41 39 45 47 35 34 33 33 35 40 42 43 42 41 113 108 111 112 110 110 109 109 110 110 110 111 111 111 112 112 112 113 114 114 115 115 114 114 114 114 115 115 116 116 116 116 116 116 117 117 118 118 118 118 118 118 118 119 119 119 120 120 121 121 121 122 122 122 123 123 123 124 125 124 126 125 125 126 127 127 127 128 128 128 128 127 127 128 128 129 130 130 130 129 130 129 130 131 132 132 132 131 111 112 110 104 130 125 100 101 90 81 95 80 92 112 119 118 107 99 87 163 160 135 147 155 131 121 131 140 145 140 146 149 110 104 114 73 70 81 87 86 79 80 81 64 70 118 106 101 100 105 101 103 54 55 57 55 84 81 60 64 147 131 137 143 145 151 147 155 160 139 143 53 50 52 105 103 107 103 119 136 124 121 122 97 90 91 97 92 96 91 97 94 102 99 129 121 101 98 91 96 89 114 120 112 121 107 114 108 106 119 98 108 70 74 82 82 75 72 112 104 103 125 123 120 118 118 121 125 127 123 118 118 118 153 153 141 138 147 150 131 136 130 126 119 123 122 132 125 112 109 114 109 108 94 94 94 100 101 107 113 111 97 97 99 101 114 115 122 125 124 124 118 120 113 114 107 61 48 41 47 39 122 114 107 110 112 103 112 106 94 91 102 103 103 119 183 186 188 187 186 187 187 187 186 185 185 185 171 170 164 158 159 166 151 155 143 153 157 152 146 119 123 122 141 122 132 148 104 87 63 55 140 160 148 146 132 138 150 151 146 155 154 149 149 136 121 124 122 141 119 107 117 118 67 58 44 48 39 121 132 73 38 43 39 36 38 39 39 38 36 38 39 
101 101 100 100 100 99 99 99 99 100 100 100 100 100 100 99 99 100 100 100 100 100 100 100 100 100 100 100 100 100 100 100 100 100 99 99 99 100 100 99 98 99 99 98 99 99 97 98 101 100 100 101 100 99 100 100 100 100 100 100 100 100 100 100 100 101 101 101 101 101 101 101 101 102 102 102 102 102 102 102 102 102 102 103 103 103 104 104 104 104 104 104 104 104 104 104 101 102 102 105 113 67 72 190 190 60 44 35 38 45 37 38 38 30 34 34 31 41 37 41 74 116 107 109 110 108 108 111 109 109 110 110 110 111 112 112 113 113 114 114 115 115 115 115 115 115 114 116 115 116 117 117 117 116 116 118 117 118 119 119 118 118 119 120 120 120 121 121 121 122 122 123 123 123 124 124 124 123 124 125 124 125 126 126 126 126 126 127 127 127 128 128 126 127 128 129 130 130 130 130 130 129 129 131 132 131 131 132 130 120 116 114 142 130 107 102 92 91 91 86 90 94 102 110 122 127 89 142 159 153 133 148 145 93 78 95 86 129 141 144 151 83 75 72 75 82 84 85 87 87 79 75 92 96 84 108 99 99 96 100 56 49 54 65 72 79 59 63 178 160 143 137 143 148 150 151 139 146 144 143 63 47 63 88 122 126 117 141 133 143 91 91 90 93 94 94 94 105 106 73 87 110 127 116 104 108 98 96 90 92 104 105 120 117 105 100 94 112 114 113 112 74 71 88 83 84 76 69 114 120 125 126 116 119 122 123 124 125 117 119 110 142 160 146 134 131 135 136 147 132 119 124 118 118 125 112 105 105 106 108 104 101 95 94 99 99 98 96 114 108 99 100 98 99 110 110 109 123 125 125 125 122 114 114 116 106 91 41 49 48 131 134 125 115 117 118 105 104 112 110 100 101 101 123 130 167 187 189 188 185 185 185 186 185 185 184 169 167 153 151 158 148 149 147 153 141 144 151 143 138 124 122 138 145 133 138 135 97 77 76 67 58 68 145 145 136 134 148 159 157 156 148 152 143 123 122 128 127 125 93 93 106 39 37 38 38 61 104 126 47 42 42 40 37 37 39 38 36 40 38 38 
101 101 101 100 99 100 99 99 100 100 100 100 100 100 100 100 100 100 100 100 100 100 100 100 100 100 100 100 100 100 100 100 100 100 100 99 99 100 100 99 96 98 98 97 100 99 98 101 101 100 99 100 99 99 99 99 100 99 100 100 100 100 100 100 101 101 101 101 101 101 101 101 102 102 102 102 102 102 102 102 102 102 103 103 103 104 104 104 104 104 104 104 104 104 104 104 105 99 101 93 107 66 74 182 164 60 41 37 40 41 38 37 39 41 25 36 32 34 37 43 111 116 114 109 107 109 112 112 110 109 110 110 111 112 114 113 113 113 113 114 114 115 115 115 115 114 115 115 116 116 117 117 117 117 117 117 118 118 119 118 118 118 119 119 120 120 121 121 121 122 122 122 123 123 124 124 124 124 124 124 125 125 126 126 126 126 126 126 127 127 127 127 127 127 128 129 131 130 131 130 129 127 128 129 130 132 130 133 136 123 117 115 109 120 97 93 93 93 89 89 95 97 97 109 117 134 141 123 114 127 129 128 147 82 84 81 87 94 128 134 93 83 75 72 74 80 81 85 90 87 69 71 102 110 101 125 120 118 95 91 60 51 48 77 72 69 68 71 183 170 153 148 140 149 149 139 142 146 158 152 133 145 123 120 108 120 133 136 141 104 106 93 89 88 104 101 71 108 102 84 80 124 127 118 110 111 112 112 106 109 105 95 102 116 118 87 95 117 118 115 115 104 95 93 89 84 74 65 113 116 124 124 113 114 122 128 123 145 129 124 115 116 126 129 133 141 137 134 122 116 115 115 103 98 103 110 107 105 109 107 103 98 96 99 99 99 97 97 93 100 102 101 99 94 102 98 113 120 127 125 123 121 124 117 119 107 107 43 46 49 132 132 126 118 117 121 105 105 118 120 95 97 123 152 144 133 132 121 115 114 125 135 144 147 144 143 166 160 164 157 140 147 172 174 166 150 131 137 151 153 121 131 120 142 132 142 136 128 116 100 57 52 59 81 143 147 133 139 158 159 157 152 150 131 123 120 51 49 52 45 50 52 44 36 37 43 85 107 47 44 44 40 41 40 40 39 38 36 39 40 37 
101 101 101 101 100 100 100 99 100 100 100 100 100 100 100 100 100 100 100 100 100 100 100 100 100 100 100 100 100 100 100 100 100 99 100 100 99 99 98 98 97 97 99 100 101 103 96 99 101 101 99 98 99 99 101 100 99 100 100 100 99 99 99 100 100 101 101 101 101 101 101 101 102 102 102 102 102 102 102 102 102 103 103 103 104 104 104 104 104 104 104 104 104 104 104 104 105 99 102 93 99 117 73 49 144 61 43 45 43 41 39 37 37 34 28 37 37 39 40 38 85 121 116 120 105 107 109 109 110 110 110 110 111 113 114 114 113 113 113 114 114 115 115 115 115 116 116 116 117 117 117 117 117 118 118 118 119 119 119 119 119 119 119 119 120 120 120 121 121 122 122 122 123 123 123 123 123 124 124 124 125 125 125 125 125 126 126 126 127 127 127 127 127 126 128 130 131 131 131 130 128 127 128 130 130 129 131 137 120 124 117 116 107 106 95 92 91 91 89 93 92 99 102 143 144 118 96 119 94 125 146 150 157 161 79 78 111 113 107 123 86 93 91 73 74 79 79 79 84 84 69 70 109 115 120 118 122 114 79 88 59 51 52 75 76 57 58 124 172 170 156 150 136 132 143 135 143 148 151 155 133 149 147 116 107 98 106 140 95 109 155 157 153 137 104 49 42 49 88 102 129 117 100 117 105 127 123 111 101 109 103 100 113 113 116 117 101 102 119 118 110 111 107 91 83 76 72 134 131 104 113 119 115 121 117 117 136 128 117 116 115 116 125 133 137 158 157 123 120 116 117 113 99 99 88 77 73 72 75 92 84 90 96 100 101 101 96 92 89 98 98 102 100 93 97 96 98 121 123 117 118 122 123 111 110 121 118 44 46 52 127 129 121 128 120 111 106 117 114 119 102 92 132 156 163 133 136 139 104 89 117 128 140 145 147 140 161 158 158 158 144 141 170 178 166 148 130 139 142 150 157 129 121 104 104 135 130 134 104 111 57 49 63 78 57 148 146 143 161 166 163 153 51 45 45 46 49 46 45 52 51 45 62 38 40 49 83 44 43 47 40 39 40 41 40 40 42 44 42 41 66 
102 102 101 100 101 100 99 100 100 101 101 101 101 101 101 100 100 100 100 100 100 100 100 100 100 100 100 100 100 100 100 100 100 99 99 100 100 97 98 97 97 99 100 101 101 97 89 95 99 101 99 98 99 100 100 100 99 99 100 99 99 99 99 100 101 101 101 101 101 101 101 101 102 102 102 102 102 102 102 102 103 102 103 103 103 104 104 104 104 104 104 104 104 104 104 104 100 104 104 90 91 108 74 50 155 64 47 49 42 39 40 38 37 34 33 35 39 39 40 37 41 104 120 116 105 108 111 110 110 110 110 109 109 108 110 113 113 113 113 114 114 115 116 115 115 116 116 116 117 117 117 117 117 118 118 118 119 119 119 119 119 119 119 119 120 120 120 121 121 122 122 122 123 123 123 123 123 124 124 124 125 125 125 125 125 126 126 126 127 127 127 127 127 127 129 130 131 131 131 131 129 129 130 131 129 129 132 137 105 123 120 118 105 101 112 106 98 111 97 87 88 111 108 119 132 123 115 73 93 166 163 150 147 153 126 96 106 118 104 87 83 91 92 77 78 83 80 80 83 89 74 73 113 111 118 124 98 102 67 52 55 61 69 67 71 59 59 66 170 165 146 135 137 147 147 140 135 120 143 129 141 158 124 127 130 77 76 67 86 147 177 146 154 158 55 49 45 41 43 106 116 127 103 109 112 126 132 114 101 98 97 121 116 113 113 115 98 95 106 112 115 112 109 84 82 125 123 129 101 101 108 129 126 117 109 101 124 129 116 108 178 177 163 159 140 159 161 133 123 120 117 111 96 96 85 75 73 72 71 69 67 66 73 80 91 94 92 80 95 96 83 102 98 103 102 90 88 89 113 97 116 126 125 102 104 113 73 44 42 128 136 130 143 137 128 111 108 118 119 103 99 149 149 143 153 141 140 147 101 101 105 127 135 145 147 138 137 154 155 156 149 151 153 142 127 119 115 140 143 144 142 121 121 103 99 108 114 130 122 110 112 72 105 56 79 60 154 157 148 88 45 45 48 49 47 48 45 50 43 46 51 56 58 37 40 45 53 39 36 40 40 41 41 42 41 41 44 44 43 43 87 
102 102 102 101 101 101 100 100 101 101 101 101 101 101 101 101 100 100 100 100 100 100 100 100 100 100 100 100 100 100 100 100 100 99 99 100 100 95 94 97 98 98 98 92 99 97 78 78 90 98 99 99 100 101 101 99 100 100 100 100 100 100 101 101 102 101 101 101 101 101 101 102 102 102 102 102 102 102 102 103 103 103 104 104 104 105 105 105 105 105 105 105 105 105 105 105 101 109 103 92 96 101 63 51 173 189 48 46 48 39 39 37 39 30 29 31 40 35 35 38 55 95 118 116 109 111 112 110 111 110 110 109 109 109 109 110 113 113 113 114 114 115 115 115 115 117 117 117 117 118 118 118 118 118 119 119 119 120 120 120 119 120 120 120 120 121 121 121 122 122 123 123 123 124 124 124 124 124 125 125 125 126 126 126 126 126 127 127 127 128 127 127 127 127 130 130 132 132 132 131 130 130 131 129 129 135 134 137 111 127 124 101 105 109 114 88 87 113 124 73 79 111 112 99 113 126 122 78 97 155 167 140 146 145 131 124 97 103 110 88 91 90 84 82 81 90 87 108 114 115 87 105 97 119 117 80 86 91 59 52 51 65 67 68 62 62 63 69 164 175 143 146 151 145 156 123 118 123 132 120 127 132 134 133 136 145 61 56 163 170 171 168 164 62 45 49 43 45 42 82 125 122 129 121 109 119 114 122 115 109 118 122 116 119 111 107 100 101 103 97 111 109 109 83 85 131 134 101 100 100 105 131 137 77 85 83 106 114 116 161 171 174 172 147 162 156 162 125 129 115 106 104 86 92 84 77 72 70 71 70 61 64 71 74 69 85 84 71 88 76 74 76 103 106 102 89 89 87 87 84 115 123 119 95 95 102 49 46 42 126 131 140 143 124 126 137 129 112 110 105 120 148 144 132 140 142 147 164 162 142 103 109 156 142 164 141 144 148 152 154 161 156 149 147 143 112 131 145 143 143 138 142 98 90 108 109 106 103 103 108 103 100 121 138 65 58 71 61 45 48 52 47 53 48 47 50 53 51 49 45 44 53 64 33 37 39 34 38 43 36 36 44 42 42 42 40 42 42 44 87 120 
103 102 102 102 101 101 101 101 101 102 102 102 102 102 102 101 101 101 101 101 101 101 101 101 101 101 101 101 101 101 101 101 100 99 99 101 102 93 93 98 96 94 79 76 85 83 64 63 68 91 97 97 99 101 100 99 100 100 100 100 100 100 101 101 101 102 102 102 102 102 102 102 102 103 103 103 103 103 103 102 103 104 104 104 105 105 105 106 106 106 106 106 106 106 105 105 105 101 107 93 97 99 53 41 188 188 54 51 52 45 38 38 40 38 31 105 116 125 116 77 51 49 50 114 117 116 109 110 111 111 111 109 109 108 108 110 114 113 113 113 115 115 116 115 116 117 117 117 118 118 118 119 119 119 119 119 120 120 120 120 119 120 120 120 121 121 121 122 122 123 123 123 124 124 124 125 125 125 125 125 126 126 126 127 127 127 127 127 128 128 128 128 127 127 130 130 132 132 132 131 129 129 128 128 135 134 135 130 101 133 131 101 99 103 114 88 79 115 123 80 77 110 110 99 94 105 143 135 113 129 144 152 142 143 138 112 96 90 111 100 91 83 82 87 97 96 94 113 114 110 105 138 135 130 135 75 81 77 51 52 56 60 66 67 64 62 63 139 162 177 142 153 153 154 124 116 115 129 132 123 105 115 131 144 137 146 90 166 158 155 148 175 107 68 49 43 43 44 45 56 90 112 154 148 135 131 119 114 103 93 116 108 119 118 104 104 99 98 93 92 111 110 107 81 81 94 117 94 99 103 92 93 78 83 79 87 88 151 131 132 172 139 129 142 152 159 115 104 122 86 86 97 80 82 74 72 72 71 69 66 60 65 63 50 50 56 62 58 59 69 68 76 77 96 101 97 92 83 78 76 93 104 96 99 96 104 61 49 54 119 122 103 128 117 133 134 137 113 95 99 152 131 132 127 127 122 167 171 160 142 148 148 152 151 168 136 152 151 151 148 160 157 148 143 136 151 147 130 127 131 134 146 149 90 95 108 109 90 82 89 86 77 131 123 46 55 71 57 52 55 55 52 49 43 46 47 51 39 47 42 39 37 38 36 37 43 34 32 45 42 42 40 43 42 42 38 69 56 55 65 71 
103 102 102 102 101 101 101 101 102 102 102 102 102 102 102 101 101 101 101 101 101 101 101 101 101 101 101 101 101 101 101 101 101 99 100 101 103 93 91 98 96 92 71 71 76 72 60 60 61 89 92 85 87 100 99 99 100 100 101 101 101 101 101 102 102 102 102 102 102 102 102 102 102 103 103 103 103 103 103 103 104 104 104 105 105 105 106 105 106 106 106 106 106 106 106 105 105 102 112 89 101 95 43 43 175 164 51 56 53 58 39 35 40 53 66 99 104 115 114 94 47 46 48 108 118 121 108 108 112 111 111 110 111 111 110 112 113 113 113 114 114 115 116 116 117 117 117 118 118 118 119 119 119 119 119 120 120 120 121 120 119 120 120 120 120 121 121 122 122 123 123 123 123 124 124 124 125 125 125 125 125 126 126 126 127 127 127 127 127 128 128 128 128 128 129 132 132 132 132 131 130 128 128 127 132 136 119 76 84 130 133 101 107 103 67 78 117 113 114 92 101 103 103 98 93 97 134 115 142 82 90 132 119 132 100 86 99 92 95 104 105 87 97 94 98 97 92 92 111 116 140 132 132 139 125 68 80 72 58 61 58 58 62 72 67 61 65 173 165 142 141 146 155 156 119 117 127 130 122 101 102 101 90 96 128 142 86 153 150 136 129 128 101 119 70 44 41 47 41 48 116 142 146 112 107 122 127 114 73 70 101 109 122 113 105 111 112 101 97 136 138 110 99 82 89 108 115 107 91 101 96 89 78 72 87 130 144 151 149 132 123 133 133 137 149 151 101 92 89 76 75 87 76 77 59 53 49 48 48 46 46 56 53 49 50 55 60 59 57 61 73 76 79 91 93 95 92 77 79 81 78 74 82 100 109 110 99 103 139 134 123 108 129 127 131 50 48 47 54 61 140 134 140 138 134 134 165 148 138 151 147 153 151 159 176 181 157 144 151 151 156 150 150 138 118 161 149 119 122 131 139 147 138 136 96 93 74 79 85 85 83 70 67 74 57 60 56 63 60 57 55 54 46 43 44 49 52 38 39 43 42 37 36 53 49 52 47 44 48 47 46 53 45 53 50 61 66 67 45 43 38 
102 102 102 102 101 101 101 101 101 102 102 102 102 102 102 101 101 101 101 101 101 101 101 101 101 101 101 101 101 101 101 101 100 99 99 101 100 94 90 98 98 91 66 73 75 76 61 59 67 84 86 85 85 95 100 101 100 100 100 101 101 101 101 101 102 102 102 102 102 102 102 102 103 103 103 103 103 103 103 103 104 104 104 104 105 105 105 106 106 106 106 106 106 106 106 106 101 102 121 125 89 85 40 43 52 141 51 58 53 51 40 42 37 38 65 96 65 77 122 109 94 67 45 36 110 113 108 110 110 112 111 112 112 113 117 116 114 113 114 115 114 115 116 116 117 116 117 117 118 118 118 119 119 119 119 119 120 120 120 120 120 119 120 120 120 121 121 121 122 122 122 123 123 124 124 124 124 124 125 125 126 126 126 126 126 126 127 127 127 128 128 129 128 128 128 131 132 132 132 132 131 130 128 128 133 135 75 77 89 121 132 94 102 101 71 66 101 83 86 87 97 82 77 97 102 95 103 83 79 81 131 116 112 102 110 87 104 97 99 110 103 96 94 98 86 94 97 92 76 84 137 131 131 85 66 56 61 66 54 68 61 66 69 66 69 62 103 161 147 140 145 147 156 153 159 131 130 122 126 113 97 92 92 105 109 100 83 151 129 133 128 138 136 124 118 44 44 40 44 131 130 114 118 104 110 106 94 104 71 79 57 47 118 110 112 113 108 120 120 138 136 134 107 122 102 102 108 95 86 127 127 129 143 175 172 160 140 123 144 120 124 128 131 125 128 134 100 97 88 72 68 78 78 75 56 51 50 50 49 47 46 55 55 47 47 58 57 59 56 56 65 57 74 83 77 72 69 71 72 77 68 69 80 111 99 112 111 119 135 125 131 132 117 107 60 55 67 40 48 126 160 139 144 146 142 162 155 133 142 141 130 150 154 166 171 170 156 119 112 122 127 121 114 108 112 115 147 141 123 134 152 146 137 126 99 99 70 79 97 91 95 96 82 85 78 75 72 67 64 57 52 51 50 52 45 50 47 47 70 63 69 59 47 48 50 47 48 47 45 47 49 81 75 85 89 65 68 64 51 40 63 
103 103 103 103 103 103 103 102 102 102 102 102 102 102 101 101 101 101 102 102 102 102 102 102 101 102 102 103 103 103 100 101 99 99 94 92 96 94 78 89 94 82 80 71 73 76 55 56 57 64 79 80 85 100 100 90 93 100 98 100 104 102 101 102 103 102 102 102 102 104 103 103 104 103 103 104 102 102 104 105 105 105 105 104 105 105 104 105 106 106 107 107 106 106 106 106 104 102 118 117 89 74 42 45 49 154 192 65 79 76 49 40 42 36 33 60 66 47 37 110 47 45 43 37 113 107 111 111 109 105 104 106 99 99 114 117 114 114 115 115 115 115 115 115 117 117 118 119 119 119 120 120 119 119 119 119 120 120 120 120 122 123 121 122 121 121 122 121 121 121 122 122 124 124 124 124 122 129 129 125 126 128 127 127 127 126 127 127 127 129 130 129 129 128 129 129 132 132 132 132 134 130 128 129 128 63 58 57 124 110 99 84 89 94 80 106 90 82 88 90 87 87 84 84 85 110 102 70 78 73 123 121 110 110 107 133 132 125 113 99 94 92 92 79 80 97 96 94 80 153 145 132 133 78 53 54 50 54 70 69 63 67 66 69 67 79 155 143 154 136 144 137 142 156 158 135 140 126 124 130 98 89 105 105 110 114 71 150 138 133 126 129 135 134 52 45 43 44 54 132 137 93 96 95 92 80 99 94 108 65 55 59 59 79 121 112 117 119 131 142 134 138 129 123 114 137 135 127 123 127 126 126 124 170 178 132 117 132 115 113 114 119 115 107 101 92 89 91 80 77 63 60 54 53 54 50 50 50 50 49 50 55 54 49 50 53 55 56 52 48 44 59 76 79 71 70 70 70 69 78 62 66 112 115 91 90 101 105 111 118 123 127 103 110 91 99 53 66 67 142 145 163 146 143 134 143 171 156 142 117 143 142 143 120 120 127 134 112 110 139 136 121 114 106 104 111 111 109 118 143 138 126 123 94 93 102 97 107 105 93 95 99 99 91 77 70 70 58 58 43 46 50 51 49 53 46 85 78 69 76 66 50 48 50 46 48 47 47 46 48 89 77 68 61 85 75 70 59 55 100 115 
102 103 103 103 103 103 103 102 102 102 102 102 102 102 101 102 102 102 102 102 102 102 102 102 104 103 103 103 103 101 103 102 92 94 95 96 86 68 71 82 76 74 74 75 69 71 60 60 64 76 82 87 90 95 101 86 97 100 99 101 104 103 104 102 103 103 102 102 102 104 104 104 104 104 104 104 102 102 104 105 105 105 105 105 105 105 105 105 106 106 107 107 107 107 106 106 106 101 95 109 77 56 44 51 46 175 175 83 79 56 47 42 39 35 34 37 37 32 30 41 41 46 43 38 120 117 105 112 112 103 105 106 99 97 109 110 114 115 115 115 115 115 115 116 118 118 118 119 118 120 120 120 119 119 120 120 120 120 120 120 123 123 122 122 122 122 122 122 124 124 120 121 122 124 124 123 128 125 122 131 128 122 127 130 128 127 126 129 132 131 129 132 127 126 128 128 129 132 133 134 132 124 126 138 140 54 66 85 115 109 82 83 86 85 75 96 99 84 88 101 109 110 90 85 96 106 107 70 72 70 121 120 108 110 117 133 130 133 112 98 91 91 87 81 77 92 97 69 68 161 153 131 134 101 67 50 53 50 64 54 59 67 68 66 65 164 149 149 130 115 139 139 135 155 155 155 140 135 141 121 128 115 105 106 111 57 66 166 151 139 137 137 125 140 83 42 45 41 40 82 93 93 95 78 81 82 85 95 135 137 136 126 52 70 70 57 116 108 113 139 141 130 136 101 142 132 135 127 126 132 131 99 97 112 120 115 120 112 111 112 117 116 114 107 109 88 90 84 69 70 66 56 54 54 49 50 50 51 50 49 48 46 56 52 55 49 48 53 49 44 40 46 60 64 67 72 71 73 65 56 61 62 130 127 102 91 102 104 114 115 113 114 129 96 92 116 83 111 130 147 147 149 113 109 129 150 164 167 125 126 138 141 138 109 111 126 112 112 103 128 136 124 125 106 107 109 107 105 104 112 104 95 94 93 92 91 88 92 100 101 99 100 102 101 91 67 61 55 49 44 47 52 48 49 88 93 87 87 78 74 65 53 48 43 48 63 49 43 46 57 76 80 71 67 98 97 115 112 107 110 105 
103 103 103 103 104 104 104 104 103 103 103 103 102 102 102 102 102 102 103 103 103 102 104 103 104 104 102 101 100 102 102 102 87 84 96 97 70 71 68 76 69 68 71 73 70 52 55 68 72 94 89 87 90 90 63 76 85 96 103 103 99 101 105 101 101 101 102 101 102 102 105 105 104 103 108 108 102 103 104 104 105 106 106 105 106 106 106 106 106 106 105 105 105 105 105 106 105 100 95 107 55 51 55 59 43 157 153 64 54 55 49 41 41 37 37 38 38 33 30 36 39 41 43 40 124 122 105 112 110 111 110 109 103 104 113 111 114 114 114 114 115 115 115 116 116 118 118 119 118 119 118 118 119 119 119 120 119 120 120 120 124 123 123 123 122 121 122 122 123 124 125 126 125 123 123 124 128 126 121 120 119 126 124 127 127 129 127 131 131 131 130 129 128 128 128 130 131 133 131 135 134 129 130 131 134 74 63 133 127 126 79 83 82 83 87 94 82 87 92 94 106 106 101 95 98 104 102 69 68 73 121 127 98 95 120 110 121 122 88 92 88 74 74 77 92 93 65 60 62 166 156 133 100 97 92 54 51 62 62 55 54 65 67 67 70 142 159 114 123 97 96 132 135 148 147 151 87 113 130 127 127 126 105 108 70 70 67 164 147 143 136 137 134 117 52 50 44 45 45 47 40 56 85 84 77 78 105 129 133 139 129 129 108 88 83 61 57 41 115 122 59 68 86 88 140 118 102 100 104 106 98 86 87 111 111 113 112 115 114 114 120 126 129 129 109 91 86 70 70 64 58 55 55 52 50 49 55 55 51 48 48 48 42 52 47 48 46 46 52 46 42 50 55 61 66 69 70 67 66 61 64 66 124 125 119 103 108 107 110 112 108 110 133 137 115 121 98 107 116 154 151 126 115 94 90 101 148 137 137 127 134 135 134 102 99 100 93 93 71 69 97 116 122 108 106 106 104 104 104 104 100 96 94 95 92 86 87 87 92 89 93 101 101 99 60 66 62 47 97 80 63 62 90 84 83 87 88 91 98 101 97 92 95 103 105 103 102 103 102 97 87 80 76 88 101 107 121 110 103 106 114 
104 103 103 103 104 104 104 104 103 103 103 103 102 102 102 103 103 103 103 103 103 104 103 104 104 104 103 100 100 100 102 101 99 87 96 95 71 73 73 62 61 63 70 71 64 54 54 73 78 95 98 87 85 46 54 74 69 64 94 98 100 98 105 101 100 100 102 104 103 101 104 105 105 100 109 107 103 102 105 104 106 106 106 105 106 106 106 106 106 106 106 105 105 105 105 105 104 99 100 107 113 64 60 50 45 122 135 151 52 56 49 38 38 38 37 37 37 36 36 34 39 41 38 120 124 122 100 102 112 112 110 104 104 116 112 112 114 114 113 114 115 114 115 115 116 116 117 117 118 118 118 118 118 119 119 119 119 120 120 120 123 123 123 123 122 122 122 122 122 124 125 127 126 125 123 123 127 128 125 120 122 126 126 120 125 120 118 95 85 81 81 81 85 82 86 89 91 92 83 94 106 108 103 100 91 72 84 126 131 111 82 79 77 88 98 87 93 85 98 100 97 103 103 105 100 72 61 72 81 80 109 106 93 92 107 103 104 108 78 84 82 73 75 74 89 93 74 64 62 161 163 110 94 83 88 52 57 68 67 56 58 58 63 66 107 135 92 104 93 86 77 118 119 137 136 151 74 72 133 140 129 108 113 109 80 121 118 124 146 141 136 131 138 127 83 51 45 43 46 45 44 42 48 48 46 47 82 128 129 130 128 135 104 102 117 58 56 51 53 60 70 74 87 118 142 143 93 95 90 97 97 86 86 93 106 111 114 109 108 111 118 126 129 130 119 100 96 73 66 67 57 56 54 49 50 53 54 54 50 52 47 45 45 53 57 49 44 77 102 139 160 158 150 134 130 132 121 119 110 90 96 94 116 99 90 98 108 108 110 111 101 99 114 128 93 95 116 110 101 107 127 86 91 85 88 102 110 137 135 139 141 114 99 99 99 99 101 72 73 74 76 110 112 100 105 96 94 105 105 100 95 97 95 95 96 84 86 89 91 93 94 93 90 72 71 59 110 104 102 99 93 84 85 88 79 81 91 84 99 99 102 93 93 106 102 102 101 101 100 94 93 93 113 112 95 85 119 115 117 107 115 
105 105 105 105 105 105 104 104 103 104 104 104 104 104 104 103 104 104 105 104 104 104 104 104 103 104 102 100 98 97 98 97 94 88 96 96 71 74 71 62 61 62 69 62 61 64 66 71 73 93 98 72 62 41 44 63 54 53 96 98 100 104 104 103 101 104 104 105 104 99 90 88 57 59 97 104 103 104 106 107 106 106 106 106 106 106 106 106 105 105 105 105 105 105 105 105 105 99 101 104 104 79 61 41 39 62 159 171 44 47 52 49 39 39 39 36 36 36 36 37 39 39 37 117 118 118 114 102 102 101 104 105 104 117 115 111 113 114 114 114 114 115 115 115 116 116 117 117 118 117 118 118 119 119 119 119 119 120 121 120 124 124 123 123 122 122 122 122 122 123 122 122 122 121 126 126 135 133 137 157 167 177 117 122 123 100 92 90 87 79 80 87 90 82 85 91 91 91 86 78 126 105 96 96 90 86 84 97 104 94 87 76 77 81 105 92 107 104 106 110 95 101 102 103 100 70 57 61 97 96 105 93 93 93 94 89 87 93 75 72 76 71 73 73 81 87 79 79 72 152 150 123 107 84 83 55 57 66 68 63 60 59 62 112 99 90 93 113 109 83 81 95 103 135 159 157 115 86 129 136 100 116 110 77 114 118 113 140 138 108 134 129 124 108 116 111 50 49 44 42 42 45 43 49 45 57 77 142 157 148 136 141 108 121 118 114 116 69 44 49 58 107 93 138 123 122 96 94 96 103 99 92 87 96 95 96 146 135 118 107 120 127 126 127 120 112 74 72 75 75 59 43 42 44 46 49 52 45 49 49 44 47 48 46 56 84 152 146 136 138 145 154 155 127 128 129 124 107 100 100 101 97 89 92 86 77 70 73 83 101 100 99 107 96 92 94 103 102 82 84 101 81 91 93 91 107 105 121 123 153 140 106 98 97 98 97 99 71 72 65 117 115 105 104 100 94 95 98 101 94 94 95 94 94 94 87 86 88 105 100 97 67 71 63 69 118 111 110 101 103 105 85 82 81 82 92 88 84 77 96 97 100 99 106 101 100 100 101 97 95 94 95 123 116 90 93 99 120 113 102 103 
106 105 105 105 105 104 105 105 104 103 104 103 104 104 105 104 105 105 104 105 104 105 105 104 102 102 101 98 97 95 95 85 83 84 94 96 68 69 71 67 69 69 70 58 63 64 66 68 71 84 89 47 36 43 38 60 51 46 72 98 102 106 106 104 105 107 100 102 98 76 61 56 51 54 71 107 104 105 107 107 106 106 106 106 107 107 106 106 105 105 106 106 105 105 105 105 104 103 90 87 92 88 64 37 47 35 171 163 104 45 50 38 37 39 39 37 36 36 36 39 38 38 67 115 112 114 112 102 101 100 103 105 104 116 116 111 113 113 114 114 114 114 115 116 116 116 116 116 117 118 117 117 119 119 119 119 119 120 120 121 123 123 123 122 122 122 122 121 122 126 129 147 132 122 123 122 133 134 129 153 171 160 149 135 133 146 125 91 84 90 82 66 57 51 84 88 89 90 98 103 119 120 134 147 138 85 68 55 59 84 86 114 121 99 110 113 105 106 110 105 106 101 100 97 94 88 54 58 102 108 108 99 97 95 96 91 92 93 76 73 72 68 70 68 64 70 78 95 103 146 148 142 131 80 76 51 52 63 61 62 62 66 135 120 93 87 105 105 110 101 107 114 116 128 153 137 114 122 115 131 63 66 107 85 92 100 104 127 114 108 137 133 134 97 116 128 133 43 41 37 46 46 45 45 124 155 167 155 151 144 131 119 134 119 115 104 113 112 107 104 106 114 118 129 109 103 105 98 108 116 117 122 129 137 130 137 138 137 112 104 106 116 105 100 101 99 76 73 75 78 48 45 44 43 47 50 50 43 43 47 43 45 46 48 81 136 138 139 145 151 112 111 102 102 101 105 103 98 105 101 100 100 91 90 92 75 74 78 82 104 97 100 102 88 95 95 71 66 65 92 84 71 88 88 88 102 106 102 100 121 137 104 96 97 99 101 102 79 72 121 117 104 110 115 114 97 95 100 99 96 93 92 92 94 95 91 98 97 101 107 73 77 67 106 111 112 115 105 97 104 105 86 82 79 87 89 87 83 82 86 102 100 98 96 103 101 101 100 98 93 96 105 96 122 125 131 101 98 106 118 116 
107 106 106 106 105 105 105 105 104 104 104 104 104 105 105 105 105 105 105 105 105 105 104 104 104 101 98 87 84 82 85 84 81 81 91 86 71 68 75 71 68 66 67 55 61 60 65 72 76 80 83 41 39 36 71 68 41 42 47 57 97 103 101 101 104 106 81 69 75 71 62 57 56 53 50 109 108 105 105 106 107 106 106 106 107 107 106 107 106 105 107 106 106 105 105 105 106 99 77 81 83 83 74 59 39 37 156 144 149 58 39 42 40 34 35 37 37 37 37 36 38 46 108 123 117 106 106 99 102 90 99 108 112 115 115 112 113 114 113 114 114 114 115 116 116 116 116 116 117 117 117 117 118 119 119 119 119 120 120 121 122 123 122 122 122 121 121 120 122 133 149 144 142 125 105 104 105 106 103 82 66 109 137 132 140 162 164 100 95 152 163 52 48 56 66 73 85 93 100 98 97 90 137 159 142 75 58 62 56 52 72 125 119 107 111 107 108 104 102 108 106 103 98 93 81 79 66 56 102 111 105 96 109 110 106 98 92 95 95 96 76 67 65 66 65 64 69 119 138 140 147 138 133 68 67 50 47 60 56 55 64 89 128 140 112 105 102 108 102 103 102 113 112 107 115 117 119 119 106 61 61 87 97 85 82 97 101 107 113 105 97 107 107 98 101 126 125 54 40 38 39 45 45 56 133 165 167 159 146 142 129 131 118 114 111 108 104 111 106 104 108 108 125 125 112 106 105 104 111 107 103 134 135 137 123 108 141 131 122 109 117 114 98 99 99 99 84 77 69 71 49 51 49 46 50 50 52 39 40 44 40 40 86 119 129 100 101 98 98 100 104 105 104 98 100 108 104 92 98 104 105 104 90 93 96 98 121 119 122 122 115 109 104 87 91 76 69 71 54 53 63 68 77 78 82 100 95 105 90 101 103 96 95 93 87 99 105 106 114 120 122 104 109 120 117 96 95 96 97 94 90 90 100 101 95 102 99 100 65 76 83 87 112 107 105 96 102 96 104 108 104 99 99 105 92 84 84 89 105 103 99 98 96 99 93 92 91 93 91 89 87 98 88 88 132 126 112 115 119 116 130 
107 106 106 106 106 106 105 104 104 104 104 105 105 105 105 106 106 106 106 106 106 105 105 104 103 102 89 88 86 85 84 83 82 82 79 74 73 78 77 65 67 51 47 54 62 61 63 76 78 76 80 51 44 38 73 75 36 43 39 53 94 99 101 102 103 83 75 75 76 75 64 59 55 47 44 107 108 106 105 105 106 107 106 107 107 107 107 107 106 106 106 106 106 106 106 106 105 91 76 84 81 69 79 68 34 40 90 148 136 135 47 60 55 35 33 35 38 40 36 36 37 96 109 112 112 88 81 99 98 76 85 106 112 114 113 113 112 113 114 114 115 115 116 116 115 116 116 116 117 117 118 117 118 118 119 119 120 120 120 121 121 122 122 121 120 120 120 121 133 141 148 151 130 116 104 102 106 104 107 89 71 82 90 118 151 164 152 151 153 159 164 173 174 136 126 79 133 116 112 91 91 108 93 74 61 71 57 57 57 50 52 48 110 96 107 107 104 101 105 105 98 97 94 99 73 66 70 60 106 86 94 102 106 111 97 93 92 87 96 96 85 68 68 65 64 64 78 123 128 140 129 126 64 59 52 43 35 56 56 54 60 96 127 123 129 131 103 98 76 80 81 118 113 112 122 115 112 84 77 82 60 85 93 93 90 94 100 105 112 95 95 121 121 111 96 103 60 40 40 41 39 76 101 104 114 108 115 128 140 136 133 125 120 112 106 111 134 103 104 109 104 112 117 128 119 116 102 110 115 101 103 118 103 106 109 112 103 101 105 106 119 115 104 100 95 90 85 74 75 74 50 51 51 46 47 51 51 41 41 38 52 111 118 113 109 103 101 96 95 101 105 106 104 98 94 100 93 94 102 104 102 101 114 102 98 110 119 121 107 119 125 120 106 105 103 81 69 64 54 53 53 69 93 82 89 97 99 95 108 94 88 90 94 91 80 112 104 104 112 105 110 117 110 122 114 113 96 95 94 93 91 89 106 105 100 103 99 83 73 66 93 103 113 111 92 94 103 105 91 95 111 120 103 107 103 83 83 99 104 107 97 95 95 95 97 91 90 91 93 88 86 89 95 92 122 133 115 112 114 120 116 
107 106 106 106 105 104 104 105 104 103 104 104 103 107 106 106 106 106 106 106 105 106 104 99 101 101 99 89 71 68 69 72 82 77 76 75 73 74 75 64 62 49 49 50 60 63 63 77 61 76 75 44 49 74 73 74 38 37 37 78 83 97 93 92 78 80 81 88 76 84 80 60 61 68 52 62 104 107 108 107 106 106 107 108 108 106 106 107 108 108 109 106 107 108 105 105 106 94 90 90 91 62 57 64 41 45 38 162 164 143 70 59 61 38 35 33 38 37 37 36 79 106 102 92 95 70 74 81 76 80 81 82 104 96 100 94 114 116 116 110 112 119 115 115 115 116 115 118 118 118 118 116 116 119 119 118 118 120 120 121 118 121 122 118 119 115 114 120 125 117 120 123 124 124 107 107 105 105 92 85 75 84 135 93 88 57 160 155 152 157 157 182 181 136 121 137 131 100 104 140 138 137 80 68 56 49 49 52 52 54 52 45 49 48 92 107 110 115 104 106 98 96 107 112 62 65 76 129 113 88 91 100 105 110 115 90 89 84 90 95 94 77 77 74 70 66 66 121 115 107 95 94 91 87 43 44 44 42 57 56 91 84 85 138 135 96 76 78 89 78 79 106 113 123 121 123 89 92 78 68 42 56 102 94 95 95 92 92 99 86 120 120 122 119 62 40 37 42 41 42 58 90 86 109 114 115 114 108 128 138 107 81 79 96 110 116 126 128 107 111 114 120 132 130 117 110 115 118 120 104 105 111 113 102 109 111 94 102 103 109 112 108 108 107 92 86 80 82 69 73 56 45 48 46 47 47 60 135 120 126 129 134 112 111 111 105 103 95 96 95 99 108 109 79 63 77 95 115 111 106 105 113 108 97 101 135 130 114 109 108 122 103 106 109 109 108 97 85 67 75 66 69 118 109 110 106 95 101 107 108 93 90 83 81 82 86 126 113 97 104 113 118 99 102 113 112 109 109 91 92 93 100 99 103 95 97 92 108 107 104 95 98 108 109 88 89 98 90 92 96 118 117 118 104 105 91 92 97 92 98 99 94 99 98 99 94 96 92 91 88 88 88 91 104 119 115 114 112 113 113 114 
107 106 106 106 105 105 104 104 104 104 105 106 104 103 105 107 106 104 104 103 104 105 102 97 101 101 102 99 69 68 69 79 75 71 75 74 71 71 70 58 58 60 59 52 47 49 50 53 56 63 61 47 49 70 70 69 45 41 43 69 69 78 80 79 79 83 83 94 90 83 76 67 74 75 69 68 65 52 108 105 72 99 108 110 108 109 107 105 106 108 105 106 109 109 108 104 108 100 96 91 115 42 59 55 53 51 40 143 148 101 104 68 44 37 36 38 38 37 36 37 96 99 98 95 90 68 74 71 73 72 83 97 103 94 91 98 88 94 113 116 121 123 118 123 115 116 119 119 117 115 121 118 117 118 120 116 115 117 119 117 119 111 116 120 119 112 112 120 111 106 123 123 122 121 113 108 104 92 96 98 92 108 141 151 123 71 68 87 158 156 157 171 179 125 136 139 82 100 149 135 131 147 148 61 55 53 52 43 46 52 47 47 41 39 78 94 109 110 118 113 98 108 108 56 60 70 74 123 127 98 104 106 107 109 106 85 84 86 90 94 88 89 81 61 66 71 137 123 107 102 101 94 97 94 69 41 44 38 45 58 79 82 73 90 137 82 77 122 112 75 77 102 96 122 121 123 88 84 82 46 40 38 63 108 92 72 79 112 105 92 84 120 121 72 49 43 40 38 43 39 47 91 89 106 106 107 99 104 134 139 97 70 63 127 131 110 129 90 92 121 123 122 135 133 102 99 116 114 106 107 115 112 114 107 109 93 89 98 94 96 96 109 113 109 79 78 79 82 71 54 54 46 83 130 133 124 117 124 118 115 116 127 129 114 104 103 100 96 78 90 103 88 59 73 73 103 108 113 113 103 97 106 105 105 117 128 127 120 115 104 106 108 100 113 107 103 96 98 76 79 81 121 114 115 119 92 102 100 104 98 79 74 72 83 84 128 122 89 95 107 117 104 103 107 103 103 106 112 87 88 90 98 91 91 88 106 110 109 107 103 95 90 101 91 86 88 94 82 90 93 77 89 102 112 109 96 108 101 82 82 99 100 100 101 100 95 97 93 93 90 97 87 79 75 106 112 114 116 112 112 109 
107 106 105 106 104 103 103 103 103 91 98 107 109 104 105 107 107 105 103 103 104 103 94 94 92 103 101 98 76 74 77 79 74 67 72 74 69 68 66 60 56 70 66 47 47 51 52 50 58 64 67 51 52 47 50 58 54 37 42 49 48 69 75 79 81 83 86 92 94 54 56 71 65 78 83 72 60 40 46 52 54 50 47 51 93 109 107 107 109 110 109 107 108 108 106 103 112 95 100 104 94 64 52 60 50 54 46 40 139 102 97 88 45 39 42 42 41 37 38 50 88 97 95 93 100 95 73 68 102 81 100 98 74 86 89 93 95 90 120 118 125 113 86 122 122 122 124 120 115 116 119 121 119 116 117 117 116 116 116 119 119 112 110 118 118 112 110 102 97 97 109 122 120 98 109 91 93 93 97 88 98 129 145 130 128 77 88 84 74 74 118 159 56 135 128 49 74 91 127 133 140 148 139 95 83 53 52 39 40 44 48 46 47 40 105 102 102 115 117 109 110 105 114 61 58 76 90 114 127 101 108 109 107 97 99 88 91 94 93 95 97 88 56 59 72 70 132 130 107 104 102 99 97 88 77 71 43 47 62 68 65 73 77 132 152 162 104 128 123 84 86 72 74 123 117 95 84 83 83 59 34 41 44 121 111 76 64 116 116 81 90 102 103 94 79 44 41 37 41 39 90 104 111 101 104 92 95 121 131 65 63 69 70 123 124 127 122 121 91 79 134 135 132 123 97 93 94 103 107 115 116 110 111 104 93 94 98 96 96 92 97 102 107 97 78 77 79 79 62 50 94 138 119 117 132 114 111 110 109 113 122 126 128 104 108 106 98 83 76 78 78 67 59 90 107 104 96 99 109 110 95 91 87 113 120 113 114 114 115 102 101 110 125 118 129 79 95 87 91 92 88 96 96 97 86 81 97 100 91 82 83 82 84 83 114 112 82 91 96 97 99 110 104 101 103 103 105 110 85 81 82 91 94 89 100 94 93 113 113 90 81 87 99 90 90 92 87 72 69 67 66 66 92 116 115 113 108 99 99 86 97 103 99 99 99 87 83 95 93 100 82 81 78 77 112 112 118 107 109 115 124 
107 106 106 105 104 103 103 103 103 80 94 105 106 103 105 106 104 103 103 104 105 106 95 93 94 94 98 81 75 74 74 80 81 66 59 62 62 67 67 66 71 70 69 61 54 48 46 77 77 74 64 59 48 47 49 53 64 49 42 39 43 61 64 77 79 84 77 91 80 48 46 55 62 78 84 72 35 40 44 54 67 57 51 49 57 101 108 106 110 109 107 108 109 108 104 109 117 113 96 88 59 57 38 53 54 47 43 38 151 138 67 59 55 50 43 42 38 39 39 53 55 86 89 95 109 121 128 117 109 113 100 78 71 90 130 99 95 90 113 124 68 45 49 51 125 126 125 122 120 119 118 117 118 113 114 118 120 118 119 117 118 108 111 112 101 111 109 99 98 99 100 105 101 100 98 91 90 100 104 84 96 99 76 78 116 88 89 88 80 91 88 60 55 53 51 56 64 76 50 45 69 39 43 85 87 52 44 45 41 51 45 48 46 44 101 104 92 112 109 103 110 116 69 74 67 107 107 114 76 84 104 104 99 93 93 85 88 95 72 94 93 58 54 57 73 69 131 123 99 101 105 96 98 46 47 51 43 46 62 65 64 71 146 144 154 150 104 119 114 110 92 73 79 89 116 114 102 81 77 66 47 41 100 112 115 96 121 107 107 108 89 87 106 112 106 76 77 36 39 46 96 91 111 102 98 104 110 111 114 69 62 105 107 109 117 121 121 118 86 73 126 136 134 104 99 96 97 102 111 116 116 96 94 86 88 91 92 92 93 94 105 103 115 112 84 78 76 81 117 133 123 131 103 106 98 109 112 119 116 114 111 88 89 102 113 111 105 88 90 90 90 84 77 99 107 96 96 97 110 108 93 95 90 95 104 119 108 109 111 85 101 94 115 114 83 71 72 73 95 90 97 98 91 87 83 77 96 100 102 79 77 77 84 80 118 116 96 126 120 94 95 107 93 92 98 100 114 111 86 82 83 96 92 95 96 90 97 110 122 88 83 86 107 111 102 90 90 82 64 66 64 62 77 92 87 77 86 103 122 83 85 107 106 100 98 86 86 86 88 101 86 85 89 81 109 109 98 97 111 116 112 
107 106 106 104 104 103 102 103 88 58 59 110 106 110 110 111 103 103 103 103 103 104 104 103 94 94 89 74 76 77 77 74 74 58 58 61 61 65 66 63 70 67 67 59 57 48 37 77 79 70 60 46 46 46 49 58 74 83 44 38 36 57 54 54 60 70 65 63 69 48 46 48 62 70 37 32 40 43 66 63 63 60 49 46 56 105 111 109 104 108 106 107 109 110 109 116 120 115 97 70 57 64 57 46 52 45 42 41 39 108 68 61 57 41 37 41 40 38 39 37 56 143 130 152 161 154 120 93 132 122 45 66 117 132 125 97 88 89 86 68 47 53 50 52 54 76 106 118 122 122 121 121 106 103 101 100 105 110 113 115 109 109 112 101 92 88 107 109 99 99 96 98 101 96 99 98 88 88 91 91 90 84 88 92 80 91 88 90 86 87 89 69 50 57 53 56 58 41 44 43 41 41 41 44 43 47 45 44 51 54 53 42 40 42 42 72 110 107 108 108 94 78 72 72 100 104 105 111 74 82 97 97 100 100 82 80 77 54 57 61 78 58 59 54 51 73 91 117 76 104 101 51 52 43 47 52 50 48 55 56 71 63 141 148 138 142 97 96 87 89 83 72 98 87 122 109 96 85 74 90 60 95 108 109 113 104 116 106 104 105 94 95 114 115 111 98 66 78 69 93 104 94 86 58 92 106 116 113 114 81 87 104 109 104 109 97 104 114 85 107 110 100 107 106 103 104 100 112 114 118 114 90 91 88 93 98 93 93 99 96 104 104 115 114 90 82 105 115 114 132 139 97 105 108 95 96 115 119 122 122 119 77 81 110 110 97 97 92 99 90 89 78 68 70 94 92 96 95 92 88 83 96 99 113 118 122 102 100 92 92 72 71 108 105 88 90 65 84 94 97 95 82 80 82 86 105 112 117 120 84 77 71 79 129 135 100 98 123 125 107 107 88 76 84 90 88 107 110 104 91 81 85 90 91 81 110 111 107 96 101 107 109 105 93 101 95 84 77 61 60 63 75 84 86 78 85 84 97 118 108 98 104 105 100 101 100 95 88 89 100 87 90 79 78 102 103 88 89 120 113 116 
107 106 106 105 104 103 103 103 60 58 54 98 110 112 111 109 106 103 106 102 103 102 103 101 101 96 80 73 75 76 78 70 71 56 56 65 63 64 64 45 70 64 67 55 52 55 71 69 68 51 32 29 31 49 49 53 83 81 28 33 32 54 53 53 59 65 65 62 66 51 51 44 51 52 29 35 41 62 59 66 42 49 50 54 110 105 110 107 106 111 113 107 108 109 110 115 113 129 115 77 74 57 55 40 44 50 50 42 40 75 80 91 48 37 38 35 46 47 37 38 98 147 143 145 168 154 113 85 51 58 57 76 103 135 134 96 99 86 83 46 46 51 50 48 46 50 45 57 118 132 117 124 106 100 100 101 103 112 131 126 97 97 93 98 88 94 102 106 99 97 96 98 99 106 105 102 60 65 66 92 99 107 103 97 80 102 94 73 80 71 70 46 52 48 51 61 45 39 46 46 41 43 41 39 40 48 46 47 46 44 47 38 40 39 43 41 104 106 109 112 93 93 88 88 97 103 93 98 79 82 97 98 95 96 77 82 77 53 52 60 90 56 60 48 50 59 41 55 45 45 39 39 41 43 43 50 45 43 51 45 46 51 128 140 134 126 132 88 83 83 79 93 93 119 123 117 113 101 98 105 80 118 117 111 107 92 108 111 105 99 85 93 109 115 106 63 79 72 79 89 95 97 62 49 59 96 115 119 116 92 91 97 101 102 107 94 117 121 122 102 103 105 106 112 106 102 98 120 115 122 120 88 88 95 94 99 95 100 99 100 104 99 109 108 111 97 111 117 101 96 81 96 91 97 97 92 134 119 125 124 131 74 81 95 106 105 94 105 99 79 73 70 67 65 91 95 93 94 90 64 72 79 109 118 120 93 93 89 85 99 65 74 77 79 75 91 61 54 99 97 90 85 91 78 77 111 101 104 122 70 71 67 115 126 88 93 98 118 97 105 104 51 61 90 96 94 98 94 101 106 84 88 93 91 95 104 101 95 101 105 110 100 103 91 84 71 61 66 65 58 62 87 88 75 79 86 87 96 107 115 104 99 90 98 99 98 103 97 97 103 95 94 87 75 71 86 91 96 114 115 104 
107 106 106 105 104 103 103 103 94 56 49 62 58 38 40 40 107 98 106 105 103 101 98 101 100 94 83 71 70 77 77 65 63 54 54 63 66 58 43 38 39 64 65 51 51 54 65 72 48 48 36 32 27 52 48 36 32 35 31 28 32 54 56 55 61 65 64 65 64 46 48 32 32 30 31 34 62 60 59 40 47 44 59 95 101 112 95 64 108 113 111 107 107 107 109 98 123 121 59 67 72 59 46 40 38 50 46 44 42 40 91 83 58 41 39 39 45 45 41 38 38 153 141 134 142 82 52 51 56 52 129 126 80 91 84 92 99 69 55 53 47 49 47 43 47 47 42 48 120 131 132 123 123 138 147 141 139 139 135 130 124 98 96 109 105 94 101 104 102 96 105 114 112 107 84 64 52 60 56 73 107 111 95 85 81 95 104 73 70 59 54 44 49 50 46 40 41 46 42 46 45 38 42 41 41 37 36 34 38 37 41 39 41 43 38 42 42 105 99 88 93 89 90 87 75 85 65 86 84 81 96 102 84 78 86 75 60 53 50 107 103 53 50 52 50 39 42 43 44 45 36 38 42 42 38 42 44 42 44 46 47 48 56 55 46 48 126 81 81 84 90 97 95 113 107 105 103 104 107 64 58 115 109 114 106 89 85 116 113 92 89 87 109 118 84 49 52 56 65 52 44 43 56 57 56 112 116 115 81 86 105 101 94 102 98 101 119 115 121 114 113 104 105 108 104 95 114 111 123 121 113 94 91 94 82 87 101 102 95 97 94 105 106 109 107 100 99 114 107 96 90 77 79 82 92 100 150 150 144 134 92 90 81 93 109 110 109 108 93 76 69 73 63 64 71 78 86 88 97 102 67 76 107 110 115 92 103 100 109 116 76 76 82 77 80 75 65 64 64 83 98 101 101 83 85 99 98 99 106 76 68 81 111 77 85 87 81 103 101 106 110 62 58 85 100 98 93 83 88 105 104 97 88 96 90 105 95 89 93 105 90 97 99 95 89 74 65 60 79 77 97 101 96 74 76 90 98 93 93 120 102 91 91 91 93 93 104 107 97 98 91 93 89 77 74 75 96 104 110 111 126 
107 106 106 105 104 104 103 97 40 33 34 33 31 33 35 35 36 35 103 105 103 98 96 96 82 89 80 62 69 74 72 62 61 52 57 62 56 40 36 38 37 54 50 44 52 55 59 48 50 47 51 37 44 68 66 26 30 35 39 36 53 57 56 54 57 56 60 61 32 34 35 29 31 34 31 31 60 63 58 38 39 40 39 72 98 74 52 55 55 105 110 105 106 106 107 102 123 120 54 60 64 57 40 38 42 36 49 46 44 42 35 75 72 51 39 39 39 39 41 42 39 112 138 137 140 96 53 48 42 96 125 107 129 113 81 103 106 49 51 56 50 47 46 45 42 44 37 37 44 41 38 135 136 153 149 141 136 134 134 131 119 110 112 117 89 73 81 100 108 118 126 125 125 113 61 55 48 44 72 92 78 63 75 85 109 96 73 82 71 58 57 52 43 49 46 41 40 46 41 42 40 41 40 40 41 35 36 37 36 40 40 42 41 40 41 40 42 39 102 102 76 76 85 75 82 75 63 55 81 81 78 83 81 77 77 55 57 55 60 91 71 69 48 47 40 41 52 39 36 36 36 36 40 41 35 36 36 42 39 47 48 47 49 50 39 37 80 96 82 83 123 108 105 102 110 111 105 103 64 69 56 109 99 101 105 103 88 121 111 91 85 83 85 50 45 57 55 55 53 41 45 43 42 109 105 106 95 102 79 80 97 103 74 78 79 115 114 118 111 117 111 110 106 105 90 86 116 118 117 102 102 94 97 95 80 83 100 99 85 81 79 74 74 79 75 102 98 107 66 67 75 74 85 81 118 147 139 147 151 141 93 105 94 88 84 110 70 69 75 77 72 70 65 66 74 75 83 83 106 109 89 100 110 112 112 93 94 119 111 68 78 83 92 104 104 83 70 59 57 57 101 107 104 112 110 93 101 84 98 94 124 115 84 80 69 61 68 87 92 117 116 65 72 68 81 101 93 86 84 112 111 110 100 98 95 115 115 91 94 90 97 100 108 97 101 102 74 76 76 82 91 100 104 109 112 99 102 100 92 130 106 102 88 88 81 83 103 106 100 92 89 91 87 91 76 105 110 103 100 101 129 
103 105 104 109 106 108 64 37 33 32 32 32 32 33 34 35 34 39 36 42 47 93 87 85 87 83 62 66 57 60 67 60 57 45 43 48 46 38 39 36 35 48 39 41 50 52 59 62 51 53 57 47 70 63 68 47 38 37 30 32 44 59 63 60 56 58 63 64 32 31 32 34 30 30 38 62 58 50 46 46 35 41 49 46 49 55 58 54 54 108 108 104 106 106 105 104 95 104 46 57 58 60 45 34 37 36 35 43 56 51 40 38 45 40 37 37 38 39 39 40 39 40 124 127 73 90 102 123 118 81 93 126 115 105 82 88 47 45 49 50 53 40 42 43 41 41 38 41 42 41 53 66 71 87 88 85 76 72 72 70 78 91 97 90 80 70 99 105 101 120 128 138 50 56 56 46 42 43 37 82 74 67 72 81 98 105 79 77 61 61 47 48 50 49 51 41 43 41 45 41 40 40 36 35 34 35 36 37 37 39 41 42 42 42 41 42 41 39 34 82 66 61 75 74 107 91 59 64 73 79 78 77 79 74 73 57 60 78 74 92 88 82 50 47 41 42 60 36 37 37 37 36 35 35 35 35 36 41 38 40 46 47 46 50 36 39 31 112 120 131 127 111 108 106 107 102 109 104 74 71 112 99 95 99 112 117 103 83 118 119 89 93 84 41 48 52 57 42 41 41 39 41 100 115 112 98 93 99 95 80 95 87 85 78 85 101 117 106 113 110 95 99 98 99 94 114 110 115 113 96 99 98 90 84 74 78 96 88 84 81 80 70 72 66 68 71 81 70 64 66 64 74 80 94 130 139 141 125 135 72 75 75 79 77 82 80 71 64 78 73 97 97 93 89 80 80 81 105 103 106 99 85 107 117 130 132 107 111 104 76 71 84 89 110 111 66 63 54 59 124 107 97 112 111 112 107 73 75 88 109 112 85 73 90 72 62 66 61 62 111 119 72 67 73 91 83 89 84 102 96 109 111 97 101 95 94 98 99 91 94 115 116 88 84 84 101 85 86 86 78 72 94 100 114 110 98 91 90 104 105 126 97 82 84 82 93 97 96 91 98 101 93 92 92 96 96 114 98 98 99 100 
104 104 106 103 100 44 34 35 32 32 32 31 33 33 33 34 37 39 35 41 48 73 77 76 68 66 65 61 55 59 67 70 49 41 44 45 45 43 37 36 49 54 40 42 50 49 59 60 53 53 49 48 67 70 88 89 35 33 33 33 44 58 65 63 34 41 29 27 28 32 30 32 34 36 45 56 57 50 50 47 67 60 51 48 46 54 56 57 57 98 108 110 104 106 104 98 97 71 77 59 59 83 39 43 41 34 34 65 71 70 30 33 38 33 37 37 38 39 40 40 42 43 73 81 77 111 108 107 103 88 97 112 125 90 59 54 47 42 44 44 40 43 42 44 33 37 39 36 40 68 98 71 85 93 96 90 74 73 76 78 79 107 114 127 137 133 129 99 101 133 129 51 52 56 58 39 43 42 43 47 64 61 98 86 98 81 89 91 50 45 39 67 60 61 55 44 40 39 43 42 39 39 37 34 35 36 36 36 39 39 40 41 41 44 43 40 41 39 35 46 63 64 70 66 115 86 93 111 71 75 80 80 66 76 71 68 73 74 81 89 98 86 65 55 46 63 62 36 37 37 37 36 35 34 34 35 40 38 39 45 44 44 48 51 46 36 37 109 121 115 131 124 106 96 87 102 103 71 73 92 103 102 99 95 118 117 113 88 74 106 81 77 77 41 46 52 44 37 37 39 38 40 90 113 108 111 102 91 89 104 126 81 113 106 91 88 106 78 102 96 92 92 94 99 95 110 107 109 110 97 101 96 89 87 73 78 79 78 69 84 81 76 52 58 64 79 75 72 62 59 64 85 92 95 96 102 94 91 86 84 78 82 73 64 110 106 101 100 103 103 105 93 96 95 86 80 85 99 102 81 86 86 96 108 129 85 78 100 96 69 70 83 94 97 82 81 53 50 48 44 102 83 72 112 108 102 73 87 131 125 88 95 92 72 63 58 62 55 67 108 101 76 72 101 93 86 77 119 123 95 98 107 111 93 96 96 98 98 114 105 84 95 84 87 78 79 76 74 85 77 85 100 100 102 109 106 75 70 110 118 118 96 83 78 94 87 69 75 88 103 105 101 101 101 94 98 127 126 101 100 123 
100 105 103 76 32 30 29 29 31 30 30 31 31 31 34 34 36 35 37 43 116 130 71 72 67 61 73 67 67 62 65 53 52 53 42 43 56 60 39 43 47 40 42 43 45 48 47 56 57 52 45 41 66 68 92 90 36 31 32 32 33 29 26 28 36 29 31 28 29 31 32 29 30 27 28 34 47 48 50 62 64 60 45 50 46 38 35 58 41 42 69 108 110 55 56 104 101 85 87 67 53 73 39 44 42 32 30 60 70 63 34 33 33 33 34 38 42 43 42 40 36 48 43 73 86 97 109 90 104 155 154 107 76 56 40 40 40 40 43 43 42 35 36 32 37 31 33 59 92 100 101 83 89 88 92 89 84 93 92 71 114 98 107 136 135 129 117 121 136 142 64 51 55 52 47 37 39 41 42 36 60 74 126 144 144 93 90 102 89 56 45 43 68 54 55 46 42 37 36 40 38 38 38 38 35 36 35 35 38 39 39 41 44 47 42 39 38 38 40 37 52 72 86 126 127 116 98 123 114 83 80 75 58 57 78 75 73 77 72 66 95 64 63 77 78 39 32 37 37 37 36 36 34 34 34 34 37 37 36 44 44 42 49 56 46 39 60 121 124 122 92 95 93 98 95 63 62 70 79 77 99 102 99 102 119 119 108 87 83 114 80 75 70 41 44 40 39 37 36 37 55 56 70 105 111 107 102 124 127 128 122 113 115 113 89 78 71 72 99 105 91 92 101 103 106 105 104 103 107 111 97 92 87 85 88 75 83 86 72 64 58 52 51 64 74 78 53 68 66 58 65 74 92 94 106 104 95 88 93 98 105 102 103 107 109 108 103 105 102 104 103 102 97 94 99 84 89 95 83 78 82 85 107 110 75 65 69 104 113 87 90 87 94 92 77 76 51 47 44 45 93 62 71 110 104 116 93 97 121 127 100 87 89 83 58 62 54 80 82 104 99 108 104 101 89 83 90 110 114 107 95 102 101 108 109 90 91 111 113 66 70 98 96 82 73 76 77 74 80 73 98 101 100 93 94 88 74 83 109 116 108 86 94 89 94 71 73 78 92 94 98 94 91 93 95 113 106 119 107 115 132 
83 70 33 29 32 32 29 29 30 31 30 31 31 31 32 32 32 33 35 40 119 118 119 132 133 117 112 102 74 63 65 47 52 50 40 39 57 61 51 54 57 46 42 45 37 46 47 56 50 33 33 33 63 64 72 79 51 32 32 35 30 30 29 28 31 28 29 34 33 27 28 30 31 28 27 26 26 30 36 64 57 48 45 43 41 38 36 37 37 40 44 55 63 48 47 52 106 114 73 57 55 101 96 38 38 33 34 50 50 59 42 36 33 33 34 38 42 43 42 39 38 39 42 89 68 81 87 87 84 155 159 70 40 40 42 39 38 40 38 41 38 36 33 39 34 33 86 94 102 89 86 92 90 86 72 71 73 83 107 128 127 116 118 129 125 118 112 120 80 75 63 71 46 42 44 44 36 42 38 36 31 55 133 138 134 115 131 84 85 41 43 51 44 50 63 80 58 37 38 39 38 38 38 39 39 36 35 35 38 38 36 40 48 48 48 38 38 37 39 35 34 84 88 105 80 88 137 126 144 133 76 56 54 53 66 85 89 96 68 71 68 59 70 69 52 39 32 36 36 36 36 36 35 34 34 34 35 36 38 40 40 52 54 37 38 47 122 109 106 101 88 89 90 93 63 65 67 61 84 88 97 100 102 108 116 114 104 89 107 116 112 70 74 59 40 36 38 38 38 36 52 53 59 95 93 87 117 123 129 134 131 122 119 110 93 96 65 72 110 112 90 91 90 104 110 101 97 95 113 109 110 91 82 85 85 73 83 88 73 79 52 58 52 49 72 60 61 53 98 94 91 98 94 104 104 99 99 96 97 107 109 109 105 102 110 106 101 101 100 102 98 102 90 84 97 89 69 71 67 76 98 110 106 101 103 69 73 114 108 123 93 92 78 85 76 81 43 48 39 32 88 56 62 63 113 113 109 90 92 90 96 83 95 103 75 64 66 85 73 71 101 96 104 93 92 95 99 101 84 109 94 94 114 109 101 106 117 122 77 76 77 97 92 67 73 74 79 77 64 64 93 99 93 95 90 77 75 83 110 113 110 89 90 99 98 89 70 87 97 94 98 84 93 94 91 110 114 115 101 91 103 
56 37 31 30 32 32 31 28 29 29 28 28 29 31 32 31 34 34 33 31 112 117 122 130 116 112 99 91 64 61 82 64 52 53 41 41 56 53 52 51 36 40 44 29 36 51 51 50 49 35 32 35 56 66 79 80 85 45 38 35 32 29 26 27 24 27 33 36 31 27 26 34 34 30 27 25 27 29 35 54 51 50 51 42 39 39 39 34 38 41 44 56 61 44 42 53 114 103 104 43 50 86 117 41 45 41 42 52 44 38 36 39 37 35 36 34 35 35 35 37 38 38 36 56 88 82 80 89 89 103 77 42 41 44 43 39 40 37 40 40 40 33 33 36 35 90 91 86 99 89 90 97 86 79 77 74 76 85 95 121 132 116 127 121 121 124 113 105 95 68 70 51 43 40 45 34 35 40 41 38 37 34 64 74 96 121 119 100 93 38 42 36 65 68 76 76 71 42 39 39 38 38 39 39 38 38 34 35 35 34 35 37 48 47 48 42 36 34 40 40 36 57 68 90 80 64 151 154 135 141 152 64 53 56 43 93 89 86 82 90 74 70 65 68 55 62 42 38 37 37 36 36 36 35 34 35 35 35 42 41 41 69 64 62 43 56 127 103 96 100 92 88 88 85 52 65 61 53 66 76 105 75 71 78 79 79 102 99 98 115 96 74 73 63 57 35 34 36 36 35 39 39 37 37 40 72 77 50 49 52 69 50 49 58 72 94 84 86 108 109 100 90 95 107 107 106 94 102 97 104 86 76 80 83 86 69 68 87 91 84 72 60 53 45 69 63 68 108 102 93 95 91 107 100 105 97 101 93 99 98 104 101 100 103 106 102 91 107 105 82 72 71 73 76 91 74 69 70 69 68 93 109 105 106 99 71 71 92 121 109 88 82 97 85 84 87 59 35 43 53 96 61 61 97 103 96 94 92 88 96 92 102 98 90 88 72 74 94 107 77 94 103 108 85 94 95 105 105 82 75 86 84 110 108 110 119 122 88 86 95 101 91 92 71 69 74 85 89 67 67 90 95 100 104 101 80 68 70 102 105 111 105 93 89 91 68 70 66 75 100 99 72 85 93 93 96 113 125 102 95 108 
34 33 35 31 29 27 28 29 29 29 28 27 28 29 29 30 35 35 35 29 65 114 116 128 95 102 104 90 63 74 94 100 57 48 42 45 54 47 50 50 41 41 47 35 33 52 51 49 48 49 43 35 32 34 86 88 86 63 39 30 30 30 28 27 40 26 28 27 29 31 30 32 36 28 28 32 35 41 44 50 49 50 50 29 29 40 38 32 33 53 56 54 54 43 45 70 64 96 107 51 55 60 104 53 46 62 63 63 36 31 36 41 41 39 35 35 35 36 36 36 37 36 48 46 82 90 81 94 105 101 47 40 41 41 38 41 38 41 38 41 33 33 30 36 123 102 88 89 123 120 93 118 114 80 83 102 103 109 121 119 116 111 118 119 120 123 120 87 114 96 97 45 43 42 33 33 38 38 39 38 38 36 36 58 109 107 88 83 81 68 47 68 84 67 60 79 87 86 59 36 38 38 38 39 38 36 36 35 35 35 35 36 46 48 45 44 36 36 35 38 38 38 94 88 86 107 98 149 140 138 145 54 38 34 41 56 71 66 87 90 90 64 56 62 65 64 43 40 37 37 36 37 37 35 35 36 36 34 45 43 45 53 96 112 139 140 133 127 98 96 70 77 66 52 54 53 51 61 63 71 75 71 95 87 80 84 83 91 106 68 73 85 58 60 55 37 35 38 35 36 42 42 38 39 39 40 56 55 52 51 50 49 51 50 46 74 71 72 83 82 79 86 82 90 90 89 83 83 86 92 80 77 77 85 73 77 66 81 65 67 65 63 53 49 46 50 75 99 101 98 96 102 104 108 101 100 86 82 68 68 66 67 68 63 60 60 58 58 79 78 70 77 73 79 93 91 90 91 68 72 94 99 106 105 97 86 71 84 88 99 85 93 83 90 86 71 73 67 77 75 100 83 102 103 106 100 93 93 100 87 87 102 98 83 82 90 80 107 99 101 105 113 109 114 83 92 103 105 77 78 92 106 100 132 127 90 81 75 78 107 107 93 88 74 72 75 81 84 96 101 96 87 101 108 105 63 65 68 98 99 99 111 118 88 81 85 67 70 85 95 95 71 68 81 102 109 121 119 116 105 141 
27 34 33 32 28 28 28 29 28 27 27 27 27 29 29 29 30 33 35 33 108 110 104 91 88 98 66 60 51 49 98 100 96 103 96 78 63 47 49 50 46 46 42 34 33 41 50 51 51 46 42 38 30 32 97 96 64 63 36 32 36 37 29 33 36 40 28 28 29 30 31 29 28 29 27 40 43 41 41 51 36 40 36 31 31 31 32 33 54 49 57 51 35 37 34 65 57 64 93 50 62 67 113 85 50 65 64 66 32 32 34 39 41 40 36 35 35 35 35 35 33 33 35 38 79 89 119 130 122 93 49 45 44 38 36 40 37 40 30 36 31 35 133 120 115 107 102 107 127 116 109 126 120 101 92 100 106 105 112 115 108 106 112 96 93 90 67 107 88 96 101 68 56 47 34 41 37 38 38 36 37 36 37 38 108 102 102 79 70 64 53 40 92 46 63 90 88 90 76 38 39 38 38 38 37 36 36 35 36 37 37 36 37 42 43 44 42 39 39 38 33 37 44 41 39 80 59 58 140 158 49 33 35 40 37 53 52 54 72 86 56 69 66 42 35 64 47 38 38 37 37 37 36 37 36 36 35 35 36 45 48 37 53 121 132 139 128 107 73 66 66 69 66 48 43 106 99 89 83 75 72 79 88 87 67 56 77 75 73 50 59 52 51 39 37 36 40 43 44 44 44 42 45 39 48 45 42 52 48 46 47 49 49 50 48 46 62 67 84 83 68 81 84 82 93 91 85 82 90 88 87 74 75 62 58 68 68 69 65 66 65 66 65 61 43 42 44 37 82 48 43 42 43 44 44 41 43 59 77 74 59 66 68 59 62 61 61 54 66 80 87 100 82 87 93 95 89 97 99 106 100 85 67 78 103 108 101 108 111 97 85 87 89 84 83 82 67 67 81 45 52 91 106 106 91 95 94 101 100 93 94 94 98 92 80 105 108 101 92 95 110 106 112 96 70 71 90 79 74 99 109 109 87 92 120 143 75 71 80 100 105 95 93 93 92 86 80 82 95 102 97 68 79 101 70 67 66 107 102 96 100 112 118 84 79 78 65 68 68 97 102 95 76 113 107 91 112 133 83 86 68 
28 28 31 31 32 29 28 28 27 27 27 27 28 27 29 29 30 37 35 37 32 113 99 92 86 82 79 50 50 49 93 91 100 101 96 86 62 53 49 45 43 40 29 31 36 35 49 53 52 39 31 39 33 30 92 94 68 73 48 44 43 45 27 27 34 30 30 27 26 27 28 28 29 29 29 42 45 39 39 34 41 34 31 34 32 29 30 37 67 76 31 30 36 39 41 40 63 75 70 75 71 94 83 82 51 56 59 38 31 38 31 37 31 30 31 31 33 34 34 36 33 35 36 37 83 124 132 134 102 39 43 49 48 40 33 38 37 29 29 42 133 121 122 106 101 100 93 97 96 123 126 110 94 84 99 99 101 69 66 60 55 53 64 83 82 86 73 76 109 84 93 54 52 57 51 31 36 36 37 37 36 36 37 36 36 111 100 108 67 69 46 43 36 39 55 100 102 54 47 46 39 38 39 37 36 36 35 35 36 37 36 36 35 36 43 43 37 40 37 38 40 38 38 38 38 38 39 39 40 40 36 38 42 38 40 36 42 63 75 77 57 49 53 44 38 35 40 39 38 38 38 38 37 37 36 37 35 41 36 39 39 33 37 48 42 65 82 56 78 64 66 60 80 75 76 86 94 94 70 56 44 44 44 43 44 43 44 42 44 44 45 42 44 42 38 42 44 38 46 45 41 41 45 45 44 46 44 41 43 45 46 44 45 51 47 45 52 59 82 74 71 80 90 93 93 82 88 80 89 87 70 66 67 55 58 73 70 65 66 65 68 67 70 73 44 42 43 48 46 42 42 37 43 43 44 40 40 47 76 60 64 63 53 48 47 51 52 50 58 74 81 96 102 118 111 90 90 91 100 106 105 79 70 72 96 92 79 108 105 100 71 74 86 88 85 89 82 78 50 45 48 81 86 102 103 94 99 84 86 104 102 86 84 92 83 126 116 82 95 96 102 80 67 73 79 79 86 85 92 78 96 93 101 93 121 123 80 92 96 86 80 80 94 93 88 88 87 71 78 66 63 56 60 63 66 77 79 91 110 114 105 114 101 91 79 89 62 61 105 101 96 93 89 110 106 71 56 53 62 72 53 
23 30 30 31 31 28 30 27 25 27 28 28 28 27 28 28 28 36 38 31 33 104 103 95 84 80 79 78 64 93 85 88 92 104 95 71 85 81 41 41 34 36 31 29 33 35 30 50 44 46 28 32 35 30 86 72 66 63 43 43 43 30 27 27 29 29 28 28 27 27 27 27 29 27 27 29 37 46 47 34 32 35 33 33 28 27 78 78 65 31 30 29 30 38 41 41 58 60 51 79 71 77 64 88 95 45 40 44 42 34 40 33 32 30 30 31 33 34 35 34 30 32 34 34 29 120 133 78 44 37 45 46 36 32 37 28 30 27 86 119 122 129 102 114 109 93 101 95 96 83 88 86 82 76 73 77 87 92 56 59 63 43 42 50 65 59 65 64 75 68 44 47 68 68 68 34 36 36 36 36 36 37 37 36 37 41 112 101 70 64 47 38 40 39 44 97 106 43 48 40 40 39 39 36 36 36 36 36 37 36 36 36 36 36 38 38 36 35 39 36 36 39 39 40 36 40 34 38 40 39 40 34 41 41 35 38 38 35 36 48 54 57 75 71 60 33 37 38 39 39 37 36 39 40 39 37 37 44 42 39 38 38 33 40 40 45 45 39 36 45 47 58 68 49 41 39 40 39 38 37 37 36 36 40 41 41 39 42 43 41 40 41 40 40 41 42 41 40 36 40 46 43 42 41 40 47 45 42 46 45 45 44 57 53 49 49 57 65 73 67 92 93 96 97 91 96 68 81 84 74 69 68 63 63 58 59 67 72 67 87 83 71 83 84 71 65 58 49 40 48 40 42 41 63 67 41 58 71 82 84 70 73 58 40 79 54 44 81 101 81 93 93 81 121 109 114 86 82 83 83 113 116 95 91 87 71 79 64 67 77 81 75 87 91 93 83 85 46 47 56 55 80 97 92 90 93 88 86 92 99 99 81 91 90 81 117 114 87 80 105 95 74 65 66 80 82 89 89 93 95 107 99 91 87 81 77 76 95 89 94 78 87 84 90 93 89 79 93 72 60 64 59 56 56 66 81 90 93 102 119 116 87 97 111 110 98 105 110 115 92 80 85 101 106 93 83 51 48 63 74 80 
25 28 31 31 32 29 27 24 24 25 28 28 28 29 28 28 29 30 29 33 68 96 97 69 65 79 82 70 54 91 92 89 95 94 66 63 79 83 41 36 33 35 33 31 36 33 33 39 41 38 46 38 31 31 81 75 66 49 45 43 44 37 31 30 29 28 29 27 27 28 27 27 27 27 26 29 33 49 48 48 35 32 28 26 29 24 74 76 50 32 31 32 34 49 46 54 63 53 53 70 53 46 52 63 99 95 43 49 46 35 31 38 36 36 33 33 34 34 35 34 34 33 32 33 33 46 56 38 39 44 35 33 35 40 34 41 108 107 108 109 92 93 92 102 106 112 94 74 80 89 85 90 79 76 74 74 92 92 78 67 51 39 38 41 45 36 36 35 55 36 34 34 74 72 53 39 35 36 36 36 37 37 37 36 38 40 49 62 73 87 85 39 40 43 44 76 70 35 39 39 39 37 37 36 35 36 36 36 34 37 39 36 36 39 38 37 37 35 35 34 37 39 39 39 36 36 41 42 39 38 38 40 37 38 38 38 39 32 32 46 83 82 77 70 67 40 39 35 32 35 39 40 34 35 36 57 39 40 39 39 39 37 52 43 34 73 37 41 35 39 39 79 49 45 35 36 40 41 37 38 39 37 37 41 43 42 39 40 41 39 39 40 41 41 41 38 42 33 39 46 47 43 41 43 39 50 51 45 47 47 46 48 53 53 53 55 104 103 100 94 94 97 93 98 96 82 68 70 75 73 83 78 70 63 61 63 65 70 73 80 83 73 83 85 71 62 63 57 57 60 47 43 39 71 72 54 69 72 68 84 75 70 75 73 95 93 91 101 99 94 96 94 94 76 106 95 84 81 78 78 113 111 97 94 87 65 62 66 72 78 88 87 86 90 94 91 55 45 45 46 89 73 73 96 95 91 94 92 91 96 94 94 89 86 69 104 84 92 89 83 68 72 76 76 61 64 85 91 87 99 101 97 97 82 82 87 64 62 84 65 73 82 88 87 88 89 92 95 71 64 56 106 101 93 90 101 93 89 82 96 94 73 73 114 84 80 86 80 66 63 76 75 88 86 82 85 76 57 64 72 105 
30 29 30 31 31 29 26 26 26 26 25 25 29 30 30 30 31 31 30 30 60 87 92 56 53 81 85 47 50 57 96 87 97 100 82 72 74 62 71 43 33 30 35 35 35 32 33 37 38 42 40 38 35 61 82 85 67 58 47 47 45 32 30 30 31 29 29 27 27 27 26 27 26 32 32 29 26 33 52 41 30 26 26 28 28 88 91 44 41 31 29 34 35 54 55 55 68 67 55 67 40 41 67 76 123 116 62 42 42 36 37 36 41 41 33 33 33 34 35 34 34 32 35 35 34 33 38 40 37 39 40 32 36 33 55 109 107 109 115 99 74 95 84 77 85 108 76 73 97 96 90 88 105 97 77 80 89 95 41 41 39 36 37 39 39 37 38 37 37 36 35 35 38 34 39 39 35 35 36 37 36 37 36 36 38 38 47 50 57 86 87 44 41 45 42 47 35 32 35 38 36 36 36 36 36 36 36 36 36 39 39 36 36 39 39 35 37 34 35 34 37 38 39 37 40 37 39 41 39 37 37 37 40 41 41 39 35 34 36 75 86 84 76 68 53 52 75 32 38 33 39 39 37 34 30 58 72 43 45 38 36 44 67 50 78 75 44 43 34 45 88 94 45 34 37 36 40 41 39 41 42 40 41 41 42 41 40 40 41 38 38 39 41 41 38 35 37 37 53 50 42 40 41 41 40 50 53 52 59 98 95 100 103 105 107 107 106 102 97 99 98 98 95 94 80 83 86 69 77 80 84 82 69 63 83 97 96 93 72 73 79 78 81 79 83 65 61 60 62 60 49 40 47 59 78 86 101 79 89 87 75 74 76 88 92 93 88 105 95 94 93 91 107 90 95 106 84 77 73 84 75 86 87 111 102 54 59 59 85 83 86 87 90 90 92 88 48 45 44 100 89 81 72 98 98 90 93 87 81 75 94 96 68 65 68 70 72 93 95 69 71 74 76 74 59 62 91 95 78 68 66 79 92 75 76 80 60 64 78 68 68 94 90 93 73 73 101 92 90 95 107 107 108 92 94 94 98 86 99 94 58 68 118 110 79 84 85 86 72 63 67 78 86 84 84 90 100 93 87 96 104 
45 33 28 29 31 27 26 26 26 24 24 24 28 30 30 30 31 32 32 32 39 46 44 42 74 78 48 58 73 85 81 53 64 55 83 97 103 73 63 63 43 28 32 34 30 30 32 33 50 49 41 30 32 137 132 75 65 66 51 48 36 29 30 31 30 29 29 27 27 27 27 27 26 32 31 27 27 29 32 33 36 29 30 27 26 122 100 40 34 37 33 42 40 59 61 68 66 65 56 58 37 42 75 78 69 98 64 45 40 35 38 35 43 44 31 30 30 34 34 33 31 31 33 36 31 30 37 39 41 37 36 33 37 124 117 110 106 112 100 95 55 66 34 34 34 34 37 48 92 98 99 106 106 100 53 48 56 48 42 37 38 38 38 38 39 37 36 37 38 41 41 39 34 34 35 36 34 34 35 36 35 36 36 35 32 39 46 46 51 84 69 58 49 41 40 33 36 37 34 33 37 36 36 36 36 36 36 37 38 38 38 36 36 37 36 36 34 34 37 38 37 39 37 36 39 39 34 37 40 37 37 40 40 44 45 40 35 45 55 96 91 91 66 58 56 89 86 56 51 53 87 64 33 38 40 51 70 64 55 85 51 88 70 73 81 68 54 38 67 57 73 47 35 36 40 40 41 34 34 40 37 41 42 44 33 36 35 41 39 39 37 38 39 38 36 33 35 38 52 48 41 39 39 36 71 84 91 96 104 105 97 98 102 104 107 108 107 101 100 99 91 103 103 104 80 87 89 76 74 72 84 84 89 87 84 94 92 80 66 65 81 90 89 76 97 89 83 82 91 92 84 83 47 81 88 93 101 100 97 88 77 81 89 94 92 79 79 84 94 93 93 98 121 112 102 57 58 67 86 72 69 102 96 117 120 62 62 59 88 80 82 88 73 71 68 77 47 42 45 105 98 70 73 97 100 109 85 69 73 104 101 106 67 61 74 70 75 74 71 70 74 73 64 62 59 58 89 88 70 69 70 69 102 103 73 64 71 72 64 73 84 92 91 78 77 80 83 89 87 100 106 107 103 107 92 94 95 70 91 87 62 68 116 122 82 83 88 83 88 87 81 92 88 87 99 101 98 97 84 84 96 
62 57 31 29 29 25 27 26 26 26 24 25 26 26 29 29 32 33 32 32 36 36 33 28 32 50 50 51 85 87 65 55 56 45 35 103 116 124 63 68 65 51 32 30 27 24 43 40 39 53 39 29 148 122 130 102 62 56 44 38 32 30 32 33 32 32 31 28 28 28 27 27 27 27 28 29 30 34 33 32 33 34 32 24 27 119 101 39 35 32 31 42 39 58 72 73 65 55 67 61 49 47 77 83 63 78 54 43 39 33 31 41 40 34 30 30 30 30 31 32 31 29 33 31 33 31 38 40 39 91 116 121 126 127 115 120 114 115 70 56 42 47 35 31 37 35 37 55 65 67 108 107 99 66 48 50 46 46 44 39 38 36 38 38 34 34 35 36 37 40 40 40 36 33 37 35 34 34 35 35 35 34 33 33 32 31 36 38 36 33 52 62 58 42 39 33 35 38 36 34 37 36 36 36 36 37 37 37 38 32 31 37 37 32 32 38 36 41 38 39 37 37 36 41 37 38 34 37 39 40 47 50 72 47 85 82 79 75 68 99 93 93 83 76 67 93 95 73 92 96 90 88 71 41 55 61 74 73 66 97 94 105 102 92 89 91 87 84 77 70 71 50 38 46 55 56 51 34 35 38 40 37 37 37 36 34 38 37 40 39 39 38 36 35 38 38 35 58 152 94 40 36 65 65 80 87 92 91 105 104 100 97 100 102 101 100 99 100 105 108 106 91 97 107 110 90 88 94 73 72 85 98 95 93 83 87 93 68 69 68 73 92 101 95 93 91 81 80 85 88 87 84 81 95 97 95 96 93 97 105 85 83 88 92 92 73 77 85 84 92 137 131 103 114 112 63 54 69 87 80 82 103 108 116 129 88 61 65 92 79 79 89 70 78 75 61 60 58 65 105 96 105 72 92 106 104 104 73 70 125 127 121 81 81 76 85 84 67 70 75 76 71 62 62 64 65 68 91 97 74 62 66 89 96 56 60 74 74 66 94 95 90 94 84 77 79 73 55 57 88 100 78 108 104 104 46 47 53 67 72 75 80 100 74 77 77 82 85 82 97 97 91 89 89 99 102 97 92 86 88 97 
66 57 31 30 30 24 25 27 27 28 28 26 25 25 28 27 32 31 31 33 39 38 32 28 30 48 45 43 54 56 60 69 74 41 42 35 123 120 57 64 61 61 53 73 68 58 50 46 56 57 46 164 173 140 96 74 59 62 51 43 35 34 33 34 33 32 30 31 28 28 30 28 26 26 27 29 32 33 34 32 33 36 37 34 29 75 87 75 36 28 31 34 36 53 60 79 74 58 62 60 44 40 40 52 60 71 66 39 36 38 36 36 32 33 32 29 30 30 30 30 30 33 33 31 33 39 39 39 39 109 117 129 98 115 107 121 77 60 38 38 36 41 38 44 34 31 77 73 62 67 74 50 54 53 54 46 44 40 34 35 36 35 35 36 36 34 35 38 38 39 39 38 36 35 35 36 33 33 34 35 34 33 33 32 32 31 34 40 37 38 33 53 59 37 38 36 36 34 36 46 38 38 38 36 36 37 37 37 36 34 33 36 38 33 34 40 41 41 35 36 36 36 41 49 39 35 83 83 81 72 82 89 83 80 75 77 76 73 72 88 97 90 84 75 71 90 91 76 91 97 89 76 80 80 86 72 91 83 99 99 104 102 98 89 87 91 90 78 74 79 83 78 63 52 51 56 68 64 54 51 63 34 33 33 68 66 64 41 45 49 49 48 37 38 49 56 104 138 142 71 34 58 61 76 84 82 88 94 101 101 98 99 98 100 101 100 99 100 107 111 106 96 94 106 105 92 88 108 110 109 109 98 95 97 102 100 99 74 63 83 102 104 88 96 102 97 82 81 86 89 86 84 90 89 97 95 89 78 97 100 93 78 57 57 54 55 49 62 53 49 142 130 108 116 117 109 98 111 97 86 83 82 76 105 85 90 100 100 96 81 74 93 90 88 81 68 71 62 69 80 104 84 84 100 95 93 72 74 73 128 123 119 93 83 73 66 81 76 77 72 58 54 60 65 74 71 75 90 92 88 60 65 63 57 59 63 65 70 90 91 92 94 103 86 75 87 61 50 60 72 64 42 46 61 58 56 52 59 67 68 99 93 111 74 70 79 90 81 81 86 100 99 89 89 96 89 91 96 92 90 78 
46 50 29 30 30 26 32 48 30 30 37 32 25 25 24 29 30 30 30 33 39 38 29 29 32 29 28 35 59 62 48 44 74 64 39 50 63 113 83 58 58 62 77 72 72 57 53 52 54 158 168 164 165 156 130 77 60 61 50 38 35 34 32 32 34 34 34 32 30 29 29 30 33 32 30 31 31 31 32 31 35 37 36 34 35 29 55 84 96 29 30 30 35 56 61 61 72 56 60 58 36 37 38 54 61 83 78 34 36 38 38 29 33 33 34 41 34 29 30 30 30 33 34 32 35 36 35 37 37 33 116 116 75 99 106 88 39 42 39 36 38 37 41 40 55 71 72 77 79 69 68 34 34 34 32 35 38 36 33 36 37 36 36 35 36 37 37 38 38 39 40 39 37 35 34 32 33 33 33 33 33 33 32 31 31 37 36 40 38 36 34 37 38 38 38 38 36 36 54 50 41 42 39 37 37 37 37 37 35 38 40 35 35 42 41 41 41 38 37 35 46 46 67 53 89 71 72 78 77 79 83 89 78 76 72 65 61 67 66 82 74 76 74 75 89 84 89 93 90 90 90 81 80 83 89 90 101 104 102 99 100 92 101 86 86 88 83 71 79 84 74 70 69 56 55 70 72 66 58 59 66 66 73 62 60 64 61 49 47 49 48 44 41 44 53 50 51 52 61 78 73 51 50 76 87 94 99 100 99 95 96 94 97 97 102 103 101 102 110 110 106 100 102 101 96 91 105 110 108 109 107 105 105 102 103 100 96 94 91 93 96 103 111 97 97 98 90 88 90 91 93 98 86 86 63 89 78 82 80 100 53 43 40 43 46 50 56 59 64 62 63 98 94 113 113 77 72 108 101 83 86 75 79 70 83 84 105 98 89 87 88 96 91 87 85 74 74 77 89 95 74 90 90 99 95 88 77 72 78 91 111 109 99 87 63 66 71 80 74 72 58 55 58 68 76 64 63 88 76 82 63 65 68 58 58 67 63 70 87 93 89 106 105 38 36 44 67 67 58 53 56 50 53 46 51 73 54 101 69 73 118 129 128 91 77 101 101 87 84 53 57 94 89 90 93 86 91 95 94 83 72 
22 29 30 31 30 36 56 59 35 34 38 39 27 24 25 27 29 31 33 33 30 29 29 31 32 30 29 29 35 32 33 32 59 67 70 45 44 130 117 101 86 85 89 74 75 75 65 107 120 134 170 180 152 83 135 35 30 33 36 39 37 35 34 33 34 35 33 32 31 31 30 30 32 33 31 31 30 30 32 33 31 34 36 34 37 33 34 98 83 37 33 37 41 60 66 64 69 54 52 54 35 35 37 68 61 70 85 88 44 37 33 34 33 35 39 40 39 30 29 28 31 33 34 35 35 32 33 35 34 31 28 66 53 53 54 36 33 43 39 39 36 47 43 68 81 83 66 70 73 41 32 33 35 33 32 34 35 37 34 36 39 36 36 36 37 39 39 38 39 39 40 40 39 37 33 32 32 33 34 34 33 32 32 31 31 36 37 34 36 37 37 40 39 38 38 37 40 39 49 50 42 41 39 39 38 38 37 36 38 48 48 46 46 75 61 42 38 35 36 53 81 90 86 92 91 75 77 72 75 75 78 75 79 78 77 59 68 63 71 69 72 69 82 77 98 92 86 93 93 81 82 76 85 95 97 101 96 103 99 101 94 96 89 80 84 78 79 73 65 78 75 72 61 56 60 75 73 65 63 61 58 73 68 70 45 44 43 43 45 44 43 42 43 43 47 53 51 55 58 71 70 53 63 58 59 75 102 101 100 95 95 97 95 101 103 102 103 99 97 106 94 63 68 71 100 97 100 108 110 109 106 107 113 109 105 95 94 96 94 95 92 102 101 101 101 97 55 70 44 48 44 38 41 43 39 37 42 82 106 87 55 40 37 39 40 44 52 56 63 89 69 95 94 93 103 89 62 59 80 89 90 101 70 70 76 77 94 95 85 97 96 100 77 73 80 75 58 56 91 87 70 96 97 96 93 99 97 91 85 82 99 101 92 93 65 60 67 71 65 54 59 66 66 77 75 75 65 60 62 57 56 65 56 63 59 64 71 70 74 67 74 87 40 45 39 46 81 84 59 73 81 80 73 45 46 88 98 96 86 79 87 114 93 89 93 110 72 69 61 57 64 57 90 90 93 76 82 96 98 85 103 
19 37 27 53 44 43 62 66 39 45 47 38 25 25 24 32 33 32 32 31 28 27 28 26 31 30 28 31 30 32 32 34 37 68 52 51 49 59 115 78 72 89 88 82 73 71 64 109 109 74 68 154 132 34 35 35 32 42 38 33 48 39 30 31 33 31 30 31 32 32 31 31 32 33 30 30 32 32 35 34 34 36 37 36 33 33 39 40 69 47 41 40 47 72 76 58 53 50 52 50 53 38 33 35 74 64 75 84 39 38 35 36 36 35 38 36 34 30 28 33 33 32 33 37 33 33 33 31 31 31 32 33 33 34 35 36 37 37 47 65 52 54 61 62 84 76 85 55 36 37 34 34 38 38 37 38 35 34 36 48 49 35 30 35 35 35 39 38 39 41 41 39 38 34 33 32 34 34 33 33 32 32 32 31 32 33 33 34 36 36 39 40 41 36 37 39 36 42 48 42 44 44 41 41 63 61 43 47 110 112 115 112 106 97 88 53 46 44 44 43 82 91 96 96 93 91 86 77 77 74 76 71 74 80 85 79 67 74 64 59 92 88 84 78 98 95 94 92 91 90 104 80 84 89 97 98 100 97 102 92 94 95 95 80 79 73 81 81 56 53 67 56 59 56 59 67 82 75 65 69 52 61 57 58 53 45 43 42 41 63 42 42 44 44 52 52 49 51 61 55 69 70 71 58 57 63 93 96 98 102 106 106 96 98 103 103 100 79 66 76 74 65 79 79 80 92 106 104 90 94 102 109 113 93 93 94 92 94 92 94 100 83 56 47 39 41 38 41 41 43 46 48 41 38 42 38 51 65 72 88 65 80 79 64 88 96 96 97 90 86 95 102 92 96 96 68 70 65 80 92 87 72 96 99 105 75 77 74 78 99 103 90 74 67 79 88 58 50 74 87 80 76 95 95 97 101 102 80 85 77 88 95 103 94 61 65 77 81 78 63 60 78 82 63 67 66 66 72 71 53 54 44 49 54 80 73 66 73 75 78 75 88 59 41 56 62 86 85 84 80 77 79 82 46 53 59 93 89 92 93 87 84 54 51 60 57 79 64 56 82 61 67 90 94 93 72 73 93 101 98 100 
47 54 50 56 59 48 57 56 42 47 47 48 39 35 32 33 27 27 28 28 27 27 27 27 28 27 28 27 31 31 38 39 39 53 60 68 65 60 70 48 56 81 86 40 38 43 75 113 95 81 77 62 45 51 36 34 46 46 40 41 70 69 33 27 29 29 29 29 32 33 31 31 30 30 30 35 34 34 35 34 34 36 38 37 34 31 39 39 57 51 56 63 53 65 68 58 55 52 51 49 43 34 30 30 89 86 87 89 37 35 34 38 36 33 33 31 34 32 30 48 36 29 31 32 33 33 34 30 31 31 32 32 34 34 35 34 36 36 71 66 58 54 51 37 42 76 78 33 32 35 39 40 38 37 38 38 39 36 36 44 49 32 33 32 33 34 37 39 42 40 40 39 37 36 34 34 30 29 30 30 31 33 32 32 31 32 33 36 37 38 38 40 37 35 36 37 36 38 42 36 41 50 88 80 62 55 54 92 91 92 106 116 110 93 92 112 105 101 44 48 59 71 91 96 97 94 92 79 76 77 98 91 77 85 85 83 79 81 76 83 96 92 88 86 101 89 91 90 88 98 95 96 85 85 96 102 96 93 90 89 93 89 91 82 95 84 79 49 55 67 63 52 57 57 66 68 70 55 57 56 68 54 56 56 58 58 57 58 62 56 53 44 45 46 52 44 42 40 57 51 75 63 64 61 56 58 65 91 101 102 102 103 102 97 92 67 75 70 62 80 80 83 86 79 83 88 92 92 96 95 98 101 105 99 95 95 59 45 39 36 36 37 39 42 39 37 50 42 38 40 52 48 90 61 76 91 100 100 91 99 98 77 83 82 90 90 94 102 82 79 77 101 104 98 75 73 75 71 82 87 84 76 83 105 96 89 77 77 76 114 108 111 70 77 85 62 49 64 84 82 76 78 108 109 97 95 74 67 69 96 89 89 97 97 62 57 59 85 78 66 70 78 76 58 64 70 71 78 82 50 50 44 44 59 73 85 69 72 75 74 71 100 92 78 83 66 74 82 90 102 83 81 75 98 53 104 95 89 93 87 88 48 55 60 63 51 57 65 85 94 97 98 90 92 93 77 73 78 88 95 85 
53 53 54 57 60 53 54 49 45 42 48 47 39 32 30 32 29 26 26 28 26 26 27 29 40 37 25 26 33 36 44 43 41 57 57 64 67 55 56 54 49 50 46 42 38 34 52 104 106 90 86 35 39 71 66 43 43 46 50 67 66 73 31 29 29 28 30 33 33 33 33 31 33 34 33 34 30 27 31 29 36 34 36 34 30 32 36 45 76 54 57 60 39 39 66 55 57 54 47 44 41 31 29 30 29 91 91 43 39 37 33 34 34 32 31 31 30 30 30 53 58 31 31 32 33 36 35 30 31 31 31 33 34 33 35 35 33 35 68 68 53 51 51 41 42 69 69 54 30 31 39 38 39 37 38 39 38 33 33 31 44 41 44 58 65 68 65 42 39 34 34 34 33 32 30 31 31 30 30 30 32 32 31 32 31 31 34 38 39 39 37 36 37 36 36 35 36 38 35 36 38 56 86 85 81 59 73 93 94 80 89 76 97 99 99 102 92 91 86 93 96 98 99 97 106 101 77 79 80 96 94 95 87 92 83 78 87 85 78 69 91 87 99 109 113 93 94 89 79 66 64 98 72 82 55 100 94 93 87 81 89 89 82 80 105 105 65 55 54 66 65 52 53 56 52 64 59 53 56 60 49 58 58 59 56 44 55 62 47 55 39 43 46 46 47 43 43 44 45 42 41 37 33 55 57 65 82 76 94 101 104 61 95 69 71 70 84 86 93 80 84 84 83 88 96 92 90 89 91 95 97 76 44 48 50 43 41 41 43 45 42 40 41 40 44 42 72 93 45 63 73 87 94 83 78 83 95 101 114 90 78 82 92 97 80 82 88 79 78 78 81 81 106 99 79 91 72 75 81 79 96 91 77 87 121 115 105 83 80 90 110 104 82 104 103 92 85 66 86 79 77 75 97 102 92 91 88 59 60 83 87 93 87 90 60 60 58 64 64 79 79 48 54 72 64 65 57 82 79 43 39 42 45 80 74 91 63 69 68 78 98 84 69 59 58 62 67 69 81 102 99 99 90 92 91 89 97 86 80 59 70 57 51 54 59 57 54 77 99 90 94 102 90 90 91 88 75 80 79 91 97 
47 48 50 54 54 51 52 48 46 45 36 30 32 34 32 29 36 40 39 37 30 28 29 29 39 36 28 32 35 33 43 43 50 62 61 57 43 46 52 53 47 45 45 46 40 31 30 49 40 54 66 40 49 75 71 42 41 38 60 68 65 60 34 35 38 32 32 32 33 33 32 32 35 35 35 31 30 27 30 29 30 30 37 37 34 33 69 67 83 77 64 54 52 40 39 39 47 42 43 43 44 36 35 34 32 72 72 55 44 44 35 34 34 34 34 30 30 29 29 52 60 31 32 31 33 35 35 30 31 31 31 32 33 33 34 34 33 35 38 42 44 48 63 66 55 53 40 41 32 31 35 37 37 32 32 33 36 35 31 34 36 36 38 59 64 68 70 45 35 36 35 35 34 33 31 30 34 35 34 32 31 32 31 30 33 35 39 40 42 38 37 35 37 41 37 37 57 46 35 34 50 51 90 84 102 100 110 74 71 86 87 83 77 100 105 87 90 86 83 96 95 98 100 103 106 105 78 79 80 96 100 79 86 99 101 88 90 89 74 72 77 79 107 110 105 100 96 96 75 69 63 58 60 52 49 52 56 80 80 77 71 78 76 104 96 86 84 72 62 62 60 55 52 46 45 59 61 62 53 51 59 55 56 57 50 50 51 49 47 44 40 39 46 51 53 41 56 47 47 40 40 35 35 35 40 73 80 71 81 77 79 67 68 68 70 84 88 85 90 100 101 98 94 94 95 94 94 94 76 47 44 39 38 38 47 42 38 40 44 45 37 39 43 50 62 72 87 77 74 67 71 96 99 96 81 68 52 111 97 108 76 85 86 95 81 82 81 80 78 88 85 86 94 102 97 97 91 84 87 67 84 100 96 110 108 117 113 92 98 93 96 101 106 103 91 94 90 65 84 87 74 73 72 86 94 91 92 55 59 75 85 83 79 69 60 58 61 69 69 61 54 56 69 67 77 44 45 59 64 50 42 40 78 76 76 97 51 56 97 96 102 78 44 53 61 65 60 76 74 71 101 74 96 75 85 63 74 58 68 60 88 84 87 103 121 128 113 109 93 99 100 89 94 93 90 93 92 77 80 98 116 
51 47 45 52 48 46 47 42 43 35 32 32 31 42 44 40 37 40 40 39 26 26 25 27 26 27 30 31 34 33 46 50 55 61 63 56 41 37 38 38 44 45 49 37 32 34 32 41 53 58 71 74 57 69 59 64 41 38 45 58 63 56 57 37 40 36 33 33 33 34 33 33 34 33 35 31 30 32 93 89 81 71 71 66 67 66 68 74 48 74 66 56 53 46 42 39 39 41 40 42 41 34 34 33 36 30 69 77 48 44 38 37 34 35 33 33 33 28 29 48 32 30 32 33 31 30 33 33 31 31 31 31 31 33 32 32 36 33 37 36 35 47 62 66 64 25 28 33 34 31 32 35 33 32 32 32 36 38 39 36 36 36 36 36 41 67 69 72 35 34 41 42 43 41 36 33 34 34 34 33 32 32 31 31 35 34 36 41 41 40 39 38 40 42 43 56 96 78 43 43 49 74 80 82 82 84 107 91 69 76 86 94 81 80 85 99 100 100 89 95 99 97 101 97 102 99 100 85 81 82 77 82 78 98 101 75 63 62 69 79 83 84 83 85 88 88 80 60 70 72 77 58 56 45 46 58 59 58 86 80 78 85 81 98 72 79 83 77 72 44 47 57 56 45 47 50 66 64 49 51 60 55 55 54 61 60 52 49 52 51 38 40 48 51 49 50 62 54 36 37 42 44 34 36 40 34 66 79 76 71 78 99 73 82 94 95 101 92 92 101 104 102 101 92 92 40 37 38 37 33 35 42 38 39 41 40 45 43 62 78 70 64 61 63 74 70 68 83 70 68 61 52 53 97 94 68 58 60 51 107 102 75 79 95 87 79 81 92 82 86 87 92 95 104 103 97 94 74 66 88 70 89 94 110 111 104 102 93 102 106 92 91 122 114 91 88 93 65 56 88 90 73 67 72 92 93 92 74 56 75 77 96 80 77 70 57 83 92 66 62 66 53 88 84 49 43 40 66 62 64 44 45 81 72 82 83 56 49 99 105 50 49 46 73 58 46 42 71 75 59 67 86 65 81 78 64 58 73 70 99 86 86 85 110 110 115 118 119 89 95 93 88 90 96 95 93 92 96 86 86 80 
46 41 48 49 44 45 43 40 39 39 36 35 37 40 44 43 30 32 32 31 27 26 25 26 27 27 30 37 34 34 36 51 49 54 54 56 52 37 37 36 37 44 46 34 32 40 51 47 66 65 68 65 52 57 62 64 41 43 58 54 51 52 55 55 55 53 48 51 52 53 52 49 52 50 56 56 59 66 78 83 79 81 51 40 40 36 38 44 38 39 52 60 59 42 40 40 36 39 55 61 48 37 36 34 37 34 76 72 48 37 32 35 34 32 34 34 33 34 30 44 30 30 31 32 30 31 33 31 31 30 30 31 31 31 30 31 37 37 36 35 35 33 34 35 27 27 35 32 31 34 32 31 33 33 32 33 39 48 49 48 36 35 36 31 36 67 67 66 35 36 41 42 42 40 36 35 32 31 32 33 33 34 34 34 34 35 34 33 34 37 40 41 38 39 39 103 108 112 106 107 97 88 81 87 85 90 90 77 83 82 87 92 94 79 85 94 92 97 97 98 99 101 85 88 100 101 93 89 85 80 77 78 98 95 81 66 61 61 62 88 83 86 83 81 87 90 70 54 63 71 78 60 55 52 61 69 65 61 66 69 82 85 78 77 75 75 52 47 52 47 48 61 64 61 49 62 62 67 67 72 66 55 53 57 61 62 55 54 53 53 52 58 74 55 48 48 66 68 40 38 40 46 38 37 41 44 50 59 73 77 91 101 98 84 86 96 99 98 86 49 48 45 41 36 34 36 38 42 41 36 36 37 46 64 74 71 64 67 72 76 72 48 50 50 50 54 63 65 96 68 62 49 60 84 95 95 96 61 71 65 97 85 80 109 102 94 90 99 96 82 87 91 89 94 102 97 109 80 79 110 106 99 87 95 108 104 103 83 84 102 86 86 82 103 88 84 64 59 73 88 79 72 63 60 68 80 90 62 61 73 79 102 94 81 80 74 101 88 66 71 71 54 79 90 41 40 47 62 60 58 64 91 93 101 97 93 71 86 95 56 53 44 78 68 61 46 41 53 54 56 52 73 57 60 71 59 57 82 82 91 93 86 79 101 101 92 108 111 124 105 111 84 84 96 88 89 95 94 97 87 60 
37 39 39 41 34 34 41 36 39 37 35 35 34 32 31 32 31 31 31 31 30 31 30 30 30 30 33 36 36 34 34 34 38 49 54 53 47 47 31 33 41 45 49 48 40 43 50 58 70 67 56 55 50 54 58 60 37 37 56 55 53 50 58 55 51 52 50 50 49 51 52 48 35 37 37 36 36 34 36 36 35 34 36 38 38 36 38 39 40 37 54 56 51 42 42 42 48 57 64 63 60 36 38 38 32 29 80 77 55 55 31 31 32 32 32 33 33 34 30 43 34 28 27 31 31 31 32 31 30 30 30 30 30 31 30 30 29 37 37 35 36 35 32 29 26 32 32 31 31 32 29 30 32 33 33 33 33 49 52 49 33 34 33 33 33 40 54 38 33 33 34 34 35 35 35 35 32 31 31 32 35 34 35 35 35 34 33 33 34 35 39 38 37 40 45 101 105 108 104 106 103 82 80 85 92 95 93 80 84 89 89 93 97 93 96 90 90 89 93 99 96 97 88 84 89 80 83 94 95 92 81 80 88 96 58 66 61 59 47 55 83 86 79 78 74 66 58 62 62 67 81 84 91 58 59 70 75 62 61 61 51 60 69 74 73 69 49 46 51 51 49 60 63 62 65 65 70 57 47 50 74 65 62 62 45 37 36 34 42 41 59 66 67 65 47 42 64 62 43 41 44 43 44 47 60 63 58 48 51 84 94 105 99 74 36 37 39 38 35 48 46 40 38 40 38 35 36 37 37 85 94 83 75 83 67 49 48 49 46 46 49 50 50 49 46 52 78 72 113 113 125 95 67 74 89 89 100 111 126 63 64 110 109 114 99 101 101 91 91 80 84 86 89 91 96 105 106 97 89 94 99 118 99 96 100 104 98 98 91 101 101 83 81 83 100 96 56 66 57 93 87 77 74 54 70 84 70 77 90 78 83 109 114 100 88 110 104 90 84 69 46 77 78 37 43 46 46 55 57 58 84 84 93 99 98 78 80 77 91 79 64 89 79 59 33 33 53 62 68 64 63 58 67 67 93 86 77 81 75 87 78 78 78 87 90 100 117 116 115 111 105 97 81 96 92 90 89 95 94 84 83 
43 37 37 38 32 32 35 36 35 33 30 30 30 33 33 32 33 31 31 30 30 30 30 30 31 32 33 34 36 35 34 33 35 59 59 31 32 52 53 37 36 46 52 49 46 68 65 66 66 70 60 61 59 48 58 63 38 33 46 51 55 64 58 48 53 53 52 52 49 44 31 33 36 37 37 35 37 35 39 39 34 34 34 35 42 40 41 42 40 40 36 46 115 109 95 42 50 55 68 64 57 41 38 35 33 46 78 73 75 81 28 32 31 31 31 33 33 32 28 49 42 28 29 31 31 33 33 29 30 30 30 30 30 30 30 30 31 33 33 33 35 35 34 36 34 32 27 24 32 29 30 31 31 33 33 29 29 30 30 30 32 33 37 39 36 38 38 33 33 33 33 31 31 33 35 35 35 33 33 34 34 34 35 35 35 35 33 33 35 58 89 93 94 70 84 103 99 93 89 90 90 82 89 85 95 96 91 88 96 98 97 95 93 78 88 86 90 92 92 85 80 83 85 78 79 79 82 96 96 89 83 89 86 78 57 51 52 43 45 101 99 91 86 74 69 62 57 62 65 61 59 86 84 80 80 78 100 62 60 45 51 58 67 65 59 51 47 42 45 53 36 38 53 40 41 43 43 38 36 34 37 39 38 38 41 38 35 35 36 35 36 35 40 43 39 41 38 38 38 40 37 36 36 35 64 67 55 33 35 31 41 50 34 34 38 41 42 39 35 35 42 40 37 35 36 64 98 91 82 82 83 59 41 43 50 47 49 48 45 44 47 49 51 50 54 56 75 74 71 126 116 116 100 82 103 114 109 103 123 105 75 109 115 98 101 107 109 89 89 96 97 87 93 93 97 110 113 77 76 96 100 113 102 90 93 91 92 97 91 83 98 84 83 76 81 109 94 63 81 97 93 83 54 52 96 87 86 79 91 91 57 56 129 103 101 97 104 66 55 38 46 51 45 39 38 45 45 56 55 55 78 67 61 62 95 84 83 84 75 54 46 76 75 38 39 33 37 65 68 80 63 63 69 63 55 83 77 69 85 84 87 77 88 87 87 104 122 106 114 96 76 88 102 101 96 95 81 80 89 65 74 
38 33 33 33 32 32 34 37 35 31 30 29 32 34 33 33 33 31 30 31 31 29 29 33 32 30 32 32 32 32 34 32 32 62 56 37 35 57 76 42 37 75 72 71 59 61 65 66 67 61 66 65 46 47 49 33 37 49 44 52 57 61 64 43 41 34 34 36 39 32 33 34 32 38 38 34 35 35 37 37 36 35 37 44 44 40 42 44 40 38 37 54 64 109 125 95 67 63 92 78 55 71 81 35 42 30 42 74 60 94 93 34 34 38 29 31 31 26 28 28 43 30 32 32 31 31 30 32 28 29 29 30 31 31 31 30 29 33 32 34 34 35 37 36 34 31 31 26 25 27 30 30 30 30 29 30 30 29 30 29 32 34 38 38 38 36 37 33 32 33 32 30 31 33 34 36 37 48 48 34 35 39 52 38 45 38 106 95 78 70 82 93 97 89 90 92 97 98 87 88 96 89 84 97 98 98 94 93 91 94 97 81 75 81 81 86 87 91 87 94 79 78 79 84 76 79 76 92 98 90 90 87 84 67 76 66 63 58 54 92 103 93 80 61 58 57 64 42 62 60 62 56 86 59 43 105 90 56 61 42 39 74 74 63 59 46 43 43 41 36 35 35 36 34 33 44 40 38 34 35 37 39 39 34 34 35 37 34 35 35 35 35 37 36 36 36 36 37 36 37 37 37 36 36 38 38 38 42 34 33 38 37 36 31 39 41 41 39 35 35 36 48 96 92 91 82 84 91 74 46 39 42 45 49 48 47 47 48 48 50 51 52 85 70 57 77 63 64 79 101 116 102 79 112 107 104 108 104 104 95 90 120 125 129 101 119 116 92 92 99 94 99 101 108 110 88 83 75 70 89 98 94 113 91 90 88 85 65 67 99 100 104 81 83 91 82 96 64 73 63 89 65 59 70 69 75 52 52 89 87 65 64 65 85 68 58 60 61 60 35 41 58 41 44 39 38 46 55 46 44 58 59 54 56 85 89 89 65 71 55 60 50 35 40 45 39 50 58 58 79 82 68 69 66 66 60 64 59 80 87 76 70 94 91 91 96 110 110 108 68 76 90 103 102 95 93 94 77 72 67 46 
36 33 32 32 32 31 31 36 38 32 31 30 32 34 34 34 33 32 31 32 32 29 29 32 29 32 31 32 33 33 33 29 30 74 83 57 73 91 86 70 72 72 77 70 56 60 68 72 68 69 55 55 48 53 50 34 35 51 53 60 61 62 62 40 39 34 32 34 36 34 32 33 38 38 38 40 61 59 50 53 40 40 47 41 41 48 51 54 53 54 55 53 57 110 137 132 112 90 85 80 80 82 87 48 43 35 80 74 34 30 75 69 41 41 28 31 32 29 30 34 37 58 30 33 34 31 32 31 29 28 30 30 31 29 27 25 25 26 33 33 34 35 36 37 33 30 29 26 27 27 29 29 29 29 29 30 30 29 29 29 29 31 37 36 38 35 29 31 32 31 30 30 30 30 32 33 34 34 35 33 33 45 48 50 64 75 87 82 66 77 75 86 100 92 91 96 97 99 94 98 96 86 89 93 97 90 89 92 90 89 91 82 77 76 92 90 83 85 93 91 99 102 87 88 83 80 78 92 80 82 99 97 97 77 68 69 65 62 44 42 38 35 35 35 35 36 41 40 38 60 65 54 54 62 56 60 58 50 41 41 41 67 63 55 53 37 37 41 41 33 34 35 37 36 37 36 37 39 37 34 36 37 36 33 33 35 36 35 36 35 35 36 36 35 36 35 37 37 36 37 36 37 37 36 36 40 40 36 33 37 39 36 40 37 41 41 39 45 41 43 91 86 82 86 94 97 41 53 41 42 40 42 46 50 55 53 61 81 72 69 76 90 91 70 75 80 86 90 92 94 117 131 90 80 87 89 89 108 92 93 118 119 122 121 124 112 109 110 101 96 99 90 98 106 101 90 81 75 72 111 101 100 119 114 102 87 88 65 60 71 95 93 98 84 81 86 95 103 66 66 60 63 65 74 72 68 54 56 66 76 66 64 82 71 52 46 59 57 63 50 53 76 50 41 53 40 37 49 52 44 40 50 54 61 91 88 89 77 61 71 53 36 36 37 48 64 64 60 50 75 76 81 88 106 95 53 57 73 100 97 67 71 66 87 84 102 103 110 67 71 92 98 104 99 93 94 91 82 73 58 52 
31 24 26 32 33 28 29 31 28 27 28 28 30 30 29 28 28 28 30 33 31 31 28 27 28 31 31 30 31 30 29 29 33 96 95 88 83 82 87 75 73 63 62 69 74 60 67 74 64 67 54 52 59 52 44 40 35 41 53 54 42 45 33 34 36 48 56 56 55 59 57 59 61 62 42 44 44 56 45 48 59 51 54 41 41 50 52 51 60 50 64 55 65 150 145 140 96 89 70 78 88 87 88 40 35 34 80 70 34 30 76 46 35 39 35 29 28 31 33 28 41 54 28 31 30 31 31 32 26 27 31 30 30 28 27 27 26 28 27 26 34 35 36 36 30 30 28 29 28 28 28 29 29 28 29 29 30 30 29 29 28 27 28 27 27 28 28 29 32 32 31 30 30 30 33 33 35 32 32 34 35 35 35 38 40 37 71 39 36 73 78 87 92 93 97 96 98 95 97 98 96 91 89 93 95 93 91 89 88 85 87 84 84 89 90 92 87 56 85 51 98 101 93 86 93 79 76 80 81 84 91 102 67 63 52 45 44 51 45 40 40 37 34 33 33 33 45 40 48 60 65 49 48 57 50 54 53 53 47 38 44 52 50 46 41 34 35 39 40 34 34 34 47 49 38 35 34 41 48 48 35 36 35 34 33 35 34 35 34 37 43 36 36 35 34 36 36 36 36 36 36 36 36 37 40 39 40 35 36 38 39 38 44 46 44 58 87 95 85 74 85 95 90 33 49 32 39 44 46 45 41 43 46 49 56 58 86 83 82 83 90 90 92 85 77 90 89 92 94 95 94 118 82 79 81 92 89 92 87 89 111 93 123 124 124 90 103 107 98 98 94 89 83 75 72 70 76 83 114 105 103 103 93 116 112 93 91 68 79 91 91 80 86 69 68 81 105 95 74 62 63 53 73 76 72 66 63 52 70 69 74 86 86 65 42 48 49 38 37 28 48 52 73 73 41 44 40 48 51 38 38 57 64 65 101 98 75 68 81 73 36 40 36 41 58 62 66 53 43 45 72 92 95 107 69 57 56 60 77 74 78 78 77 80 90 90 108 79 76 80 81 91 102 94 90 90 90 86 83 76 68 
26 25 24 22 27 27 27 30 28 27 27 28 28 28 28 28 27 29 37 30 29 29 33 33 65 49 33 30 29 28 36 37 88 92 96 84 83 81 77 72 69 63 61 69 69 74 82 68 61 57 55 55 63 50 45 39 47 44 48 38 39 36 32 36 34 51 54 53 56 59 63 40 71 56 38 40 42 43 45 57 55 49 44 49 46 53 45 48 44 43 61 71 94 157 148 128 111 77 73 74 83 75 36 34 37 33 65 78 39 44 56 48 29 34 38 29 29 29 30 28 46 63 30 28 32 27 30 29 26 27 27 28 28 29 35 37 32 30 26 28 30 30 30 30 30 29 29 29 29 28 28 26 29 27 29 27 26 27 27 27 27 26 26 26 26 26 28 28 32 31 31 31 31 31 32 32 35 32 31 38 37 34 35 38 41 34 36 38 38 35 35 39 38 39 42 46 49 50 49 51 48 44 45 47 48 49 51 54 53 53 51 48 47 49 50 47 45 46 52 59 70 98 99 91 77 80 77 78 96 98 95 84 84 63 49 38 39 55 82 75 84 86 82 79 62 74 83 80 72 67 70 73 52 44 38 37 35 37 37 32 41 44 44 44 37 34 35 37 36 35 36 38 45 45 40 38 38 41 46 45 41 38 38 38 39 44 43 43 41 44 43 44 36 36 39 38 36 36 36 36 36 36 36 36 38 34 32 43 70 77 73 86 87 84 76 76 88 100 102 32 32 38 38 44 43 38 36 51 43 44 43 43 46 68 88 81 86 82 85 100 99 88 86 96 97 93 81 88 100 97 109 119 86 78 81 79 91 85 88 95 94 87 81 79 88 90 100 96 103 95 99 118 80 73 65 93 75 76 108 112 75 86 84 90 108 93 78 79 90 97 92 68 63 69 75 70 79 78 75 73 56 55 79 77 73 68 56 48 49 54 63 75 84 50 50 46 57 45 34 34 38 39 72 74 58 69 61 55 52 37 37 61 65 60 75 101 85 74 68 37 36 41 44 47 47 45 56 55 62 54 96 94 99 33 47 54 55 73 75 68 73 90 88 86 68 72 75 81 85 90 87 81 78 85 79 82 81 75 85 80 61 
36 23 22 24 26 26 27 29 26 28 28 28 28 29 29 28 28 50 51 53 31 32 34 71 71 60 41 42 48 62 75 83 78 76 67 73 80 81 79 69 71 65 62 68 70 69 77 81 78 56 48 59 52 53 61 54 44 47 52 32 36 36 37 38 36 34 32 34 36 37 40 40 39 37 37 37 39 40 42 56 53 44 42 48 54 50 44 43 178 168 174 171 172 168 175 177 186 173 162 104 102 91 37 35 26 46 72 37 36 26 40 28 41 27 43 40 30 30 29 39 51 29 31 30 26 32 28 29 30 28 26 27 29 36 39 42 45 46 34 29 29 29 30 30 28 29 29 30 28 27 27 26 27 26 27 25 26 26 27 27 27 27 26 26 26 27 28 27 31 32 31 31 31 32 33 31 30 34 37 36 38 37 37 42 37 37 36 39 39 37 39 41 37 33 39 47 46 47 50 54 44 41 39 41 41 42 44 55 55 53 50 47 46 46 48 45 45 42 38 55 94 85 94 84 76 69 87 85 99 99 99 91 87 73 67 72 67 94 93 82 93 91 88 86 73 77 78 82 62 64 74 70 55 41 38 39 37 33 36 39 29 30 36 37 40 37 37 35 34 33 36 37 37 33 31 32 33 33 34 35 34 37 36 35 34 36 36 36 41 44 44 44 35 34 35 38 35 35 35 35 35 35 35 35 37 33 35 45 66 73 73 85 89 92 86 40 39 32 38 40 41 40 37 62 62 52 42 51 49 48 83 95 97 93 86 83 85 83 84 99 100 87 85 97 97 91 95 92 107 112 115 116 118 93 78 80 125 122 124 96 98 96 80 82 79 99 105 97 102 97 116 110 120 82 82 106 112 78 80 76 77 77 93 96 85 86 79 81 91 89 84 56 60 66 100 100 69 74 77 71 63 62 76 75 74 74 48 42 45 59 71 65 73 73 60 76 78 77 44 56 58 67 71 46 61 79 74 51 55 51 47 46 64 64 94 92 101 95 51 46 35 36 31 44 40 42 48 67 64 72 89 87 51 50 43 60 57 69 72 71 74 93 94 77 78 73 92 85 85 87 83 80 69 75 79 81 78 77 77 51 51 
47 36 25 25 26 26 27 29 27 26 27 28 28 27 28 26 30 55 56 55 48 36 68 71 74 56 53 54 60 61 70 80 83 62 66 67 87 82 78 72 65 66 79 76 62 58 66 79 70 44 52 62 63 56 57 56 49 58 61 37 37 37 42 35 36 31 33 35 36 35 42 46 37 40 38 38 38 40 41 45 46 39 45 42 48 169 163 149 151 175 149 156 168 159 177 178 178 165 156 103 102 101 116 30 34 44 48 51 31 40 38 33 28 46 75 79 67 24 28 34 63 33 34 33 30 30 30 30 30 28 26 24 23 25 41 42 45 43 42 38 31 31 32 32 28 28 28 28 28 27 26 25 25 25 26 25 25 25 25 26 26 27 27 26 26 27 28 27 25 25 25 25 25 25 25 28 26 35 36 30 30 33 35 36 37 35 32 33 37 33 48 45 35 34 38 42 45 45 45 43 43 41 41 41 40 42 42 41 34 33 47 49 48 49 44 46 55 102 118 137 146 128 119 75 83 92 86 84 105 106 100 95 82 72 71 69 90 89 93 97 95 89 87 85 86 80 79 66 66 64 68 71 45 42 42 37 35 35 35 38 28 31 43 39 39 38 37 35 34 35 34 35 36 34 33 32 34 35 36 35 36 35 35 32 33 35 36 34 37 36 39 36 34 34 34 35 35 35 35 35 35 35 35 35 37 37 38 39 36 36 36 33 32 35 39 43 42 36 36 54 36 58 56 63 63 63 65 76 83 81 85 92 95 94 83 80 78 89 89 86 84 90 91 88 87 85 91 90 78 120 111 118 115 108 101 99 109 126 114 103 93 94 92 89 85 94 102 105 85 88 107 100 126 117 125 112 109 101 74 73 76 76 96 93 86 80 94 81 78 75 83 99 59 56 108 102 101 80 90 88 66 65 60 70 81 94 91 53 63 84 74 73 79 105 79 80 83 49 54 46 65 70 56 51 46 85 85 62 53 49 48 51 74 92 92 85 97 84 62 74 39 33 35 41 41 43 40 49 71 75 82 70 52 73 74 66 69 68 77 90 83 84 88 84 76 87 93 90 81 82 78 60 70 74 88 92 87 81 82 61 33 
46 36 26 26 28 27 29 29 31 30 33 35 38 42 48 51 58 63 63 68 74 74 78 75 64 48 51 58 60 52 54 60 71 59 65 65 70 84 70 69 64 62 79 77 54 52 54 62 55 47 52 67 58 55 56 58 65 65 59 53 43 43 44 43 37 37 35 36 38 40 43 43 45 40 38 37 49 51 126 172 134 172 159 150 146 148 160 125 120 113 162 159 159 140 129 104 143 97 79 96 106 104 120 117 70 49 37 43 39 38 35 35 28 27 41 32 36 35 34 66 47 29 32 32 31 31 31 30 28 28 25 24 25 27 27 29 34 40 42 41 33 31 32 31 28 28 27 27 27 27 27 27 25 25 25 25 25 25 25 25 27 26 27 27 27 27 27 27 25 25 25 26 26 25 25 25 26 29 30 31 28 34 34 37 37 36 33 31 38 51 146 181 170 56 37 36 37 35 35 67 40 45 43 38 38 38 39 36 36 34 37 40 41 45 44 53 51 53 99 164 121 123 116 96 97 97 83 86 94 101 83 89 96 101 68 70 92 93 95 94 95 89 83 88 87 90 76 44 40 41 47 48 42 45 43 40 56 53 43 40 34 43 46 38 38 39 40 41 36 33 34 34 35 35 33 34 35 36 35 35 33 34 34 33 33 34 34 34 34 34 33 34 35 33 34 34 35 35 35 35 35 35 35 35 34 37 35 35 36 38 38 30 32 33 42 51 55 61 63 67 53 55 58 63 64 65 74 80 78 81 87 91 85 85 87 86 81 87 86 83 85 87 90 86 84 100 96 84 84 94 98 107 98 100 93 91 84 83 94 106 93 92 92 94 82 86 102 105 91 91 89 94 95 123 116 118 96 101 98 72 76 91 100 98 107 102 96 75 74 69 104 97 64 66 84 86 98 80 86 84 84 62 63 65 72 96 95 87 81 82 85 85 107 100 88 87 75 59 53 57 62 61 59 56 52 80 81 76 36 37 43 39 97 92 79 84 61 53 76 78 52 52 45 55 56 52 40 42 68 65 55 63 62 72 70 69 69 73 87 94 44 54 61 83 94 90 92 84 76 75 76 71 66 86 89 92 76 80 83 85 81 
36 26 26 25 29 29 29 31 26 27 31 31 37 44 52 57 58 65 66 71 65 72 79 78 48 47 46 53 52 50 52 58 53 52 60 58 61 71 69 67 64 62 64 49 54 58 60 52 68 64 54 51 61 52 51 57 63 65 65 65 63 48 48 43 59 145 184 182 183 188 184 181 172 171 169 168 151 137 138 148 153 145 146 127 129 117 108 140 134 79 75 72 84 87 114 80 76 69 93 69 86 126 130 128 52 46 43 39 34 34 37 37 35 27 26 39 43 44 50 63 35 37 29 28 31 29 31 31 28 27 26 26 26 28 26 28 30 33 40 39 34 29 28 29 28 28 27 27 27 27 27 27 25 25 25 25 26 25 25 25 26 27 27 28 28 28 27 27 25 24 25 25 27 27 24 25 28 29 29 31 32 31 31 34 33 30 34 32 34 47 148 156 141 140 151 155 155 148 145 140 125 120 107 102 99 98 92 96 39 39 35 82 78 64 58 55 50 38 42 49 62 93 107 110 92 94 96 85 92 105 81 85 104 99 82 84 86 77 67 69 83 55 51 79 92 86 77 40 36 38 49 51 50 54 58 60 52 56 42 45 45 40 35 34 35 42 45 43 42 37 38 35 34 33 34 35 36 37 35 34 34 34 35 32 32 35 35 33 34 34 34 34 35 35 34 34 35 35 35 35 35 35 35 35 36 38 36 36 34 37 35 39 39 48 48 48 50 65 62 64 63 73 69 68 70 73 72 80 80 88 87 89 84 84 84 85 93 93 77 85 84 84 87 85 93 96 95 98 92 109 111 96 122 92 96 90 88 84 82 108 112 90 88 85 97 110 102 94 96 90 87 85 92 109 83 96 101 95 101 72 74 73 79 110 106 104 98 78 77 79 87 93 86 84 83 77 95 99 82 78 77 71 91 85 81 76 75 88 88 69 86 73 88 94 55 49 76 70 72 92 55 62 55 62 44 47 45 46 39 38 40 37 72 95 88 66 76 59 54 79 80 83 60 56 54 53 47 43 69 60 62 57 56 56 63 71 69 69 73 75 58 44 76 78 92 78 80 74 65 67 73 79 78 86 82 89 82 79 83 85 95 
25 26 28 28 28 31 30 27 26 26 34 32 33 39 39 30 30 44 61 60 64 72 75 58 55 57 62 63 47 49 59 71 52 61 59 58 64 69 58 66 63 64 66 43 56 60 62 55 66 56 47 54 55 51 54 47 46 54 61 71 67 54 145 185 177 166 160 169 179 184 186 177 168 166 173 179 107 114 112 100 172 128 108 133 131 126 95 98 74 80 81 74 100 98 77 68 81 51 57 58 109 130 119 138 146 52 49 70 31 31 36 37 33 28 26 30 60 59 82 32 35 33 33 30 30 30 29 30 28 28 28 28 28 27 33 32 32 32 31 31 30 29 29 29 27 27 27 27 27 27 27 27 27 27 26 27 27 27 27 27 27 28 28 29 29 28 28 27 28 29 29 29 29 27 27 27 29 29 29 30 31 31 32 33 33 29 35 39 34 31 39 40 66 151 157 143 144 150 140 136 129 114 109 110 104 99 102 106 97 84 74 81 76 49 38 43 44 38 34 62 70 103 106 93 92 93 98 116 111 87 87 87 91 92 92 82 79 68 70 69 74 48 47 49 42 42 45 41 39 41 49 55 57 59 65 65 59 44 46 42 51 38 38 34 34 48 66 60 57 51 37 33 34 34 35 34 35 36 35 34 35 37 33 32 33 35 35 33 34 34 35 34 35 35 34 34 36 34 33 33 34 34 35 35 36 40 40 33 34 34 36 35 39 43 48 53 65 66 66 74 79 56 70 76 73 73 75 89 89 84 88 88 87 87 87 88 90 83 82 78 79 95 95 87 91 86 94 90 99 98 110 118 118 116 89 84 85 83 87 103 108 92 82 89 94 102 100 107 109 89 84 89 89 70 68 92 94 93 81 84 73 77 81 94 107 98 99 94 81 86 81 82 87 87 74 73 95 93 92 72 72 86 80 90 82 76 78 63 71 81 70 67 64 78 51 52 60 68 74 83 71 63 53 41 42 46 40 37 52 42 45 39 81 80 92 96 64 57 56 84 73 91 83 58 55 57 46 47 69 76 65 66 55 54 62 63 79 77 80 70 72 86 89 104 88 88 78 74 63 59 104 80 86 83 84 86 83 84 86 68 52 
36 27 30 30 29 27 26 23 36 41 34 37 54 59 55 26 28 38 55 61 66 66 66 67 64 62 64 67 66 66 78 73 63 65 64 67 65 47 45 46 52 62 66 46 44 62 58 54 48 51 45 44 43 44 49 47 42 46 142 174 158 145 151 164 184 180 117 117 139 175 171 168 120 140 94 97 99 111 116 77 76 75 75 75 106 112 105 91 76 83 82 84 99 97 68 59 50 42 52 45 58 106 151 149 156 54 55 68 43 30 32 29 34 33 32 35 51 70 57 48 34 34 43 47 54 53 53 49 43 40 40 39 32 29 33 32 32 32 31 27 28 29 29 30 27 27 27 27 28 27 27 27 27 26 27 27 27 27 27 27 28 29 29 29 30 29 28 28 29 28 29 28 29 29 30 29 29 31 31 29 32 31 32 34 33 37 37 33 35 37 45 49 46 52 64 142 143 143 140 136 130 116 110 107 105 103 103 103 103 61 50 52 48 51 46 41 39 40 83 85 81 76 107 111 96 109 113 113 120 86 87 89 91 77 81 64 65 65 68 73 71 48 45 45 40 37 40 41 48 50 58 63 62 74 68 70 54 56 42 58 40 38 35 50 49 57 64 69 37 35 35 33 33 36 35 35 33 34 35 34 35 37 39 33 31 33 33 33 37 35 35 35 35 34 34 35 35 36 38 48 49 47 39 36 39 39 39 34 34 33 36 35 44 42 52 51 67 71 61 63 74 70 65 82 87 87 84 89 88 89 92 88 86 85 85 90 92 84 79 92 89 85 86 94 85 83 111 98 98 95 86 101 96 114 118 92 98 99 94 82 87 98 94 93 88 87 103 103 112 105 105 88 90 89 67 63 64 66 71 77 77 77 83 91 103 90 90 92 89 82 84 82 86 85 71 66 91 90 87 71 89 87 85 96 84 74 68 68 82 80 77 72 60 64 67 59 58 76 74 69 63 68 75 39 37 43 41 38 52 54 49 42 59 68 94 79 75 68 74 87 86 66 43 41 50 54 44 43 75 73 72 65 63 85 93 66 71 80 79 63 68 86 68 75 95 89 92 88 75 76 92 99 86 86 85 89 64 71 72 69 43 
32 27 27 32 32 26 26 27 33 44 40 42 61 67 64 61 80 78 88 65 80 65 68 73 84 61 64 69 71 66 76 74 61 63 69 68 58 45 44 47 50 60 44 45 59 69 60 40 39 54 57 76 76 68 56 85 149 144 138 163 164 112 112 110 104 107 110 108 105 93 93 97 98 88 80 105 105 93 92 76 74 71 66 65 71 58 67 73 92 84 81 85 89 97 95 61 49 39 40 41 48 60 163 174 169 50 51 65 65 49 39 28 31 32 40 102 91 82 64 57 58 63 62 49 49 53 53 54 47 48 46 43 35 32 31 33 32 33 29 27 26 28 30 29 27 27 27 27 28 28 28 27 27 27 27 27 27 27 27 28 28 29 29 30 30 29 28 29 30 31 31 29 31 30 30 30 31 31 30 32 33 34 35 34 33 36 35 37 63 62 62 51 47 59 77 86 83 86 90 89 86 85 84 83 77 82 88 83 97 49 55 51 41 38 93 93 84 71 78 85 87 82 111 112 111 104 110 111 90 81 84 87 86 77 76 65 70 68 65 66 70 54 51 50 37 38 39 40 46 52 54 59 65 70 73 60 58 52 48 63 63 58 46 47 35 39 41 42 37 36 38 39 34 35 35 34 34 31 34 34 34 39 43 42 45 34 36 35 37 37 37 37 40 40 40 38 35 34 40 47 47 47 35 35 38 40 39 34 34 35 35 34 45 46 52 51 67 67 66 61 92 94 91 93 86 88 86 84 88 94 93 91 83 83 83 82 92 91 86 87 91 88 89 90 94 106 110 113 117 95 82 89 96 115 115 81 101 100 89 81 88 90 79 84 86 85 103 104 105 104 107 99 102 98 78 62 64 71 79 82 77 71 96 92 87 85 72 64 68 65 81 84 80 67 65 68 86 87 78 83 71 92 105 81 81 80 71 80 90 76 68 64 61 63 69 65 55 84 75 68 52 81 74 47 38 42 44 41 41 43 52 65 53 46 60 49 70 61 81 86 86 75 38 44 43 53 47 49 48 63 72 61 60 97 91 93 74 77 89 74 82 76 51 62 60 92 70 57 54 52 48 59 72 65 61 62 66 77 73 74 90 
26 28 29 28 30 29 29 29 41 79 81 58 72 66 66 64 75 83 85 88 86 65 64 86 88 69 68 71 70 61 58 65 58 59 68 73 41 47 51 50 44 48 45 46 69 66 61 44 59 61 60 80 77 69 74 125 146 126 88 94 99 109 114 99 102 106 109 110 101 99 100 97 97 84 87 90 93 90 89 86 71 69 70 70 68 63 57 104 94 74 76 93 90 92 50 41 43 43 40 34 64 80 74 163 151 71 48 42 48 135 153 154 147 118 103 96 87 84 69 50 50 55 65 58 49 52 53 48 82 75 67 56 38 31 31 33 32 31 29 26 26 27 29 29 26 26 26 26 26 26 26 27 27 27 27 27 27 28 28 28 29 28 30 30 30 29 28 29 31 31 31 32 32 32 33 31 31 31 32 33 33 34 35 35 36 34 34 48 55 61 60 60 101 88 78 78 82 86 84 85 83 85 84 83 74 70 91 87 54 57 49 79 73 91 102 101 96 72 75 87 86 96 109 110 104 108 94 103 92 76 69 66 84 76 80 69 66 68 64 65 60 50 52 49 40 39 37 39 42 36 39 39 46 74 72 40 54 49 52 58 63 48 45 36 37 36 41 40 37 37 38 39 43 33 34 33 48 46 46 39 43 41 40 43 46 45 37 34 33 35 37 39 40 40 40 38 36 36 36 33 33 33 35 34 35 35 34 34 35 36 36 32 30 40 42 50 60 65 92 88 88 88 87 97 98 85 85 87 89 94 94 88 84 82 82 83 83 92 93 91 85 85 88 77 79 87 112 113 112 111 113 108 112 82 90 82 85 88 76 90 86 86 76 77 91 92 101 101 104 101 93 94 103 102 84 86 98 98 94 90 83 74 95 96 87 82 79 63 59 78 85 81 73 67 64 71 78 65 60 63 68 108 94 82 78 71 41 57 85 85 63 57 72 69 49 50 52 59 80 65 72 73 71 59 83 59 47 48 41 43 47 64 43 46 42 48 44 47 55 74 78 73 51 43 39 100 98 47 51 59 75 60 69 76 97 94 92 94 65 82 81 59 48 47 64 71 57 56 55 50 48 42 60 58 62 62 68 79 77 71 72 
28 39 43 30 33 31 29 33 49 82 81 72 85 83 67 68 72 69 83 94 90 62 63 85 87 75 74 75 70 60 59 59 59 56 67 69 42 44 51 54 45 45 45 43 53 51 45 46 59 63 58 66 84 86 75 63 112 113 101 94 108 107 105 100 100 92 96 99 108 109 97 95 89 94 100 106 116 131 135 87 81 115 110 71 82 87 93 94 74 63 85 91 99 49 47 49 43 41 45 66 88 91 65 91 93 105 121 35 61 130 161 167 160 109 92 94 81 71 70 68 46 76 83 78 70 62 63 74 76 82 74 37 33 33 33 30 30 30 31 31 30 29 28 27 26 26 26 26 26 26 27 27 28 28 28 28 27 28 28 28 30 30 32 31 32 30 29 30 30 31 31 32 32 33 33 33 32 31 32 32 33 34 35 34 36 33 34 36 47 53 53 100 86 99 59 40 38 48 85 82 64 74 80 95 93 96 103 85 66 58 79 84 79 106 100 99 92 95 105 91 92 90 93 102 107 96 94 91 90 80 76 67 67 80 66 61 66 66 70 72 55 44 41 40 40 40 39 39 38 39 39 35 33 39 40 37 36 38 52 47 47 46 45 38 37 36 39 37 36 36 42 45 42 43 36 43 45 48 46 42 46 43 42 47 46 37 36 36 32 33 34 39 40 38 42 41 36 36 34 34 34 35 35 36 34 34 34 34 34 38 35 32 34 38 44 50 87 89 85 89 88 90 88 95 97 82 78 88 92 91 93 89 90 89 88 83 84 82 86 91 89 82 81 84 79 82 102 98 104 100 95 96 94 120 99 95 99 95 88 75 66 75 75 91 91 91 96 100 102 88 80 84 89 87 81 95 100 98 97 89 80 73 55 55 64 72 68 63 76 98 71 77 81 78 96 106 99 64 60 65 68 65 84 82 78 40 44 35 79 81 77 62 74 71 41 46 59 53 58 40 59 63 75 85 82 80 53 56 48 73 69 72 48 49 47 56 45 46 51 69 76 82 87 86 70 81 85 82 77 82 82 88 100 75 88 68 60 86 77 70 48 54 63 59 90 88 54 53 51 48 45 53 60 64 64 64 71 71 83 86 58 
29 44 46 35 51 62 53 49 56 72 83 76 82 84 67 66 68 65 66 82 75 57 60 56 84 74 75 76 77 61 59 57 60 68 69 48 42 43 54 50 45 43 45 46 56 55 42 44 56 54 68 71 78 84 64 66 108 124 117 117 103 101 103 98 97 95 89 100 106 110 83 88 85 96 101 112 120 126 127 124 106 104 102 82 80 77 82 80 57 48 46 48 51 50 50 47 55 77 103 122 88 74 71 79 79 106 140 126 60 62 64 119 89 82 77 85 88 86 79 64 76 75 81 70 54 57 60 61 54 44 35 30 32 32 31 32 30 31 31 31 31 31 29 27 27 26 26 26 27 27 27 27 27 28 28 29 28 28 28 29 31 31 32 32 31 32 31 31 31 31 31 32 33 33 34 34 32 32 32 33 33 34 34 35 35 34 33 32 34 86 80 96 89 58 39 42 39 40 49 67 70 76 86 89 55 58 69 65 78 102 108 110 107 100 105 84 92 98 98 103 90 88 91 90 96 84 88 74 86 74 75 70 73 84 66 49 52 46 67 62 57 41 41 41 40 43 46 39 40 37 43 33 34 37 43 34 34 47 44 55 43 60 41 43 37 38 36 35 32 38 40 43 47 68 68 65 45 42 42 50 42 43 46 48 46 39 35 34 55 51 47 44 44 41 41 40 36 35 34 33 34 34 35 35 35 35 35 34 36 38 41 33 33 64 83 77 79 84 93 78 92 94 94 82 78 83 82 83 89 88 88 89 90 88 87 85 84 83 78 90 86 86 81 83 83 79 85 82 98 96 94 88 94 107 90 99 97 95 101 82 57 70 86 93 93 92 91 94 77 80 79 83 100 83 97 98 89 93 95 91 94 72 56 54 68 74 79 75 87 63 78 82 77 73 102 100 92 77 71 74 65 67 78 76 85 59 48 41 71 68 63 64 64 73 67 50 57 59 53 41 34 71 77 86 70 72 66 56 63 67 66 37 41 49 54 62 67 56 59 60 66 90 93 90 63 41 44 68 76 67 76 83 98 88 85 55 51 64 95 79 53 64 62 73 90 99 54 58 85 98 95 91 75 78 79 81 76 78 82 84 90 
40 45 44 50 67 54 56 67 71 82 78 85 73 67 66 68 66 67 67 73 72 69 55 52 50 57 77 78 82 80 65 55 63 67 66 46 51 43 39 49 63 39 39 42 55 61 44 43 62 58 75 78 67 73 60 110 105 118 124 120 111 104 76 81 87 83 81 88 99 98 87 82 108 105 105 115 127 129 132 130 75 56 48 61 62 49 50 45 42 45 45 46 56 66 49 52 94 79 86 111 107 74 84 88 79 105 104 139 144 50 67 91 86 75 76 83 88 84 81 73 69 76 78 66 58 50 67 99 51 45 32 32 30 31 32 32 32 31 31 31 31 30 30 29 29 30 31 32 32 32 28 29 30 31 31 31 30 30 30 31 32 31 32 32 33 32 31 31 30 30 31 32 33 33 34 34 34 35 33 33 34 36 35 36 35 37 41 60 70 88 60 39 38 36 38 41 40 38 46 88 91 93 95 71 65 55 83 88 71 107 107 107 109 102 86 79 82 72 74 92 103 102 92 94 82 85 86 72 69 72 72 74 80 85 53 50 43 46 51 47 52 42 43 42 47 58 54 48 58 59 71 71 49 51 55 53 54 51 47 68 68 64 49 46 75 75 70 63 56 48 39 44 58 67 68 66 44 43 43 50 44 44 46 54 54 43 62 62 56 49 47 48 46 43 38 34 37 35 37 38 34 32 32 35 36 36 35 33 35 45 63 78 69 80 76 76 83 53 61 67 82 94 94 86 78 80 102 102 94 87 87 97 92 89 88 91 80 83 86 81 79 86 88 82 77 85 82 78 82 92 97 91 80 81 86 96 99 89 83 60 87 97 98 91 93 93 92 67 71 77 83 98 114 124 106 90 98 87 94 92 92 79 88 97 70 74 80 75 100 69 74 73 73 78 73 67 72 68 67 81 82 70 86 87 71 72 72 50 60 64 61 62 68 67 63 34 40 55 60 38 58 57 56 71 69 67 83 89 73 59 34 36 36 43 45 59 62 61 64 60 65 85 87 85 66 40 42 84 85 75 48 40 42 81 63 65 73 76 106 105 55 54 72 80 89 98 54 56 51 105 101 70 58 66 80 80 74 76 82 77 78 
62 63 50 60 66 58 60 75 78 80 78 68 60 61 66 67 55 64 50 65 53 59 47 48 46 51 82 84 85 93 80 53 56 59 52 44 49 37 35 50 66 33 39 32 58 57 46 60 60 63 73 68 66 79 87 100 90 62 60 61 67 72 75 81 76 78 79 79 90 88 90 96 104 113 88 41 40 42 48 49 50 55 45 43 38 50 50 43 48 41 42 46 60 59 66 105 73 78 82 115 107 77 77 84 89 80 62 46 133 133 81 74 72 71 80 82 78 71 83 77 72 72 69 66 65 73 79 79 73 68 45 30 29 30 30 34 34 32 31 30 30 30 30 32 32 31 32 31 31 31 31 32 31 30 31 31 31 31 31 31 31 32 32 33 33 32 32 31 30 31 31 32 33 34 34 34 35 34 35 35 35 36 36 36 36 34 47 56 41 29 33 49 39 40 38 39 41 47 96 89 81 79 84 86 83 85 91 86 87 98 92 93 96 84 83 86 77 74 76 95 100 94 93 96 85 84 85 80 72 80 76 85 82 77 57 52 64 66 69 43 41 38 46 58 56 54 54 53 57 62 67 67 53 50 58 53 67 51 64 65 72 57 44 58 71 79 73 57 52 51 50 55 53 45 47 41 45 46 49 53 44 35 34 50 70 68 61 61 67 53 46 44 52 52 45 36 47 49 47 39 33 33 33 35 33 33 33 33 36 47 84 82 72 72 77 61 55 51 53 76 82 75 70 89 95 96 99 101 104 94 100 102 101 90 96 94 90 82 82 77 82 76 86 75 65 62 83 89 92 93 96 88 89 86 88 93 92 61 72 69 59 95 106 81 90 92 93 81 72 75 78 72 118 119 108 103 101 78 84 82 80 83 103 95 77 70 62 89 95 104 76 76 88 94 69 72 75 65 72 93 98 46 44 82 82 71 70 40 32 67 64 67 73 52 47 49 53 61 54 74 61 64 56 85 81 80 89 87 60 51 37 37 33 35 33 33 81 80 87 84 72 66 83 67 71 75 69 78 86 67 51 43 49 43 51 59 70 68 62 81 89 82 84 87 88 77 49 56 54 89 89 64 65 63 83 81 73 75 78 78 75 
60 58 60 60 59 61 64 72 77 81 82 63 58 55 56 57 56 49 52 53 49 47 54 48 46 79 78 79 90 95 51 65 56 52 53 54 46 32 32 32 68 66 37 42 69 75 72 57 41 48 64 64 74 59 58 59 64 55 55 58 66 74 78 80 78 77 84 54 46 40 43 45 48 47 45 44 48 50 42 52 46 41 44 42 36 48 48 47 46 54 85 89 90 69 67 89 80 79 74 66 78 74 115 97 81 46 53 54 55 134 119 62 50 57 68 53 40 65 70 41 45 43 57 66 65 56 50 48 49 57 49 50 35 39 33 35 33 33 29 28 27 31 35 31 33 32 33 33 31 31 34 34 35 37 32 32 32 33 36 37 32 32 33 34 35 32 32 32 31 31 30 30 33 33 32 33 33 35 35 34 34 35 37 36 37 32 95 43 35 29 34 33 68 42 66 68 79 90 98 96 77 72 86 88 78 77 85 87 85 93 94 97 87 82 92 84 82 77 81 89 94 89 93 93 89 86 90 81 78 80 85 83 77 72 49 51 74 80 53 59 54 40 58 55 61 64 74 52 46 42 45 49 66 65 61 68 66 68 69 64 62 69 55 57 55 59 63 50 44 49 81 53 46 44 47 40 41 47 46 49 50 36 54 48 63 60 52 60 66 66 48 49 54 55 34 31 41 52 48 35 33 33 36 36 33 32 44 47 43 92 94 83 81 74 81 71 53 53 54 70 93 93 76 86 101 94 97 102 94 92 101 105 93 92 90 95 82 81 80 77 76 76 71 70 71 74 82 88 96 92 94 95 96 100 103 89 89 55 57 69 72 85 95 80 90 88 92 85 87 94 79 83 85 91 85 108 89 94 78 102 93 75 85 97 85 67 92 93 91 98 52 55 53 99 98 82 84 88 81 78 90 39 44 77 82 67 67 33 42 48 69 73 77 80 48 63 58 58 75 77 70 56 73 76 50 86 73 91 91 36 37 37 36 36 29 34 74 73 92 88 71 71 61 55 72 78 64 56 60 74 80 89 40 43 54 62 43 71 50 66 87 97 91 90 98 85 80 49 91 84 78 93 91 79 77 83 82 63 81 78 81 
39 57 62 61 60 60 65 66 68 83 80 63 55 55 54 54 57 55 54 57 52 45 46 68 68 72 74 71 84 34 38 58 38 37 45 52 49 30 30 30 36 63 43 37 55 83 75 36 33 35 41 45 48 49 49 66 63 60 44 40 46 48 37 37 39 43 44 45 47 45 43 46 50 50 44 43 50 51 50 51 53 47 47 46 58 45 95 64 85 68 91 99 78 82 82 91 88 73 84 61 65 114 94 82 62 52 60 85 56 71 53 59 76 61 36 39 46 39 51 47 50 49 41 82 88 40 53 56 52 57 52 41 41 35 33 30 34 31 29 32 36 30 26 33 32 33 32 36 37 32 34 38 36 39 38 36 37 35 36 36 37 31 33 36 36 33 33 33 33 36 37 33 33 32 37 49 37 36 34 35 33 43 37 77 77 81 82 75 67 62 83 76 78 70 66 71 87 81 94 90 78 86 82 67 71 82 88 86 85 90 91 93 76 66 69 85 80 79 84 85 87 87 87 74 76 93 90 69 65 66 82 61 64 70 53 60 72 70 57 54 53 52 70 69 61 73 78 44 43 41 45 47 49 61 69 69 69 69 73 61 62 64 60 63 52 52 59 48 46 49 82 80 62 44 48 47 41 43 44 48 59 52 49 54 72 55 55 49 38 64 61 49 52 26 28 37 34 38 37 32 34 34 35 34 34 36 43 46 41 87 84 84 88 85 88 72 58 52 56 65 65 83 68 72 75 98 103 101 99 114 117 116 103 90 90 93 86 88 88 87 85 80 76 68 77 79 80 69 72 89 96 99 88 103 103 91 87 74 71 77 79 94 79 79 86 89 92 65 93 87 88 89 90 103 88 88 79 92 96 93 91 95 83 89 84 83 88 86 87 94 39 51 69 83 100 78 88 88 66 66 75 60 55 56 66 60 60 50 41 44 49 81 78 69 85 83 85 80 87 78 64 70 62 37 49 61 66 63 79 40 38 35 33 40 37 30 54 59 72 84 86 77 79 73 70 70 55 55 54 57 72 80 88 40 41 38 41 43 46 66 74 64 63 59 64 88 89 84 85 84 84 83 87 84 70 76 54 59 70 75 74 
68 64 62 61 59 58 61 64 67 71 70 71 60 54 54 56 58 66 64 57 48 43 63 65 63 77 42 42 44 29 33 38 33 33 33 48 44 31 29 29 39 29 37 75 72 41 37 34 36 35 35 34 33 33 35 35 36 35 36 38 39 39 35 35 40 42 41 41 43 42 45 48 43 50 52 48 48 54 53 52 58 68 71 66 83 85 85 85 72 93 99 83 91 79 89 84 59 51 56 52 63 102 101 75 88 96 83 83 72 58 52 57 77 52 43 58 41 48 108 109 56 52 48 84 79 35 35 42 60 63 73 54 39 33 37 31 32 35 32 30 34 28 31 31 33 32 32 34 38 31 35 38 39 37 39 39 39 34 39 37 32 36 39 39 44 41 36 39 33 43 36 35 42 35 43 63 52 40 60 41 53 78 72 79 77 78 71 65 73 77 78 78 74 76 71 63 59 93 91 78 77 87 87 67 69 85 87 87 82 86 90 92 69 67 71 75 75 88 90 90 92 84 84 78 75 87 89 69 71 65 70 56 57 78 88 68 69 65 66 61 47 46 70 74 57 70 56 43 38 40 38 47 43 67 79 86 86 79 76 53 53 51 54 57 51 57 59 57 52 56 80 86 37 41 44 45 43 40 45 57 67 56 57 70 69 47 45 44 49 55 54 39 40 33 31 33 33 36 36 33 33 37 36 36 34 38 35 30 34 52 68 76 91 92 80 75 75 74 82 64 69 86 86 70 75 97 102 93 95 106 117 119 102 84 80 86 86 87 87 85 84 81 68 69 80 81 81 75 69 97 99 93 90 91 79 78 93 98 75 80 78 69 71 86 83 70 61 69 69 85 89 90 94 97 94 87 71 69 66 66 73 84 86 80 84 91 72 82 104 102 57 50 79 78 75 74 79 100 69 64 83 53 54 54 67 62 56 49 44 54 48 59 55 50 64 46 85 90 82 92 95 52 44 39 71 68 68 63 74 41 42 36 37 31 32 57 68 56 77 74 61 66 87 77 74 73 57 55 55 64 67 74 78 88 39 31 34 47 53 74 76 65 62 59 56 82 90 90 71 83 84 74 59 60 54 49 51 60 65 68 67 
65 60 59 56 56 59 66 65 69 68 63 73 74 70 63 70 63 67 69 53 50 63 61 53 49 47 40 40 41 36 32 34 34 34 34 34 31 31 29 30 25 29 31 73 71 40 30 47 36 36 36 33 33 34 35 36 37 36 36 39 39 39 36 36 40 41 42 43 41 41 46 47 47 51 54 50 49 49 80 68 97 92 56 51 70 92 58 75 78 94 105 94 109 81 70 81 50 52 52 63 61 71 79 88 85 92 95 62 55 58 58 64 58 73 61 78 54 94 100 101 88 53 43 35 42 42 38 56 83 74 53 38 35 37 39 42 44 78 42 27 27 37 34 33 51 60 29 35 40 39 35 33 36 36 49 45 57 34 36 37 35 72 71 63 49 44 44 60 64 60 58 59 73 78 74 68 64 67 74 77 77 76 75 79 73 72 64 64 65 86 84 80 76 76 66 62 60 95 92 82 85 84 90 91 75 76 90 84 78 80 84 62 69 67 72 72 63 62 97 96 94 91 74 76 81 80 69 76 70 66 74 61 49 84 88 62 61 66 66 52 48 53 67 56 53 53 53 55 47 40 46 40 45 68 70 94 77 75 75 65 46 56 55 53 54 69 59 50 62 56 49 46 43 37 48 48 51 59 62 57 56 65 62 50 46 49 51 65 67 52 41 42 49 59 49 30 33 36 35 35 34 36 36 36 33 33 32 31 29 60 76 82 85 90 73 74 79 78 88 72 85 84 87 90 75 71 95 91 100 100 98 94 85 83 82 84 81 85 85 85 69 71 72 69 70 77 85 82 78 94 100 48 47 52 73 74 82 96 92 88 75 60 62 79 80 59 58 60 68 70 60 59 70 70 66 62 63 41 48 58 79 88 87 95 97 95 75 67 95 98 87 83 85 81 56 63 109 105 92 100 92 73 61 66 74 74 76 48 60 56 77 48 46 53 45 38 74 73 72 97 91 78 72 56 64 70 66 65 75 42 44 40 38 32 30 87 81 67 69 70 56 54 92 87 76 65 63 60 65 67 66 62 77 83 83 48 95 67 65 78 80 65 80 67 88 94 66 69 76 77 73 65 64 65 50 50 49 52 59 40 39 
62 62 58 55 57 57 60 72 52 63 57 66 79 69 68 66 67 67 60 66 62 57 57 49 50 45 41 39 39 38 37 34 34 34 34 33 31 30 36 39 31 32 26 27 32 33 43 44 41 40 40 39 35 34 35 35 35 35 36 38 38 36 36 39 39 40 48 48 37 37 56 53 69 51 66 82 89 88 81 85 97 99 67 65 62 68 68 87 84 98 83 105 107 99 101 53 50 41 46 54 49 52 57 85 76 93 73 62 48 77 80 59 56 74 80 86 87 84 88 101 50 47 48 43 41 52 41 41 47 65 41 36 34 40 39 44 60 78 84 32 33 34 77 75 79 86 80 36 36 37 37 37 50 53 48 56 49 44 45 45 70 73 70 64 39 40 43 66 62 65 61 62 69 80 69 66 62 61 75 79 79 79 72 72 72 74 75 71 73 86 82 83 79 66 63 61 65 91 91 77 84 87 90 91 71 69 76 72 81 80 78 58 58 83 73 58 59 67 81 77 93 81 71 80 87 86 66 66 61 60 74 68 88 83 62 64 62 62 69 60 65 57 73 65 60 51 51 52 47 48 44 51 57 62 64 54 81 68 71 60 65 67 63 53 62 73 48 51 53 57 48 42 55 45 47 51 42 65 59 54 56 64 66 52 46 46 52 57 61 61 40 41 45 55 54 41 33 33 35 34 34 33 33 32 32 37 34 33 56 69 72 86 87 90 75 73 81 81 91 93 89 82 80 85 93 77 96 96 99 101 97 95 83 83 84 81 80 80 77 69 72 70 82 88 77 79 86 82 72 74 45 54 46 48 71 69 80 96 95 88 69 68 63 62 65 50 56 75 64 64 60 55 85 77 66 65 60 52 49 69 90 84 88 95 101 98 84 96 91 88 73 80 87 79 56 55 95 82 95 92 103 71 72 70 64 74 103 80 74 82 73 45 50 59 41 34 67 95 65 62 64 81 68 65 54 61 58 60 70 43 33 30 33 32 35 45 84 65 63 64 67 62 90 83 82 62 64 63 85 68 66 61 71 88 94 89 91 91 79 74 75 73 78 91 95 71 69 76 76 75 67 68 62 63 45 49 43 39 48 42 38 
65 61 59 57 54 49 41 44 49 58 74 59 59 68 68 49 43 54 65 64 59 57 57 54 43 35 33 32 30 32 36 35 34 34 34 33 31 34 39 40 35 34 28 36 35 33 29 35 40 36 36 34 33 34 34 36 37 37 36 38 37 36 36 44 43 44 47 46 45 44 60 58 77 73 101 97 86 83 94 53 77 81 66 60 72 76 81 94 104 84 77 105 91 103 118 119 46 41 44 42 46 49 59 65 70 61 64 75 69 78 74 71 60 66 82 93 88 84 106 105 49 52 55 54 56 58 56 41 61 65 39 37 36 35 44 48 67 82 84 82 67 59 57 77 71 100 106 91 36 35 39 44 52 60 60 60 54 47 45 54 69 73 68 51 42 40 48 51 77 80 77 64 70 78 78 65 54 55 66 62 63 73 72 72 75 79 70 78 73 65 83 81 78 73 66 79 82 87 84 84 74 85 87 63 69 76 80 74 67 73 57 58 62 84 81 63 73 83 83 77 69 79 72 67 72 83 88 57 61 80 80 80 83 86 60 60 65 68 67 59 58 78 75 73 55 61 47 43 45 48 47 44 42 52 50 53 67 54 49 54 53 70 67 73 60 61 64 46 52 52 50 59 59 40 39 40 41 48 53 62 58 60 45 59 54 58 36 37 38 36 38 39 33 32 41 40 35 38 37 33 34 34 34 32 35 37 36 36 37 65 70 78 91 92 86 83 81 81 94 95 80 84 77 89 79 79 92 91 94 97 97 106 105 102 88 78 80 79 71 70 68 79 86 84 77 74 70 47 52 49 43 40 45 44 67 65 72 88 90 84 64 100 97 97 77 69 61 96 109 112 112 100 106 107 107 63 89 112 89 85 89 90 98 102 92 82 70 87 97 58 63 72 73 69 65 52 82 90 94 97 64 64 69 63 64 111 108 56 42 40 44 47 49 37 63 59 83 88 74 59 77 74 67 46 57 55 56 56 58 57 33 29 31 35 33 32 85 62 61 62 62 65 53 74 73 69 62 79 92 58 62 73 79 88 93 88 80 80 82 75 60 50 49 58 79 77 83 78 78 65 65 68 44 41 34 31 30 32 47 52 53 
40 53 46 40 38 41 41 41 48 69 68 54 57 63 64 47 45 54 63 61 52 58 56 42 39 36 34 31 32 30 30 38 40 35 33 32 36 40 39 36 36 37 35 33 34 33 38 35 38 38 38 35 34 32 36 36 35 36 36 47 44 45 47 68 72 71 66 69 76 79 81 76 74 79 105 100 62 61 60 64 62 87 78 66 67 79 85 78 111 133 104 81 81 93 118 116 103 92 44 43 48 93 94 88 89 78 67 85 86 80 69 67 81 91 75 69 84 75 95 99 95 54 49 57 60 55 58 61 63 58 44 32 35 39 49 66 74 70 79 76 68 57 45 51 50 99 102 97 98 100 101 86 62 58 76 59 63 52 44 44 68 63 56 50 49 52 52 58 81 75 76 71 72 62 70 57 55 54 64 62 61 73 73 75 76 58 60 54 63 58 68 67 80 78 79 81 81 83 84 85 70 73 72 69 66 79 78 77 67 62 61 67 71 82 68 62 73 74 85 67 74 74 60 64 61 83 89 74 68 80 78 78 67 63 51 56 68 48 60 61 69 73 72 45 47 59 52 39 51 61 63 36 38 51 54 56 54 53 52 55 55 50 46 51 69 64 61 60 59 56 56 59 54 40 40 39 49 47 49 66 67 65 46 42 45 39 41 36 41 34 36 35 32 32 40 40 34 37 37 36 34 34 35 34 32 34 37 37 37 86 87 88 87 87 87 85 82 80 79 87 73 79 75 73 76 78 92 87 88 87 98 108 110 104 81 78 77 66 64 68 82 79 81 88 66 37 37 37 33 45 43 40 46 49 60 66 56 58 85 90 96 90 91 93 93 95 104 112 111 107 110 108 103 99 103 97 107 110 115 85 89 90 103 100 96 84 56 57 66 54 57 75 70 76 68 100 94 84 87 87 72 82 75 72 75 90 102 50 35 45 42 48 49 39 65 60 51 84 78 75 79 78 79 52 47 52 50 50 59 70 47 33 39 37 35 33 84 71 68 56 71 72 55 61 71 69 85 91 66 67 63 78 95 94 83 77 68 74 77 80 53 51 40 43 80 82 84 89 49 48 46 47 43 40 32 34 31 33 53 53 42 
68 51 42 39 37 40 41 41 50 49 51 49 59 62 55 52 52 49 47 55 56 35 41 42 36 50 47 45 47 28 32 34 43 45 31 30 38 38 39 32 39 46 36 35 33 35 35 35 46 44 37 36 35 53 67 68 65 60 58 63 68 52 57 65 78 69 67 74 75 85 84 73 74 72 94 92 59 55 54 57 69 89 69 72 86 87 79 86 120 116 79 92 91 73 83 109 103 105 86 79 64 107 95 102 86 80 74 63 82 87 65 70 113 109 80 72 65 103 89 78 79 52 58 54 64 67 55 58 63 90 72 57 42 47 61 48 75 75 61 49 37 30 47 48 48 44 59 111 105 95 92 94 85 76 100 75 68 47 41 40 38 50 56 52 52 59 72 75 74 74 90 83 61 67 70 73 56 58 66 64 67 72 69 69 73 60 60 69 62 68 65 67 67 80 83 94 82 82 84 83 83 69 70 74 71 67 68 71 79 78 67 85 81 64 58 54 69 66 88 92 72 74 64 60 84 86 80 80 67 70 78 73 66 70 50 45 44 50 56 73 68 62 61 47 50 55 53 49 48 61 57 61 42 58 62 60 49 50 54 58 49 43 45 56 66 51 53 57 74 61 54 52 42 53 58 60 51 54 45 34 64 62 45 38 38 38 37 55 62 33 35 35 33 34 33 35 34 35 34 35 34 35 35 33 33 32 37 31 37 71 91 87 80 75 82 85 83 74 64 71 78 76 77 75 81 80 95 93 86 87 86 90 86 80 84 79 75 56 51 65 78 82 41 39 37 35 40 37 37 40 43 47 68 48 48 54 50 67 84 94 93 88 91 91 95 98 100 115 115 111 116 121 107 97 101 94 94 93 112 109 100 89 73 90 65 65 55 55 71 74 65 83 83 86 80 90 80 78 79 70 80 89 67 75 78 68 71 86 64 39 39 36 48 85 81 55 52 84 82 80 83 82 71 43 50 52 52 50 99 94 64 31 30 37 36 45 55 55 64 45 47 63 61 104 103 77 84 92 78 86 88 84 96 98 82 77 75 72 80 80 75 45 38 37 75 84 40 39 46 44 41 35 39 41 38 42 35 34 47 51 33 
48 40 41 36 36 35 44 50 53 52 53 55 49 52 54 58 51 53 45 38 45 40 35 57 53 47 40 47 44 42 70 84 79 39 37 68 68 63 56 40 43 45 45 43 32 47 58 55 56 57 59 60 58 55 57 66 68 59 59 65 72 66 65 78 74 70 65 94 73 69 79 71 67 79 69 82 78 64 54 54 55 75 67 88 93 93 86 80 88 70 86 63 70 79 84 109 105 107 82 85 79 88 96 60 49 70 66 65 68 85 93 63 60 111 99 86 90 90 72 79 90 101 59 64 82 68 64 67 66 71 50 40 66 65 53 62 63 62 73 76 31 33 33 38 39 40 62 45 60 83 82 101 90 118 124 115 65 61 36 38 41 47 62 55 55 59 54 55 55 56 62 74 77 71 72 77 74 70 55 52 52 72 70 69 81 86 71 77 67 64 75 63 64 63 89 89 89 87 80 81 78 74 74 70 70 70 66 72 82 78 73 85 73 62 61 61 59 73 85 69 71 76 80 70 82 88 75 75 58 57 59 64 78 61 68 42 39 61 63 72 69 63 56 46 47 56 54 40 43 50 63 61 52 56 63 41 46 47 55 45 39 42 45 76 63 44 46 51 64 89 76 56 55 53 53 55 41 50 44 30 35 31 46 41 36 47 57 61 59 63 45 33 36 36 36 53 50 33 32 35 35 34 32 33 33 35 37 44 39 53 70 73 75 76 67 54 60 66 64 63 75 82 85 83 84 84 85 82 88 86 90 91 83 81 80 46 49 50 43 45 41 41 40 40 41 37 43 43 34 39 44 71 65 68 42 45 53 50 69 116 129 90 91 98 106 114 110 103 104 104 111 115 98 108 104 97 91 89 101 99 99 62 65 66 72 60 62 61 68 66 73 59 89 81 73 70 77 79 75 61 59 91 85 91 87 72 75 70 45 40 37 33 41 83 70 59 72 74 80 81 99 107 99 64 47 55 72 84 91 98 30 32 31 40 39 50 60 57 51 65 51 42 103 98 92 100 107 101 97 89 99 80 49 61 53 58 74 73 76 79 52 46 52 38 41 63 48 40 43 46 36 36 33 63 59 60 34 31 32 34 40 
43 43 35 38 35 36 39 45 50 49 59 53 47 76 70 73 49 44 43 37 47 63 62 52 59 49 41 41 43 59 84 82 84 52 52 60 67 63 57 33 39 38 46 48 47 55 54 58 58 60 62 57 57 60 55 57 60 55 60 63 79 77 85 80 77 89 91 93 67 70 79 69 63 76 61 62 72 61 74 49 82 91 91 80 85 93 85 87 65 58 73 77 62 90 87 84 88 101 95 79 79 100 84 61 54 48 77 73 76 90 86 60 57 79 77 87 67 84 74 74 69 73 58 58 64 64 69 78 75 87 38 47 43 53 69 64 52 57 65 78 36 36 36 34 38 37 44 44 63 73 74 73 80 99 128 113 108 110 120 109 85 52 68 60 55 51 62 60 54 62 68 71 73 75 74 79 73 73 64 48 52 75 78 78 66 61 74 77 80 80 78 63 63 68 88 86 88 90 82 84 93 84 79 75 75 70 73 75 67 65 72 83 64 62 61 62 67 73 69 72 75 74 74 76 87 74 75 74 51 61 57 66 73 67 64 49 48 63 45 49 52 48 61 58 57 54 45 40 49 51 59 70 65 56 44 35 39 39 44 40 40 39 46 80 79 50 43 40 88 80 68 56 54 57 50 42 40 38 38 45 49 34 32 41 46 52 55 53 59 49 32 40 36 34 36 46 55 33 35 34 34 34 32 31 35 43 36 41 35 39 63 76 77 69 68 56 55 85 81 62 58 70 89 86 86 88 86 84 86 85 89 93 40 37 39 47 37 41 42 37 36 38 40 39 42 40 42 36 38 42 46 39 66 64 60 45 47 56 63 114 123 105 114 114 109 112 109 102 99 108 91 99 99 111 109 83 82 83 94 81 78 70 66 67 81 90 92 83 54 52 47 63 48 50 71 67 97 77 84 45 53 56 49 83 90 81 69 41 43 40 37 38 67 90 81 71 78 68 65 66 110 109 89 95 61 56 74 84 84 85 49 36 33 34 33 84 69 78 79 73 50 57 100 105 99 100 109 118 70 67 75 60 60 58 52 59 62 70 43 50 59 61 61 43 61 84 74 36 41 47 48 38 38 64 65 41 39 33 32 36 43 
31 35 32 42 46 54 66 74 73 70 69 66 62 77 76 60 66 59 78 82 69 60 61 67 77 75 46 41 62 76 80 85 54 50 43 44 31 33 36 36 38 39 50 50 52 59 58 53 64 64 63 58 57 54 62 59 61 55 56 53 49 69 79 82 80 85 92 95 67 41 43 56 67 66 63 61 103 84 83 74 79 80 91 88 89 90 97 97 65 55 75 82 72 87 94 85 87 91 93 77 75 86 78 89 82 65 79 79 76 94 94 63 73 72 63 60 37 38 52 83 73 52 59 56 60 70 70 78 83 84 41 44 36 48 62 52 57 58 59 31 44 48 38 36 31 43 72 75 77 75 77 73 83 80 68 70 67 75 131 90 99 90 89 76 76 45 49 50 61 57 67 70 70 71 71 74 72 83 78 61 62 80 81 82 65 61 64 74 82 73 80 77 79 73 70 93 88 86 85 92 84 90 72 77 77 70 70 75 67 58 67 81 70 63 66 67 67 74 70 69 72 64 62 88 84 83 81 65 50 63 67 69 65 68 72 51 46 51 50 41 53 55 52 56 55 55 52 56 44 94 90 83 73 37 43 52 37 37 41 42 42 45 55 77 79 51 38 41 39 78 56 50 54 55 40 40 52 33 38 50 50 34 32 46 42 48 52 56 38 67 59 39 39 34 39 38 42 33 33 34 34 34 31 31 54 54 41 42 36 60 77 77 80 73 71 80 71 72 86 67 70 77 75 73 83 87 87 81 83 82 89 48 39 39 41 38 37 39 40 39 36 36 37 44 45 39 36 67 71 64 38 46 62 68 56 53 85 88 98 113 101 96 105 114 94 93 99 98 93 88 86 96 97 107 110 90 81 81 84 85 80 71 75 82 81 82 94 94 58 45 51 56 36 46 80 90 100 99 97 78 40 44 48 81 75 77 76 30 33 55 62 70 70 60 86 91 89 74 64 67 111 101 99 89 84 101 116 92 77 82 93 94 90 89 83 86 85 80 73 81 87 78 83 83 36 47 60 78 79 73 82 74 70 70 66 57 50 52 46 44 61 65 62 59 61 87 85 73 45 42 45 56 64 72 75 59 59 75 67 56 41 
62 51 58 73 74 71 68 73 73 64 64 72 76 78 77 78 65 65 87 88 83 64 59 79 79 75 68 64 62 70 54 43 52 52 45 41 32 35 41 44 46 41 50 53 54 58 60 62 66 65 64 65 75 61 60 60 58 61 58 50 56 66 70 73 91 88 31 35 50 51 45 59 52 59 59 111 97 76 71 77 77 64 68 73 84 79 89 72 77 80 81 82 85 88 78 85 101 86 83 89 60 62 68 84 83 55 59 70 68 97 95 89 65 68 61 49 37 40 43 89 84 45 45 57 57 74 54 62 59 34 45 41 47 56 39 38 58 65 60 37 41 55 54 55 47 48 77 72 75 74 76 89 76 69 72 70 65 68 68 58 60 70 77 86 91 88 79 76 58 58 57 68 69 70 69 83 79 80 77 67 77 81 83 74 81 84 71 75 71 71 80 87 86 73 69 86 71 64 66 95 96 94 74 76 78 72 70 73 65 65 70 69 71 68 68 70 70 77 80 66 64 56 49 49 82 84 78 70 52 64 62 59 54 73 72 53 48 56 76 58 45 54 55 52 58 55 50 52 62 93 93 88 42 42 38 60 51 40 43 44 45 46 53 57 50 48 47 41 38 53 56 58 53 52 44 43 57 54 43 52 40 36 34 49 47 55 63 58 42 73 53 35 46 43 39 39 36 34 38 39 35 35 32 32 52 61 67 75 56 48 42 86 67 64 78 77 68 66 68 68 72 78 73 74 78 88 90 88 87 43 38 34 35 41 42 36 40 41 41 40 35 35 44 45 46 46 40 63 72 70 39 44 85 79 76 81 74 93 97 105 98 98 101 102 97 94 94 93 93 85 87 95 96 91 82 93 89 81 89 82 98 103 106 99 88 81 94 50 43 57 56 47 53 51 79 87 73 97 83 77 36 47 75 75 68 70 79 80 42 46 34 72 54 45 69 93 71 71 72 67 65 94 88 88 76 107 110 107 82 82 86 85 83 81 85 76 87 80 79 88 89 84 71 50 45 36 86 77 80 75 76 77 68 63 70 53 56 54 49 51 48 50 59 52 39 70 91 78 71 40 38 56 65 72 69 73 70 72 77 35 32 
77 64 63 73 72 70 65 65 72 64 64 67 76 76 75 81 85 80 86 85 78 73 76 76 78 69 69 67 65 36 38 42 52 53 44 52 53 38 35 44 66 54 49 51 54 57 65 65 78 64 69 70 77 66 61 56 56 68 72 73 77 78 75 72 62 36 37 36 38 63 104 108 61 80 83 108 97 91 77 77 59 63 67 97 91 72 76 64 79 86 33 37 86 82 71 75 96 100 80 57 66 69 59 52 68 65 65 72 87 88 102 43 49 69 66 67 78 40 49 65 83 64 50 53 80 58 50 48 51 42 42 45 45 43 41 46 43 60 59 54 54 59 59 60 53 55 68 70 72 75 68 68 78 67 64 68 65 71 69 52 53 70 71 75 92 79 80 79 80 61 52 86 82 79 75 80 85 65 69 67 67 80 81 76 85 90 94 90 65 71 79 86 88 75 72 87 65 68 64 87 90 92 83 80 83 74 75 74 74 85 63 71 70 79 82 81 73 78 75 63 62 59 49 48 70 69 73 70 56 58 58 60 72 69 46 54 61 72 74 53 54 56 61 43 44 49 60 59 103 105 70 72 29 37 52 44 56 51 52 48 49 49 48 53 53 50 51 43 47 49 53 49 40 47 60 59 48 52 61 59 50 47 44 46 53 62 66 35 41 40 53 53 40 46 49 38 39 38 37 40 33 36 32 32 34 67 70 68 67 47 46 54 62 75 69 57 56 68 65 66 63 63 71 84 84 87 82 89 45 42 41 36 36 34 39 39 40 41 41 41 42 48 48 46 44 45 46 51 66 68 67 49 78 76 64 80 81 106 97 92 103 98 97 98 94 90 77 78 71 78 95 100 85 78 79 93 85 87 94 94 91 102 104 102 91 94 98 39 52 49 44 46 61 51 42 65 73 78 62 70 56 60 63 77 75 75 79 75 48 36 43 41 48 64 58 65 69 63 70 68 69 83 67 67 75 77 75 110 108 90 82 67 67 77 80 78 78 97 96 87 88 86 71 72 57 66 74 91 34 37 41 51 60 58 64 65 57 54 47 45 48 50 51 36 35 32 33 63 48 39 38 45 40 42 70 77 76 52 45 39 37 
71 64 65 65 73 65 65 63 66 67 69 60 67 77 80 82 89 70 58 63 71 41 39 41 68 71 70 68 51 37 35 51 61 51 51 53 58 43 41 74 71 67 71 76 68 68 67 67 77 79 73 64 67 66 70 69 70 71 69 76 77 76 77 72 49 40 36 46 74 101 95 99 98 63 74 97 92 66 55 57 55 61 73 84 89 62 44 37 40 44 47 43 46 60 75 79 79 53 62 55 55 66 55 54 84 74 68 65 79 64 58 54 50 61 65 70 74 75 79 72 53 53 34 36 85 70 66 46 60 58 52 58 40 41 61 44 50 52 57 54 56 59 61 57 76 78 86 95 69 70 64 58 71 65 68 72 71 67 67 59 65 68 73 74 88 80 78 76 74 74 75 78 83 83 77 60 59 65 71 61 65 81 82 73 67 81 94 89 88 87 72 79 84 73 72 85 70 68 85 86 81 93 78 82 85 73 75 77 81 81 65 66 74 77 81 76 83 67 69 68 66 57 54 55 68 70 70 68 59 55 56 60 70 67 48 62 57 68 53 43 46 58 58 49 42 87 84 81 100 73 72 67 31 36 46 44 48 53 42 39 37 37 45 41 52 51 49 47 43 48 35 39 37 38 62 63 50 47 57 54 47 51 49 45 42 56 59 43 35 41 51 53 39 38 43 71 38 36 35 31 33 34 34 32 36 41 53 65 63 56 51 58 75 69 61 54 56 52 66 83 55 51 67 83 87 88 37 38 40 41 41 42 34 35 43 42 41 40 40 41 47 47 48 48 69 57 44 78 76 63 72 76 82 68 70 66 95 99 101 91 98 90 79 86 91 96 98 90 100 80 91 82 73 83 64 56 60 75 98 103 70 74 106 105 64 66 105 121 44 38 44 75 70 63 77 76 75 70 54 51 77 64 57 89 94 86 81 64 60 54 49 43 61 66 63 64 78 61 63 70 72 67 72 65 79 85 69 66 109 110 72 76 63 88 84 86 96 111 114 88 84 82 80 71 64 67 60 52 35 31 33 44 55 30 39 54 56 56 46 45 47 42 44 43 33 35 38 34 37 39 39 39 41 42 45 75 73 59 48 41 46 
76 67 62 60 58 63 63 60 61 68 63 62 72 89 92 96 97 58 55 62 63 41 35 44 38 43 43 46 45 36 38 57 79 80 54 65 72 59 60 66 68 66 75 74 71 70 69 62 61 82 76 60 68 71 77 72 73 70 68 74 78 51 55 55 71 81 76 64 76 100 99 77 102 89 102 74 86 92 95 51 104 93 79 63 52 34 37 36 46 37 48 59 47 52 93 98 77 60 65 63 66 73 73 82 73 64 67 69 73 67 54 45 53 62 67 72 75 80 77 77 47 40 40 40 64 88 89 51 49 59 59 54 49 60 65 64 48 53 53 48 44 63 64 63 77 84 90 85 84 82 61 57 71 62 66 71 72 67 63 65 65 67 72 74 80 69 72 59 64 81 75 68 65 72 72 61 63 66 76 78 73 80 84 71 74 79 83 85 90 88 72 69 73 72 67 75 68 69 82 84 84 81 79 85 78 69 66 67 70 81 58 55 57 75 76 71 79 61 57 65 62 57 58 57 38 60 72 63 47 49 54 54 70 80 45 56 55 44 45 48 46 59 60 66 66 80 92 61 81 80 82 76 39 35 35 54 49 48 39 39 38 35 37 38 38 42 48 40 33 35 34 38 38 34 36 49 55 52 60 52 45 43 52 42 36 42 57 60 50 34 49 47 53 39 37 62 52 30 34 34 29 36 33 34 37 39 60 59 56 55 67 77 70 55 51 56 54 45 50 75 47 49 51 44 36 33 35 38 40 37 36 42 40 41 42 39 38 40 40 46 44 46 46 45 70 68 87 86 84 85 106 84 88 84 79 92 85 84 85 103 103 99 76 79 97 101 97 109 109 110 97 85 86 71 59 66 60 60 78 71 62 66 83 89 73 55 82 99 46 38 39 61 69 61 70 72 76 69 51 47 72 64 77 86 86 92 63 62 56 52 50 48 59 64 66 72 72 71 63 66 64 65 78 65 71 86 83 72 85 104 92 88 87 98 104 108 115 113 76 84 87 81 77 78 91 84 70 73 62 36 32 29 33 30 36 54 57 55 50 49 46 41 42 35 33 39 38 31 35 36 39 43 42 37 39 68 52 41 38 32 43 
53 61 58 55 57 64 67 72 75 78 62 62 76 83 87 96 83 69 62 53 39 42 41 38 42 42 42 41 52 70 67 62 71 75 71 70 69 64 52 58 62 56 70 73 67 59 63 56 61 73 76 78 76 75 79 75 77 77 70 71 49 53 47 70 83 89 86 73 101 95 108 66 85 112 88 78 85 88 74 87 71 99 71 59 50 35 30 70 84 90 56 55 70 75 94 96 64 69 58 67 68 63 86 86 84 72 79 72 71 41 35 31 34 52 62 64 73 109 108 118 55 38 39 52 58 83 74 47 48 34 33 38 35 67 58 69 58 73 65 47 36 43 66 67 78 72 75 83 89 90 61 62 72 64 66 60 67 59 52 56 69 69 83 80 83 72 67 57 73 72 76 62 67 74 76 70 71 66 73 77 78 76 69 67 77 76 82 69 84 80 68 75 74 71 73 74 71 70 82 88 78 83 83 83 82 65 66 65 68 82 52 53 50 68 71 69 76 59 56 56 55 68 68 39 42 37 63 61 60 47 42 53 67 78 35 33 40 44 47 44 46 64 63 65 59 63 68 68 65 84 88 50 51 54 51 52 56 44 37 39 35 31 31 40 40 30 30 31 30 34 32 32 33 37 35 42 50 50 37 47 44 34 33 32 32 36 61 63 37 37 49 60 44 41 32 32 30 30 29 43 45 46 43 42 42 37 37 51 50 66 67 75 71 59 49 54 37 36 35 32 45 35 36 34 32 33 35 39 40 35 35 39 40 40 39 37 37 42 44 46 44 41 42 41 39 34 94 94 90 92 104 90 99 85 86 81 85 83 99 100 91 93 91 120 115 96 84 94 97 103 78 91 82 72 74 59 63 54 63 72 64 69 74 53 45 49 54 92 47 46 49 31 45 53 69 66 67 61 47 52 77 53 51 81 78 83 62 66 60 56 53 70 56 54 44 47 71 73 70 67 49 53 117 137 66 59 84 93 78 93 100 84 84 98 95 110 97 102 72 72 89 92 77 78 87 77 76 68 58 37 33 28 25 43 31 42 57 46 34 31 41 44 51 35 36 44 38 40 44 40 40 42 29 26 28 28 48 43 37 35 29 
51 58 57 55 53 61 70 69 74 73 71 73 80 48 47 45 42 42 43 44 42 44 41 42 45 46 52 54 54 73 75 53 49 39 44 45 48 51 58 61 67 74 54 59 56 64 60 62 65 61 76 73 71 84 82 46 49 78 78 73 66 56 81 92 79 84 76 84 76 101 88 96 83 38 36 40 49 82 87 65 72 49 58 73 59 52 45 77 81 97 92 67 74 79 69 63 61 73 69 62 67 75 76 84 74 73 75 56 59 36 35 27 31 63 57 59 79 77 105 114 88 87 101 74 67 68 64 45 37 40 33 36 46 49 67 75 78 76 72 48 46 46 72 67 65 74 68 70 80 73 62 57 66 70 76 76 54 53 56 58 71 75 85 85 86 73 71 67 70 72 75 81 72 74 74 68 68 74 76 87 88 87 70 69 82 75 68 74 70 73 73 75 78 74 76 75 75 75 77 85 86 87 80 87 85 83 69 68 85 82 64 53 57 64 67 72 56 55 75 73 64 69 58 52 36 46 55 53 59 56 49 66 70 33 32 31 34 50 55 76 76 81 85 53 60 53 71 70 70 66 53 51 59 56 39 33 34 38 39 35 32 31 31 31 31 30 31 31 31 33 33 33 33 34 33 34 33 34 33 34 33 34 33 34 33 34 33 33 32 36 37 39 40 41 30 31 31 30 30 31 36 40 37 36 42 36 33 32 33 35 35 35 32 32 35 36 37 37 35 34 33 38 38 32 31 32 37 37 38 37 37 39 38 38 39 37 38 35 38 43 43 43 41 43 36 38 41 64 103 100 82 86 101 99 123 97 80 83 100 103 81 79 110 118 114 78 79 76 93 89 84 76 64 79 76 60 53 56 75 83 81 64 55 59 54 46 106 90 87 49 36 34 38 62 73 63 84 85 71 53 46 46 52 68 76 90 88 67 71 62 69 68 74 56 47 53 75 85 74 75 47 47 129 121 62 61 95 99 82 91 79 80 93 95 104 90 95 87 75 70 84 91 91 76 71 83 41 53 63 50 37 64 70 43 40 82 72 46 28 35 39 44 42 58 63 65 37 42 44 44 41 39 29 28 26 26 32 45 43 46 30 
43 47 53 52 70 71 72 67 66 52 47 44 45 44 44 43 40 42 43 44 45 43 41 44 48 46 43 51 51 58 71 67 43 41 44 48 42 58 62 63 68 70 75 90 78 78 65 64 67 65 76 78 63 60 59 53 50 79 77 70 65 61 83 88 103 101 82 84 79 91 94 95 53 46 40 38 46 74 86 48 49 47 60 76 84 69 61 83 85 90 92 82 71 71 59 68 77 81 75 73 72 82 72 71 73 90 85 51 46 37 32 35 64 60 63 86 82 70 68 79 78 89 94 82 56 57 59 49 39 56 46 42 43 53 67 79 74 74 73 59 55 58 72 67 65 64 69 75 70 63 57 62 60 69 75 74 78 68 90 84 82 79 79 86 87 77 74 76 65 80 85 83 77 74 71 68 69 73 81 78 98 77 74 70 81 76 66 68 73 84 87 79 74 78 75 77 77 79 77 79 87 81 81 84 85 82 69 67 64 67 63 67 71 63 63 59 59 81 70 54 57 62 57 50 46 48 51 52 51 48 38 38 41 37 34 33 37 35 41 71 68 79 79 74 75 77 69 79 67 66 51 56 54 36 34 34 36 37 41 43 38 31 29 32 30 30 30 31 31 32 32 33 33 33 34 33 34 33 34 33 34 33 34 33 34 33 33 33 33 33 31 31 30 32 29 30 31 30 30 31 35 39 34 32 35 32 29 30 32 33 32 33 34 35 34 35 35 36 37 37 33 40 39 36 35 36 37 38 37 38 37 34 37 39 39 38 36 35 39 41 42 43 41 41 43 39 58 93 101 91 89 89 99 100 111 112 96 97 97 81 82 82 81 97 85 83 78 83 84 96 88 74 66 74 59 70 60 56 58 94 82 56 56 54 58 64 95 101 71 70 36 33 42 58 77 75 83 86 94 50 48 54 49 54 114 100 86 79 45 55 62 75 65 63 66 52 53 84 72 67 66 51 55 88 66 71 95 97 67 76 79 107 98 60 67 86 91 94 89 87 86 62 62 61 59 47 42 46 102 107 83 71 63 74 97 91 43 31 31 30 29 31 33 66 69 64 55 54 39 38 35 31 32 29 25 27 30 37 49 49 37 
44 47 56 59 65 72 72 69 63 47 45 43 44 43 44 42 38 41 42 43 45 42 41 43 50 51 44 45 65 76 63 70 56 43 49 51 54 59 68 66 47 78 87 84 80 78 61 67 75 73 73 70 63 57 57 53 60 71 73 67 63 74 82 73 60 98 86 83 83 95 99 59 57 70 61 43 42 47 53 51 76 64 62 63 85 94 71 71 82 70 78 77 72 56 56 70 73 78 82 63 69 72 71 67 71 85 87 59 42 31 49 64 58 64 70 81 86 60 65 76 69 71 70 61 62 57 73 62 69 67 71 66 55 86 86 78 86 71 66 56 55 46 49 71 68 66 72 71 73 75 58 58 60 58 63 79 94 89 88 84 80 75 76 83 87 78 81 83 78 82 87 84 77 77 72 70 70 74 74 76 98 96 88 84 81 75 76 74 74 91 86 70 68 83 84 83 77 81 84 81 85 84 80 75 69 67 71 69 63 67 70 63 71 70 73 45 46 61 74 47 45 61 54 54 51 48 51 53 38 37 35 34 35 37 36 38 40 38 47 58 81 79 82 72 77 76 72 70 72 66 58 54 52 40 31 33 34 35 40 42 42 28 29 31 29 30 30 31 31 32 31 32 32 31 33 31 33 31 33 31 33 31 33 31 33 31 32 32 33 32 32 30 30 30 30 30 30 31 30 32 31 29 31 31 32 31 31 31 32 33 32 33 35 34 34 32 32 35 37 36 36 38 39 36 37 37 37 35 36 38 37 34 35 36 37 36 36 39 38 38 39 38 43 44 43 52 73 67 96 91 102 106 91 91 103 90 80 75 78 84 90 84 81 90 87 89 74 75 83 76 70 72 76 73 59 56 59 59 59 52 52 58 62 57 61 67 67 81 78 90 66 57 62 51 107 104 89 87 105 59 68 75 54 54 107 107 63 61 53 46 60 91 78 73 78 48 48 51 41 68 58 65 73 86 68 76 91 81 63 59 66 98 113 72 53 100 93 92 89 87 84 55 57 62 65 58 45 51 102 96 54 41 46 64 92 92 48 41 35 32 25 28 31 72 67 53 50 52 43 58 64 49 38 28 32 43 57 48 46 47 73 
36 48 58 63 40 41 38 38 59 51 45 43 44 44 41 40 42 38 39 41 42 44 41 45 49 47 56 62 62 70 74 50 48 45 51 51 55 54 57 66 41 40 42 87 49 46 52 72 76 76 62 65 64 59 58 71 55 53 66 55 45 41 52 60 55 91 87 86 83 91 96 64 66 77 46 46 45 51 50 85 72 64 65 68 88 91 85 76 56 82 74 75 70 62 56 77 86 71 45 56 53 85 81 71 56 62 55 61 66 55 54 64 64 77 82 89 91 89 71 68 79 81 67 69 60 75 70 84 69 75 69 65 60 101 98 87 83 49 43 49 47 46 44 49 67 67 76 78 76 78 62 72 60 59 62 99 97 93 93 85 82 82 78 91 99 77 80 83 90 82 79 82 78 80 79 84 91 85 70 68 85 93 86 82 75 68 81 86 76 76 85 69 81 83 84 66 66 83 83 84 89 87 92 70 69 67 69 64 57 70 65 62 67 78 72 49 47 63 52 48 45 42 44 50 52 41 44 46 36 37 39 35 34 37 34 38 37 41 79 79 86 83 79 76 75 65 67 62 66 67 38 34 35 37 35 34 32 32 33 39 36 29 29 31 28 28 29 29 29 31 32 31 31 30 30 30 30 30 30 30 30 30 30 30 30 30 31 30 33 32 32 31 30 29 30 30 30 30 32 32 31 29 31 31 32 32 34 36 36 35 35 34 34 33 34 33 33 33 33 33 37 37 36 37 38 37 36 35 37 37 38 39 39 35 37 40 38 37 39 46 49 36 41 42 86 79 66 72 120 108 126 80 99 95 102 84 85 80 77 90 89 68 66 70 93 80 80 76 78 76 74 75 76 74 65 57 58 65 62 46 51 54 59 55 54 60 76 73 79 80 95 63 60 70 103 101 84 87 102 114 65 65 80 89 90 76 75 55 75 74 77 86 88 78 67 64 57 45 44 38 35 45 55 102 79 79 75 76 62 62 76 89 68 76 102 100 93 84 69 75 79 51 51 65 62 56 74 102 113 58 59 55 45 53 51 46 45 44 39 38 38 40 53 68 69 33 31 30 34 62 71 52 61 44 39 50 49 53 42 29 41 
40 37 38 37 40 42 41 41 37 32 32 34 37 39 39 40 40 38 36 39 45 40 65 81 79 57 69 67 51 50 57 63 38 44 67 68 60 59 61 66 55 39 46 56 48 44 46 75 74 75 61 58 87 83 76 72 44 48 69 73 37 34 43 68 64 54 58 86 85 91 69 76 65 58 50 44 47 54 87 80 65 63 70 70 74 65 80 49 51 76 78 70 73 72 90 88 94 62 44 73 71 83 60 58 50 61 66 59 73 61 62 78 72 81 82 84 91 94 74 75 75 75 74 73 61 75 76 77 78 128 130 53 53 56 57 55 50 50 53 46 62 40 38 55 65 66 75 81 79 74 84 87 66 67 80 93 98 82 82 80 89 86 87 96 101 84 81 83 85 74 78 82 83 79 82 95 90 77 74 83 84 90 81 76 66 62 62 84 80 88 89 84 77 84 77 70 65 84 85 91 95 92 87 78 83 75 61 48 68 66 67 70 79 70 69 55 64 64 53 47 44 41 44 48 45 42 41 43 34 37 37 35 30 32 28 29 38 46 76 88 83 73 78 68 63 68 64 32 69 58 30 30 34 33 33 36 31 35 34 29 29 31 32 28 28 27 27 29 30 29 29 30 30 30 31 31 31 31 31 31 31 31 31 31 31 31 30 30 30 32 33 31 31 30 30 29 30 35 34 35 29 29 29 31 32 33 35 35 35 35 34 34 34 34 33 34 35 34 32 32 36 34 35 36 36 36 36 35 36 36 37 39 39 35 32 42 46 38 40 52 63 47 60 85 85 82 90 96 104 79 72 84 84 116 107 96 83 99 85 84 86 71 67 67 93 90 82 83 74 83 76 76 74 78 85 68 60 69 55 59 60 51 54 53 48 59 67 47 57 87 102 103 110 84 91 88 85 80 96 105 74 71 71 89 69 65 72 71 69 78 69 70 80 65 73 81 86 67 36 34 36 45 48 54 88 69 71 72 74 95 84 81 76 85 102 70 69 76 69 72 78 51 57 74 77 78 102 104 52 47 57 56 55 47 35 40 35 32 31 36 35 38 35 55 60 31 31 33 33 38 82 86 78 47 32 29 41 37 31 30 28 
43 37 40 38 39 39 39 46 34 33 32 33 33 35 66 66 50 50 73 68 76 73 75 79 77 68 68 66 57 54 57 63 63 57 65 72 76 64 64 57 62 63 62 54 53 65 73 76 78 76 79 89 91 100 75 80 60 55 76 73 39 40 48 72 69 62 65 80 70 69 68 81 83 65 60 69 56 59 83 70 66 68 66 54 66 66 63 54 78 74 79 75 72 68 92 94 86 85 83 73 50 53 49 54 77 76 63 55 82 84 79 72 74 80 80 84 90 64 73 71 74 70 75 65 76 70 73 82 55 135 134 57 57 58 58 54 48 52 51 50 65 70 75 77 66 74 76 78 84 82 89 88 86 83 80 75 70 76 81 87 84 80 80 90 91 85 82 82 81 75 78 81 73 65 69 89 91 79 74 77 88 52 49 48 61 66 67 90 83 81 84 82 71 74 71 89 89 85 83 103 99 74 67 69 85 86 49 54 54 63 71 78 75 72 77 81 70 64 49 39 40 37 40 42 44 42 39 36 32 30 31 36 34 32 31 40 76 73 70 76 75 68 72 64 71 68 35 31 24 37 34 32 33 36 36 38 37 38 38 27 28 33 32 27 27 27 27 27 29 29 29 29 30 28 29 29 29 29 29 29 29 29 29 29 29 29 29 30 31 32 36 36 36 31 32 29 33 34 34 33 31 30 32 31 31 32 35 35 35 34 35 34 33 32 34 34 35 34 34 33 35 35 35 36 36 36 35 36 34 35 35 40 47 50 65 59 55 50 47 80 88 69 65 80 59 84 95 83 100 83 70 110 108 102 99 103 118 109 74 74 81 81 72 96 80 80 79 87 89 87 81 80 77 81 91 79 73 75 56 55 58 66 66 57 48 61 53 56 56 96 102 105 99 100 86 83 88 80 86 91 88 73 69 66 72 71 61 75 77 70 65 89 70 69 71 82 79 80 66 46 63 50 45 44 95 98 68 70 75 99 100 70 71 83 85 76 72 68 68 76 84 70 62 77 82 83 97 104 42 45 32 31 39 38 33 36 33 33 33 33 34 34 34 35 33 30 29 35 36 40 79 88 81 38 31 31 38 39 33 31 30 
31 39 40 40 36 38 39 49 39 41 42 64 67 58 58 63 65 71 69 72 72 77 77 68 77 76 72 60 54 65 58 62 66 49 55 72 75 74 60 58 59 62 59 55 54 73 76 73 73 74 74 79 103 76 70 71 82 79 65 66 62 52 60 58 69 74 88 91 66 73 77 74 78 44 54 74 81 62 61 66 65 63 62 53 58 72 83 68 73 78 70 59 55 54 89 83 90 82 84 54 53 60 63 55 76 64 58 60 83 79 79 77 73 71 86 92 88 80 62 71 77 78 78 67 74 78 60 52 60 66 67 66 60 70 69 67 53 48 52 53 65 67 77 75 74 70 76 78 90 95 95 91 86 86 71 75 74 72 84 89 88 82 80 85 81 87 81 80 84 81 80 84 61 68 67 83 78 60 60 55 55 57 56 52 49 72 81 98 95 91 75 69 76 80 78 86 90 90 88 94 97 68 67 66 83 83 57 56 58 66 72 70 71 68 68 61 62 65 60 72 44 46 43 39 39 40 40 33 32 31 30 32 44 29 34 55 77 79 51 49 48 45 34 31 40 59 65 21 24 34 34 33 45 47 34 36 39 40 34 29 29 30 31 26 26 26 27 27 28 29 29 29 28 29 29 29 29 29 29 29 29 29 29 29 29 29 28 29 32 33 35 36 36 33 31 29 33 33 32 32 31 31 31 32 32 32 36 35 35 35 35 36 35 32 33 34 34 34 34 34 37 35 35 38 35 36 37 48 47 45 48 51 49 51 53 67 58 49 80 78 82 72 57 55 53 59 61 80 97 88 99 100 111 101 94 107 109 110 79 69 70 85 86 110 80 74 76 83 92 82 77 92 84 84 105 107 105 99 69 47 49 66 70 61 83 53 55 106 109 101 88 83 73 86 84 83 102 103 113 102 102 73 66 65 72 68 58 58 72 83 81 85 84 80 72 77 70 90 73 65 86 71 55 47 100 90 83 71 85 100 94 75 73 73 82 100 87 64 67 79 71 83 89 93 77 79 95 99 37 34 34 30 30 36 35 31 32 32 32 32 32 34 34 33 34 27 28 32 42 35 30 32 33 33 31 33 38 37 38 34 43 
41 36 38 40 46 53 56 60 45 44 49 63 63 66 45 45 70 71 75 47 74 65 58 59 60 76 78 62 66 72 61 62 52 50 65 74 73 61 57 59 57 64 62 57 78 73 73 73 72 72 68 73 77 67 69 74 79 80 58 61 60 61 62 63 75 75 80 90 82 67 74 40 44 57 62 71 77 58 62 60 71 64 68 67 63 67 81 69 69 61 44 48 48 59 81 87 90 64 62 62 53 56 63 66 72 74 69 72 68 65 78 72 91 79 76 53 51 53 58 76 79 78 74 74 68 77 45 52 68 68 67 70 70 65 73 78 52 54 57 57 71 68 75 78 77 71 74 81 91 95 91 88 78 75 72 73 70 84 89 90 92 95 95 94 82 82 74 76 87 85 69 72 67 71 75 79 71 53 57 63 46 55 51 57 70 82 80 87 94 100 69 66 64 84 87 84 85 106 101 92 90 67 67 67 78 69 56 55 63 65 67 64 68 65 56 61 63 67 60 81 58 57 52 43 35 41 38 36 33 30 29 48 47 32 30 40 72 70 50 52 44 44 36 36 34 60 45 47 34 33 33 31 45 44 36 28 32 26 26 29 29 25 25 27 26 26 26 27 27 28 28 28 28 28 29 29 29 29 29 29 29 29 29 29 29 29 29 29 29 29 29 29 28 28 27 28 31 31 32 32 32 32 32 31 32 34 35 36 35 35 35 38 43 45 41 36 33 33 33 35 40 37 37 37 35 35 40 47 42 46 46 52 51 48 53 47 60 64 78 53 45 54 52 53 59 55 60 79 103 99 97 104 97 108 104 103 92 86 98 82 75 77 108 111 102 84 91 88 79 76 79 90 95 81 112 121 98 68 66 57 47 67 70 96 94 89 92 94 114 106 74 74 78 87 94 95 96 111 109 108 107 68 58 63 61 75 79 68 89 89 77 78 92 89 56 52 77 85 78 69 68 72 82 101 100 70 80 91 93 90 85 88 80 78 92 93 85 86 67 64 79 75 86 101 99 58 42 51 58 33 32 33 32 40 50 29 30 33 33 33 33 36 36 36 46 54 55 51 43 26 25 35 33 36 35 34 33 29 28 28 31 
51 52 64 49 71 65 58 57 55 46 54 61 57 46 43 41 61 54 55 52 49 48 53 55 68 68 68 63 43 50 65 69 60 53 60 60 65 61 64 58 58 65 67 76 69 67 72 78 68 71 74 73 73 70 70 78 68 48 55 60 63 64 66 67 65 80 85 71 55 71 54 48 40 54 68 74 65 63 58 46 71 67 59 58 65 68 70 64 71 48 47 71 84 88 73 82 77 69 60 74 67 64 67 57 69 67 71 69 67 71 67 88 92 89 66 58 50 47 55 79 81 81 77 72 80 75 58 49 57 68 67 69 66 66 79 70 53 55 62 72 77 79 80 77 83 80 87 82 100 97 70 63 73 86 66 69 73 77 88 85 82 92 98 86 84 80 77 94 85 67 70 76 74 74 80 65 63 71 68 67 42 42 42 52 60 71 91 92 92 94 69 67 67 75 82 91 103 101 105 59 65 66 74 87 84 85 52 55 57 60 64 61 74 65 60 87 79 74 83 74 83 60 43 44 59 61 57 43 55 35 51 58 58 38 40 46 50 46 61 51 46 47 51 32 37 38 44 37 35 35 33 33 30 28 26 26 26 26 26 26 26 26 26 26 26 26 26 26 26 26 26 27 29 28 30 31 31 30 28 29 29 29 29 29 29 29 29 29 29 29 29 28 28 28 27 27 31 28 28 27 26 27 28 30 31 32 32 34 37 37 37 35 38 47 42 36 34 43 40 38 38 40 48 42 34 36 35 42 43 44 56 66 65 62 57 52 55 50 47 48 45 51 52 52 64 70 61 84 101 96 109 105 88 87 96 94 94 85 94 90 82 94 112 100 99 92 92 90 86 92 87 78 79 79 101 109 104 87 55 52 58 69 76 88 81 79 87 88 99 102 63 71 81 93 92 93 99 105 109 113 83 85 57 54 69 87 82 80 73 85 90 75 75 65 66 57 54 66 78 62 61 66 76 105 100 68 72 85 88 83 77 76 75 79 64 67 61 84 77 68 83 103 96 101 100 44 48 44 45 68 77 32 35 53 63 65 50 58 29 32 40 56 51 46 39 56 57 39 35 26 27 32 34 36 34 33 31 30 30 30 29 
39 47 58 78 73 77 50 53 50 74 62 57 54 60 55 55 61 64 51 67 55 45 54 53 73 43 31 34 41 50 67 64 60 69 78 65 69 79 68 56 68 69 67 77 77 68 66 65 52 72 67 68 70 72 71 61 59 53 50 71 78 70 66 69 56 53 60 57 54 57 61 67 76 70 64 60 68 63 59 48 48 50 45 44 44 54 65 75 65 58 83 84 78 86 91 79 75 75 72 76 49 58 62 56 74 58 63 76 75 78 58 66 93 87 82 77 73 72 77 77 81 69 78 76 75 61 59 69 70 66 65 66 69 69 73 73 63 54 74 73 75 89 88 84 84 82 88 94 93 94 67 65 66 81 74 71 90 93 90 86 82 82 93 90 78 81 82 79 83 71 70 74 76 46 50 63 55 60 54 53 48 43 42 50 74 71 61 63 67 64 63 69 73 98 100 101 100 103 89 54 58 75 77 82 89 79 62 57 58 59 59 66 81 82 80 76 55 61 74 92 93 83 73 59 60 63 56 51 52 55 59 58 59 57 82 84 37 33 31 28 28 50 45 48 35 34 43 46 36 36 36 33 30 27 26 26 26 26 26 26 26 26 26 26 26 26 26 26 26 26 26 26 29 29 30 30 30 29 29 29 29 29 30 30 30 29 31 31 29 29 28 28 28 28 28 27 29 29 28 28 27 27 28 28 31 32 31 33 38 38 37 34 33 32 35 37 40 42 40 41 56 58 55 51 42 37 39 40 39 40 67 63 65 61 58 39 39 44 50 52 42 47 49 58 64 68 82 99 86 96 106 114 72 79 95 95 96 88 79 81 109 113 105 104 104 96 91 76 83 90 84 76 77 84 93 85 95 53 55 79 75 80 71 78 83 91 93 82 89 98 64 65 88 90 94 91 105 105 112 68 80 78 89 63 57 95 90 74 83 87 90 80 81 72 71 85 54 56 61 59 57 53 57 71 103 105 71 72 81 86 93 74 81 72 65 71 72 70 72 90 100 99 70 102 80 37 36 50 48 72 67 62 58 56 59 54 54 57 59 56 53 56 50 43 38 49 51 38 40 39 30 31 32 34 34 33 32 32 31 31 29 
52 44 57 65 70 48 50 67 66 71 49 57 61 67 59 67 65 67 63 64 72 50 54 52 44 45 40 36 38 71 71 70 68 69 96 108 86 75 66 64 65 68 67 78 78 72 70 68 55 67 67 66 70 73 66 60 62 66 68 81 82 72 68 72 58 50 58 54 61 53 57 72 76 71 66 60 57 51 52 55 54 46 44 46 49 52 62 66 72 75 87 89 88 86 88 77 54 59 60 62 56 51 69 74 65 75 74 79 81 70 73 74 72 78 82 81 70 70 75 76 72 71 68 69 73 73 68 69 75 69 66 68 70 67 71 59 61 84 87 88 81 94 89 85 82 83 84 88 91 73 69 68 65 73 82 72 92 88 88 82 82 81 88 87 72 78 80 71 69 73 76 65 43 42 52 55 53 56 52 50 52 51 65 65 74 55 57 62 69 64 64 71 89 92 101 102 101 72 72 55 54 80 82 45 39 51 57 56 61 68 66 71 80 77 75 78 59 48 84 88 64 48 44 48 63 64 59 54 50 62 55 67 46 51 87 84 38 30 30 30 27 33 48 40 29 29 33 45 36 37 35 34 31 28 28 26 26 26 26 26 26 26 26 26 26 26 26 26 26 26 26 26 29 29 29 29 29 29 29 29 28 30 30 30 30 31 31 31 29 29 28 28 28 29 29 29 29 29 29 28 28 28 28 28 32 32 32 33 33 35 33 33 33 33 33 59 60 43 41 46 55 57 56 51 38 36 38 37 38 40 63 65 48 39 44 44 42 46 49 51 50 52 68 54 66 71 73 95 85 97 102 82 75 77 84 86 64 63 66 89 129 124 115 108 95 94 79 75 75 77 86 80 80 86 82 83 81 71 71 69 64 79 76 79 81 87 73 72 112 98 91 68 70 84 97 89 95 86 74 74 67 85 89 60 64 90 88 81 79 86 89 88 83 73 80 83 70 54 81 63 56 49 54 108 99 105 77 72 71 93 93 93 96 93 90 71 72 73 73 79 95 89 55 54 83 89 41 59 69 69 69 63 60 55 50 52 51 60 62 56 56 52 37 34 46 47 50 42 41 42 32 27 28 31 33 34 33 31 31 31 28 
41 49 65 65 53 51 51 61 71 57 51 61 59 61 48 57 75 66 54 67 58 46 56 52 39 57 61 62 53 54 78 75 68 58 102 103 96 60 54 64 66 66 67 73 71 74 71 70 70 62 67 68 72 70 61 65 67 64 64 81 82 71 69 71 53 54 60 61 57 61 64 71 60 67 68 58 53 53 50 58 59 48 42 62 58 64 77 71 82 84 88 89 90 91 72 51 59 62 54 70 62 58 62 77 71 70 63 73 77 70 71 69 69 76 89 90 71 68 83 74 75 69 65 68 69 71 66 64 82 82 62 63 64 86 83 63 62 84 91 88 85 85 93 84 92 86 85 81 88 77 72 68 66 70 72 78 75 84 70 83 83 61 72 64 57 57 64 61 70 64 72 51 51 44 44 54 52 51 50 51 51 52 67 74 49 53 60 57 73 70 72 60 86 92 58 71 66 73 66 72 60 89 83 35 39 35 45 84 77 72 72 75 77 76 73 69 82 69 85 72 46 50 54 39 35 61 73 37 39 40 44 40 40 38 42 41 30 32 31 27 25 29 27 33 31 28 27 33 36 37 35 32 31 26 27 26 26 26 26 26 26 26 26 26 26 26 26 26 26 26 26 26 29 29 29 30 30 29 29 29 28 27 30 30 31 31 31 31 29 29 28 29 29 29 29 29 29 29 29 30 30 29 28 28 31 31 32 32 33 34 33 33 35 34 37 59 58 44 45 43 54 49 38 38 36 36 37 36 44 44 48 51 35 37 42 44 43 51 60 56 55 41 46 71 90 84 81 91 91 72 72 83 70 76 114 106 67 62 64 113 127 123 91 92 106 115 107 71 78 74 101 102 93 74 75 81 75 74 83 64 65 101 97 73 80 81 71 73 74 101 84 74 74 82 105 101 102 82 76 72 94 83 86 59 58 66 67 72 76 91 92 92 86 78 71 90 88 72 71 73 51 48 47 108 103 75 74 77 66 77 84 93 92 92 92 75 73 74 71 39 36 75 72 54 90 77 71 68 66 51 49 54 55 48 48 49 52 62 68 74 76 76 54 46 44 48 43 42 43 41 29 26 29 29 32 33 32 30 29 26 28 
56 51 60 63 56 58 54 50 48 64 59 52 44 46 50 51 63 46 55 50 55 60 57 62 63 57 64 65 52 57 68 72 63 66 70 56 88 73 61 74 71 73 70 73 74 71 74 78 69 71 57 70 68 69 70 65 65 63 59 70 68 69 68 70 61 61 65 59 57 56 58 53 52 59 66 56 56 57 56 55 60 49 81 75 62 63 77 80 79 77 88 88 82 45 44 48 64 62 63 66 61 52 71 72 72 67 52 57 60 61 70 72 71 81 90 91 77 76 79 81 75 73 83 81 68 65 68 82 79 79 72 76 79 80 85 70 62 80 81 89 92 89 95 100 90 88 76 76 86 81 81 85 80 82 82 82 76 76 58 68 45 45 49 53 58 60 47 52 61 47 37 34 44 41 43 47 41 49 49 53 52 46 47 60 42 52 55 49 50 76 61 43 47 41 44 57 52 49 71 68 72 82 80 51 49 79 76 74 74 53 61 70 79 68 64 68 88 40 43 40 40 52 52 31 36 49 69 33 35 50 41 38 37 31 32 37 30 32 33 30 33 26 27 33 33 29 26 26 34 30 30 28 27 26 25 25 26 26 26 26 26 26 26 26 26 26 26 26 26 26 26 26 28 29 29 28 28 29 29 29 27 27 27 27 27 28 27 28 29 29 29 29 29 30 30 30 29 28 30 30 30 30 28 29 30 31 32 32 32 33 34 34 32 32 36 39 42 42 42 35 48 38 34 36 37 38 39 38 41 41 37 38 37 34 43 44 44 58 65 51 47 35 63 74 96 105 86 83 66 73 66 84 102 102 102 106 89 91 93 107 120 116 89 86 114 109 112 71 73 83 114 109 70 65 63 58 66 63 80 82 72 95 96 70 77 82 84 88 95 103 97 81 74 76 81 105 99 88 91 92 91 86 86 62 61 65 70 66 71 101 96 94 90 75 82 86 57 55 55 64 62 46 70 76 92 87 78 68 66 66 82 87 85 82 90 87 75 75 52 36 44 38 60 36 35 61 65 66 51 51 45 73 70 67 49 56 50 58 54 42 63 59 53 53 48 38 40 45 54 38 30 30 28 27 26 30 29 29 27 26 28 
79 61 65 52 56 59 61 49 50 59 63 56 49 45 50 68 61 48 49 50 49 62 59 62 65 58 56 68 70 64 64 66 64 63 65 39 46 34 55 46 79 75 66 72 73 65 74 75 49 44 46 67 67 75 72 58 64 66 48 68 68 68 73 66 76 68 71 43 48 63 62 56 56 53 51 46 55 61 66 59 62 65 74 78 55 54 51 66 48 43 60 79 64 50 46 53 61 66 61 57 46 49 53 46 35 37 59 58 58 66 66 68 65 63 82 84 78 80 77 69 71 70 81 86 73 61 76 78 79 68 79 81 80 73 57 67 86 83 84 91 93 88 96 92 79 78 76 77 85 71 82 85 83 72 91 75 59 54 49 46 44 50 48 48 57 59 48 44 35 42 45 35 37 42 42 36 38 50 52 53 54 39 41 43 39 33 34 46 45 35 34 43 40 40 39 48 49 41 44 45 46 57 62 45 45 80 84 73 42 45 46 57 65 57 59 72 46 40 46 42 34 34 53 51 38 42 67 33 33 48 51 33 35 33 34 40 38 34 33 37 28 30 31 30 33 27 27 29 29 29 29 28 28 26 25 26 26 26 26 26 26 26 26 26 26 26 26 26 26 26 26 26 28 28 28 28 28 28 29 28 27 27 27 27 28 27 26 27 29 29 29 28 30 30 30 31 32 31 30 30 30 30 31 31 35 37 37 37 37 38 39 40 36 39 38 33 33 39 40 33 34 33 35 35 37 38 38 38 39 36 37 38 38 42 42 40 36 51 56 60 66 139 142 76 83 110 92 75 72 67 77 90 96 99 97 87 93 119 111 103 100 106 87 96 91 110 106 75 77 82 112 106 65 65 60 65 60 65 80 86 49 57 78 74 72 73 84 107 106 104 95 104 81 68 80 83 90 92 95 100 82 82 76 63 55 95 75 74 69 113 100 87 86 77 71 61 63 61 58 57 83 78 72 74 85 95 109 71 70 72 91 84 84 83 83 86 77 79 84 54 44 41 34 35 35 41 35 46 48 49 61 65 68 65 48 50 55 59 47 50 59 51 57 50 49 42 37 69 61 33 30 27 27 27 27 27 28 28 30 27 27 
50 51 65 65 58 61 63 48 49 45 45 57 52 53 53 64 65 48 49 49 49 68 53 57 59 54 61 66 70 70 56 44 45 45 40 44 40 43 45 46 47 38 43 53 63 64 63 38 34 38 35 70 64 43 39 40 46 39 37 36 62 77 70 72 75 48 34 34 56 69 78 58 53 40 48 49 50 57 67 68 66 40 42 42 51 54 49 49 46 46 46 60 58 56 55 58 62 53 49 47 54 57 51 44 40 42 52 54 73 68 65 63 65 77 83 83 84 80 73 71 65 68 77 59 60 85 91 76 66 68 80 80 68 67 62 58 91 89 93 90 92 77 83 73 77 87 87 80 73 54 52 60 71 63 66 62 53 55 43 46 38 40 45 47 38 41 36 33 39 35 28 49 51 33 33 40 50 50 41 47 38 34 33 35 34 36 34 41 41 36 36 40 40 40 37 43 41 39 39 44 46 40 41 41 42 75 84 41 37 38 47 53 34 40 37 47 43 41 41 34 34 36 41 40 32 34 33 37 36 35 37 33 38 36 38 40 41 34 30 29 29 32 32 27 28 28 28 29 29 29 28 29 29 29 29 28 26 26 26 26 26 26 26 26 26 26 26 26 26 26 26 26 29 28 27 26 26 28 29 29 30 28 29 28 28 26 26 26 29 29 29 29 31 31 32 32 32 32 30 29 29 30 32 31 36 37 37 36 36 38 40 39 38 38 39 32 32 38 39 32 32 33 34 35 38 38 38 38 39 36 37 38 39 42 42 33 34 37 69 121 128 127 125 126 97 87 86 104 96 63 74 86 80 82 90 91 98 105 117 92 92 90 85 91 108 105 102 82 85 87 94 95 92 66 67 70 76 83 46 44 57 53 61 74 72 74 74 105 109 100 98 91 100 82 66 61 101 103 106 78 82 90 91 66 116 96 77 60 59 112 101 91 85 94 74 60 68 72 68 69 73 81 75 72 74 104 110 109 71 73 90 90 70 69 76 72 64 88 77 63 51 31 35 34 34 38 39 31 46 51 61 52 51 50 49 49 51 56 55 55 61 61 38 34 53 52 65 76 75 51 29 27 28 26 26 27 27 29 29 28 27 
40 43 37 66 64 63 64 49 46 53 51 46 45 56 59 61 64 62 56 58 56 68 64 46 51 53 60 60 51 48 51 46 60 38 36 38 47 40 51 50 49 38 37 64 66 60 59 34 37 33 66 71 91 35 34 43 40 38 34 34 41 58 65 63 65 60 32 33 30 78 47 53 52 39 46 46 46 65 65 40 46 46 43 40 41 40 46 49 48 49 48 53 57 60 60 54 53 53 52 60 60 66 66 48 67 64 61 71 68 69 69 65 78 83 79 83 82 82 68 69 72 69 75 75 57 60 96 98 84 79 85 76 68 69 61 72 66 91 91 91 71 67 73 70 78 90 86 76 73 50 47 49 61 46 63 61 50 46 41 38 46 42 47 46 37 33 48 34 38 35 30 29 54 39 33 40 52 58 38 34 32 31 30 31 34 36 39 35 35 39 38 39 40 41 36 36 37 37 41 43 44 37 38 45 42 38 36 38 36 33 34 36 36 40 38 35 34 35 33 32 36 38 36 38 39 33 32 34 36 36 38 37 36 39 33 37 38 34 31 30 32 32 31 28 28 31 31 28 29 28 28 28 28 29 28 28 26 26 26 26 26 26 26 26 26 26 26 26 26 26 26 26 28 29 26 26 26 26 29 29 30 31 30 29 27 26 26 26 28 29 29 29 31 31 32 32 32 32 29 29 29 30 31 32 37 37 37 36 34 34 35 37 37 38 38 37 37 36 35 32 36 38 39 40 39 38 37 38 38 37 38 39 35 34 39 34 33 35 82 85 120 113 136 129 104 107 92 97 77 95 90 85 95 76 90 98 93 82 84 84 89 87 92 100 101 90 91 95 87 93 94 96 88 73 78 66 82 74 46 44 60 63 63 72 97 78 78 100 110 93 97 91 92 92 60 67 58 92 89 84 87 91 87 68 96 99 54 64 54 66 88 92 94 97 48 53 65 73 71 63 73 75 74 75 76 78 73 100 64 72 67 79 70 72 81 80 58 51 87 95 104 73 34 35 39 35 29 34 31 37 57 45 47 50 46 51 55 56 54 55 63 57 44 30 35 51 72 70 76 70 46 36 37 33 27 26 27 29 29 28 28 
61 39 39 62 66 61 52 54 56 54 53 49 42 40 57 63 63 57 54 61 64 44 50 58 52 62 62 61 55 49 50 60 59 56 60 60 38 42 51 50 51 39 40 63 67 38 39 42 40 47 61 70 42 37 45 58 43 39 37 34 52 54 54 51 55 45 37 33 35 34 32 34 37 40 42 42 40 38 40 42 50 50 47 39 40 42 56 55 58 59 52 49 58 61 62 57 57 51 51 59 64 63 65 66 62 51 51 71 68 67 71 73 75 78 87 84 72 42 48 56 76 81 77 60 64 89 91 96 75 75 75 82 76 67 67 67 80 84 86 88 58 59 70 50 45 56 81 80 50 48 48 45 42 47 39 40 51 49 41 39 45 41 50 47 39 59 52 39 32 29 28 28 29 31 31 30 45 39 37 32 30 28 28 30 33 34 35 35 36 36 37 37 39 40 41 38 36 37 41 44 38 37 36 36 36 36 36 35 35 35 35 36 36 36 35 35 35 35 33 32 33 34 35 36 34 34 34 34 34 34 35 36 32 30 30 32 30 31 31 31 32 31 31 30 29 29 29 29 27 27 27 27 27 28 27 27 27 26 26 26 26 26 26 26 26 26 26 26 26 26 26 26 26 26 26 26 26 27 26 26 27 29 32 31 32 33 32 27 28 28 29 29 30 30 31 32 33 33 30 29 36 35 35 29 35 36 37 36 34 33 35 38 37 37 37 37 36 36 33 33 35 38 41 41 41 39 38 39 40 38 38 39 35 34 37 35 35 73 75 78 90 90 91 87 114 103 87 74 75 86 87 94 117 111 117 86 92 83 79 82 87 87 103 103 105 79 74 97 104 102 70 77 95 105 67 71 78 66 70 70 69 67 66 102 96 90 85 101 106 110 92 94 86 106 100 56 64 84 92 91 93 79 79 82 72 71 57 55 56 91 90 83 95 95 56 51 49 43 63 68 64 87 89 79 84 81 75 71 91 69 74 79 77 72 63 66 61 47 43 98 91 85 83 37 38 31 33 31 32 54 50 56 50 50 56 54 39 57 54 39 39 64 61 47 37 51 63 66 59 37 38 40 41 33 30 28 25 25 28 29 28 
39 47 60 64 61 50 47 58 56 54 52 54 38 36 50 46 61 60 57 53 50 49 46 67 69 69 61 59 60 57 54 62 55 52 54 58 45 42 55 54 51 39 38 43 42 35 38 48 44 43 36 45 47 52 50 50 48 49 47 46 51 53 54 46 47 34 35 35 35 37 36 34 42 43 42 39 38 39 44 51 50 46 43 45 47 49 52 55 62 54 53 54 57 61 61 59 57 53 54 53 53 49 51 55 56 52 51 55 68 68 72 74 74 80 86 67 58 48 50 59 76 81 73 65 62 79 86 76 68 70 64 82 80 53 49 62 76 83 84 79 53 59 55 55 50 54 70 67 68 53 59 45 38 42 43 38 47 49 45 40 35 35 44 49 51 54 57 33 29 29 27 26 27 30 30 30 41 32 35 29 29 28 28 28 34 34 35 35 36 35 36 36 40 40 41 41 37 37 36 38 36 36 36 36 35 36 35 35 35 35 35 34 37 36 35 35 35 34 33 33 34 34 35 35 34 34 34 33 33 34 33 34 31 31 29 26 30 31 31 31 31 31 30 30 30 29 29 29 27 26 27 27 27 27 27 27 26 26 26 26 26 26 26 26 26 26 26 26 26 26 26 26 26 26 26 26 26 26 26 26 28 28 29 30 32 32 31 33 32 31 29 29 30 30 31 31 32 32 32 32 34 35 34 31 29 35 36 36 34 38 39 40 43 43 40 40 40 39 41 43 43 44 44 44 43 43 43 42 39 37 40 39 35 34 46 38 86 76 72 81 95 94 91 88 91 113 113 86 69 79 83 106 117 78 85 99 94 86 84 88 106 102 95 90 87 79 78 100 97 87 73 84 95 93 79 67 92 101 94 73 70 69 67 73 101 89 91 108 108 112 112 95 101 105 94 87 96 84 85 83 90 70 78 79 91 86 79 72 94 88 71 73 87 92 75 69 40 47 57 60 61 58 86 84 87 89 75 72 77 70 71 79 75 63 62 67 67 46 53 70 84 86 80 68 69 37 33 33 52 50 51 52 52 61 56 36 44 38 43 41 38 37 72 68 71 67 62 56 45 38 33 35 42 30 30 30 29 26 29 29 30 
43 47 61 61 61 52 45 36 38 45 54 53 37 38 46 46 46 64 66 50 47 53 67 62 68 68 65 65 64 65 46 44 50 53 50 60 60 65 59 56 52 37 36 46 47 34 36 47 42 34 35 36 52 52 55 45 53 48 46 44 43 43 35 37 40 33 33 36 35 35 42 42 42 42 42 38 37 38 51 48 46 42 43 44 47 50 48 44 39 46 54 55 55 55 59 59 41 41 40 44 49 48 50 54 57 49 52 49 48 51 56 60 55 56 62 61 65 75 70 83 81 61 58 71 78 82 82 75 69 65 55 49 55 50 51 55 51 55 60 79 78 58 63 60 57 52 46 68 62 52 45 55 43 46 42 39 50 57 60 37 36 35 37 50 50 51 47 31 29 29 26 26 28 29 27 29 25 25 27 28 29 30 30 31 34 33 34 33 35 36 36 35 39 41 41 41 40 37 37 36 35 34 35 36 36 36 35 34 34 34 34 32 34 33 36 35 34 33 33 34 33 34 35 35 35 33 33 32 31 33 32 30 30 31 26 26 26 26 30 31 31 30 30 30 29 29 28 27 26 27 27 27 27 27 26 27 26 26 26 26 26 26 26 26 26 26 26 26 26 26 26 26 26 27 27 27 27 27 27 27 27 26 25 25 25 29 33 33 32 32 25 25 26 28 29 30 30 33 32 31 31 32 33 28 29 38 38 43 39 38 38 39 37 35 29 27 27 28 33 38 47 45 46 45 45 45 44 42 34 35 40 39 38 37 56 54 81 86 85 86 89 94 94 94 96 95 82 85 78 88 94 96 89 86 102 95 89 91 94 106 107 106 92 89 88 79 83 92 95 98 89 90 98 82 73 81 105 101 101 73 75 82 90 95 106 102 98 109 109 119 122 110 91 103 100 100 91 83 83 79 85 66 63 89 99 93 63 72 94 91 78 91 90 91 72 77 73 50 47 58 63 55 78 80 88 87 79 75 78 78 79 78 81 60 58 76 80 80 58 56 49 81 75 68 68 72 32 35 37 41 38 42 79 95 77 43 31 34 35 57 62 47 52 76 69 72 61 57 53 43 32 37 31 28 27 32 28 27 28 26 26 
52 44 50 60 60 38 39 40 40 38 51 49 44 42 49 48 46 64 63 56 57 60 63 66 53 57 68 71 70 51 47 43 63 60 62 64 63 64 63 41 34 33 37 44 44 33 33 34 35 30 35 36 38 38 45 47 37 37 43 42 42 38 36 35 37 34 30 33 35 35 42 42 40 41 45 47 47 46 45 50 43 42 41 42 42 42 36 36 38 40 50 48 43 39 37 40 41 42 41 43 45 42 43 52 41 42 49 46 47 54 60 61 51 50 52 59 70 49 56 64 73 63 61 63 74 82 81 65 74 65 54 50 58 65 63 51 51 51 59 81 84 59 60 64 58 48 46 70 70 40 50 57 49 48 39 35 61 59 61 48 43 33 36 47 45 41 41 29 29 27 26 26 28 27 27 26 26 25 27 30 30 30 30 32 32 32 33 33 35 35 34 34 38 37 41 41 39 37 37 37 34 34 35 36 36 35 35 34 33 32 32 31 31 33 35 35 33 33 33 34 34 34 34 35 34 33 33 32 32 30 29 29 29 29 27 25 25 27 29 29 30 30 29 29 29 28 27 27 26 27 27 27 27 27 27 26 26 26 26 26 26 26 26 26 26 26 26 26 26 26 26 26 26 27 27 27 27 27 27 27 27 26 24 25 24 28 30 33 27 28 27 25 25 27 29 32 37 36 36 38 42 50 52 52 50 50 48 43 40 38 32 34 34 34 30 29 29 30 35 37 35 33 32 31 32 32 33 35 34 35 37 40 40 44 74 77 73 72 96 97 89 87 84 99 101 93 71 71 71 81 87 83 85 94 101 90 91 99 101 105 105 105 100 91 95 100 85 88 94 100 74 79 97 96 78 100 97 94 71 81 81 90 100 101 107 101 100 98 113 118 124 87 88 110 111 97 92 78 78 96 101 67 71 101 102 101 64 68 66 82 80 90 91 92 97 70 66 51 50 44 49 83 79 76 77 71 71 67 80 82 78 78 77 54 61 74 77 74 73 45 44 46 41 44 71 72 29 26 39 39 41 40 103 93 76 72 33 29 50 62 64 54 50 51 72 71 71 66 66 67 61 32 33 28 27 35 36 29 31 27 26 
37 55 55 53 47 43 39 39 40 39 38 46 41 44 48 47 41 57 61 54 62 64 47 54 53 54 51 47 52 49 43 67 65 64 61 69 69 55 40 35 35 33 33 33 33 33 34 38 39 31 31 38 39 38 39 41 37 35 41 45 42 39 39 37 33 33 45 44 41 40 40 41 40 42 42 48 47 47 45 35 39 41 42 42 38 37 37 36 41 44 44 46 44 39 38 39 42 40 40 41 42 43 44 46 41 39 46 48 45 57 59 64 34 35 38 38 44 52 62 66 68 67 71 70 58 55 52 53 51 55 60 63 56 68 63 54 51 56 50 80 60 49 51 32 28 33 39 68 67 62 52 60 43 36 33 41 65 64 46 45 44 33 32 47 47 38 39 38 29 27 27 34 32 27 25 25 28 28 28 29 29 30 29 31 32 33 32 32 32 32 32 34 37 36 36 34 36 37 40 41 34 34 34 35 33 33 34 33 33 31 30 31 31 32 33 34 33 33 33 33 34 34 34 33 33 33 33 32 30 30 29 29 29 29 29 30 30 29 29 28 29 29 28 28 28 27 26 26 26 26 26 27 27 27 27 27 26 26 26 26 26 26 26 26 26 26 26 26 26 26 26 26 26 27 27 27 27 27 27 26 26 27 25 26 26 25 25 24 27 26 30 31 34 33 32 32 31 30 28 28 32 44 47 35 59 57 45 32 29 32 32 34 34 33 32 32 33 33 34 35 35 34 32 32 32 32 32 35 36 37 36 44 49 67 81 83 83 70 68 100 103 90 93 90 94 89 76 69 70 84 83 79 95 106 102 100 96 93 102 115 108 104 90 91 98 98 98 94 81 82 88 92 89 102 98 105 107 62 65 95 96 94 92 93 67 73 80 91 115 121 115 88 95 114 113 103 102 90 80 70 87 90 93 93 99 97 73 71 70 81 73 76 89 92 87 91 57 50 51 42 46 63 81 79 71 59 56 61 73 79 67 74 45 40 43 45 39 60 56 47 45 44 44 43 51 47 31 29 35 40 46 44 98 96 71 61 61 57 60 63 64 59 50 51 74 75 70 65 65 68 69 69 58 41 46 52 47 56 54 33 32 
30 58 57 54 47 90 82 68 38 32 27 30 26 28 34 29 42 37 29 30 37 43 48 49 62 63 43 41 65 65 62 61 63 65 59 35 32 32 35 34 35 34 33 33 33 32 34 35 39 31 31 36 40 38 38 44 36 35 46 47 48 40 38 38 38 37 39 46 39 41 39 40 40 38 33 32 35 37 36 34 35 38 41 39 37 37 40 41 41 43 46 45 46 46 45 40 40 42 40 41 42 42 43 42 41 42 46 47 34 38 39 36 38 38 37 38 39 80 72 56 50 57 74 69 55 51 53 52 50 55 57 62 53 38 48 50 46 44 47 54 58 49 46 29 28 30 42 48 58 49 46 61 40 30 33 53 58 65 35 37 36 37 41 46 46 35 36 35 27 26 26 33 33 25 25 25 28 28 28 27 26 27 28 28 30 30 30 32 32 32 32 33 36 36 34 33 33 37 42 41 35 34 34 32 34 33 32 33 30 30 31 31 30 31 32 33 33 33 33 34 34 34 33 34 34 32 33 32 31 31 29 29 28 29 30 30 29 30 29 28 29 29 28 28 28 26 27 26 26 26 26 26 27 27 27 27 26 26 26 26 26 26 26 26 26 26 26 26 26 26 26 26 27 27 27 27 27 27 27 27 26 27 27 27 27 25 24 23 22 24 30 32 34 34 33 31 32 30 27 27 31 43 37 26 25 27 29 28 28 27 27 28 30 31 33 33 34 34 34 33 34 33 33 34 37 37 38 37 33 37 44 56 54 61 87 84 85 82 76 103 100 95 92 83 83 86 84 84 78 84 82 79 77 105 105 100 97 96 98 112 83 92 92 89 92 99 99 88 81 86 87 93 86 93 80 100 59 67 96 92 97 94 93 80 71 70 98 109 115 115 118 109 98 113 112 113 98 90 85 82 86 87 97 75 75 95 78 81 80 82 79 74 76 64 94 76 74 52 50 50 47 56 62 75 78 56 54 62 79 84 61 62 48 40 37 32 35 41 56 52 55 55 60 41 39 37 30 37 40 45 66 52 68 84 59 67 63 54 60 64 63 49 46 45 72 73 70 64 65 72 73 67 64 57 54 52 51 58 59 39 35 
43 53 52 54 79 78 84 46 29 27 28 28 29 30 32 33 33 36 30 32 39 43 44 54 59 60 55 52 60 65 64 64 44 48 39 33 34 32 33 37 35 36 34 33 35 36 36 26 27 32 33 33 34 39 60 55 39 36 45 49 50 44 36 37 37 32 30 34 36 35 40 42 41 35 34 34 35 34 34 35 34 35 37 37 37 38 39 42 37 41 44 46 46 46 43 42 42 42 42 41 41 34 33 35 34 35 37 35 35 34 39 38 37 38 36 37 44 71 74 53 47 50 52 70 75 69 67 63 69 73 62 62 46 38 40 46 44 43 44 68 69 60 56 28 27 31 51 47 47 40 38 64 52 32 34 50 55 40 30 28 38 40 41 44 44 32 34 37 35 27 26 32 31 22 23 29 28 28 28 26 26 26 27 29 30 29 30 31 30 31 31 32 31 33 34 34 33 33 37 40 38 36 34 32 28 29 33 31 29 30 30 31 31 31 32 31 32 32 34 34 35 35 32 33 33 33 32 31 32 32 32 31 30 30 29 30 30 30 29 29 28 28 28 27 27 25 25 25 25 25 26 26 26 26 27 27 26 26 26 26 26 26 26 26 26 26 26 26 26 26 26 26 27 27 27 27 27 27 27 27 25 26 27 27 26 26 25 23 23 25 27 26 26 25 24 24 30 29 26 27 27 28 28 25 26 28 28 30 27 25 26 27 30 31 32 32 33 33 33 33 32 32 33 34 36 37 37 38 36 37 58 82 71 69 83 90 85 91 92 97 95 86 81 90 82 81 87 93 79 84 82 79 97 96 93 90 116 126 116 79 77 82 95 97 84 90 91 80 84 93 92 81 101 92 73 74 60 63 98 93 92 99 101 83 79 89 105 112 114 115 113 114 104 109 110 99 87 84 95 91 76 64 76 82 74 64 88 82 81 68 77 78 72 57 65 63 72 44 47 59 59 63 73 78 79 82 69 68 82 101 55 57 56 54 30 31 36 39 65 69 66 58 59 64 37 37 42 39 68 68 74 73 49 28 28 32 33 32 35 65 63 48 44 46 44 72 70 67 70 75 75 62 62 60 61 52 56 61 60 44 43 
48 49 51 72 73 36 33 35 32 28 31 28 26 28 39 36 41 48 47 41 40 46 51 55 38 58 51 34 34 33 33 32 32 31 32 33 34 36 36 38 35 35 30 30 29 34 33 24 26 33 33 30 29 49 60 54 42 41 46 51 51 50 39 36 36 33 31 37 37 37 36 35 37 37 35 37 33 35 34 34 36 34 35 35 37 38 37 36 35 34 43 45 46 40 36 34 32 33 34 33 34 35 34 33 35 37 35 36 35 35 36 37 37 36 37 37 33 37 60 58 62 49 59 67 75 61 57 62 54 71 51 45 46 36 37 38 38 47 45 72 68 74 53 35 33 31 47 51 53 40 37 54 66 50 42 42 45 29 28 32 31 40 42 39 36 35 31 37 31 24 26 25 26 23 23 28 28 28 27 26 26 27 31 31 29 30 29 30 31 30 31 31 31 33 33 33 33 30 32 31 38 37 35 28 28 27 31 31 28 27 30 31 31 31 31 31 31 31 34 35 35 34 33 32 31 32 32 32 32 32 32 31 31 29 29 27 27 30 30 30 29 28 28 27 27 26 25 25 25 25 25 25 25 25 26 26 26 26 26 26 26 26 26 26 26 26 26 26 26 26 26 26 27 26 27 27 27 27 27 27 25 25 26 26 26 27 26 25 26 26 26 27 26 25 25 25 26 29 30 27 26 28 29 25 25 27 32 32 32 31 28 28 30 30 30 31 32 33 33 32 33 32 34 38 39 39 39 39 39 51 97 97 85 85 104 108 89 88 94 90 94 91 85 82 91 80 82 85 91 110 107 107 96 101 83 103 119 120 127 83 81 81 97 95 84 79 98 95 90 100 95 97 81 72 72 78 83 72 95 94 89 97 75 84 80 92 101 110 115 107 111 114 93 93 108 104 82 87 95 76 64 63 62 74 63 62 70 56 58 56 57 61 60 65 67 73 64 54 53 52 52 47 59 81 84 80 77 76 97 96 48 48 58 56 34 32 52 46 62 68 67 60 65 69 45 44 46 41 59 69 71 71 42 34 33 34 37 32 32 59 61 66 70 40 43 41 48 55 67 75 73 62 61 67 64 65 53 61 59 54 57 
59 56 67 76 42 26 47 32 40 33 33 45 62 37 47 38 39 53 49 36 34 34 32 35 35 31 32 36 37 34 34 37 30 30 32 32 35 36 37 37 32 34 33 29 29 33 34 31 27 33 31 29 33 35 84 61 52 50 41 51 51 35 39 35 40 39 38 38 39 39 36 34 38 37 48 40 40 47 35 36 37 37 37 37 37 37 37 37 36 37 38 36 34 32 33 34 32 33 35 34 33 32 33 34 37 36 37 36 36 37 37 38 36 38 34 38 30 34 61 63 63 66 63 56 51 52 56 57 45 48 76 63 35 39 39 35 36 33 27 55 73 68 67 55 28 33 56 36 76 47 39 58 41 38 34 32 44 24 40 31 34 32 32 27 51 34 44 69 33 26 25 27 28 25 25 27 27 28 25 27 31 27 31 52 31 29 28 28 30 31 31 30 31 30 30 30 30 31 32 33 27 32 55 43 26 31 28 28 27 27 27 28 28 30 30 30 31 32 32 33 33 32 31 30 33 33 34 34 33 31 30 28 31 30 29 28 27 26 27 27 28 31 31 29 27 29 29 25 24 25 27 27 25 25 27 28 26 26 26 26 26 26 26 26 26 27 27 28 28 27 27 26 28 28 28 28 28 28 28 28 27 28 28 28 28 27 25 25 26 27 27 27 26 26 28 30 33 33 29 24 25 29 29 26 26 26 28 29 29 29 28 28 29 30 31 32 33 34 33 33 30 35 34 36 40 33 38 58 63 78 111 80 89 85 123 117 87 98 90 97 85 87 79 98 94 79 83 94 106 89 114 109 117 70 88 70 101 124 115 135 82 98 90 97 99 109 82 67 109 90 94 92 86 74 64 81 80 87 104 91 78 117 90 76 120 79 85 121 111 112 93 100 90 103 88 112 89 81 93 84 79 59 56 60 74 70 46 55 65 56 47 61 60 59 78 78 73 40 54 52 45 49 40 62 60 63 92 62 73 110 64 38 53 65 49 48 47 65 47 41 48 70 78 59 41 40 40 32 60 72 68 71 56 64 48 40 40 32 25 47 62 71 81 62 37 43 37 28 29 32 42 60 68 59 69 47 31 54 58 46 55 
